G93 R50.0;FLAVOR:Marlin
;TIME:1415
;Filament used: 0.811894m, 0m
;Layer height: 0.2
;MINX:82.55
;MINY:72.55
;MINZ:0.2
;MAXX:132.45
;MAXY:132.435
;MAXZ:1.2
;Generated with Cura_SteamEngine 4.11.0
M140 S40
M105
M190 S40
M104 S200
M105
M109 S200
M82 ;absolute extrusion mode
G21 ;metric values
G90 ;absolute positioning
M82 ;set extruder to absolute mode
M107 ;start with the fan off
G28 X0 Y0 ;move X/Y to min endstops
G28 Z0 ;move Z to min endstops
G1 Z15.0 F9000 ;move the platform down 15mm
G92 E0 ;zero the extruded length
G1 F200 E15 ;extrude 15mm of feed stock
G92 E0 ;zero the extruded length again
G1 F9000
;Put printing message on LCD screen
M117 Printing...
G92 E0
G92 E0
G1 F2100 E-5
;LAYER_COUNT:5G93 R50.0
;LAYER:0G93 R50.0
M107
M204 S1000
M205 X6 Y6
G1 F600 Z1.2
G0 F2666.7 X83.544 Y73.595 Z1.2
M205 X5 Y5
;TYPE:SKIRT
G1 F600 Z0.2
G1 F2100 E0
G1 F1200 X83.939 Y73.249 E0.0131
G1 X84.382 Y72.967 E0.0262
G1 X84.863 Y72.755 E0.03931
G1 X85.37 Y72.619 E0.05241
G1 X85.912 Y72.56 E0.06601
G1 X86.33 Y72.55 E0.07644
G1 X128.342 Y72.55 E1.12443
G1 X129.04 Y72.56 E1.14184
G1 X129.563 Y72.608 E1.15494
G1 X130.073 Y72.734 E1.16805
G1 X130.557 Y72.936 E1.18113
G1 X131.006 Y73.209 E1.19424
G1 X131.407 Y73.547 E1.20732
G1 X131.753 Y73.943 E1.22044
G1 X132.035 Y74.386 E1.23354
G1 X132.246 Y74.866 E1.24662
G1 X132.382 Y75.373 E1.25971
G1 X132.44 Y75.913 E1.27326
G1 X132.45 Y76.33 E1.28367
G1 X132.45 Y118.311 E2.33089
G1 X132.44 Y119.039 E2.34905
G1 X132.393 Y119.562 E2.36215
G1 X132.267 Y120.072 E2.37525
G1 X132.065 Y120.557 E2.38836
G1 X131.792 Y121.005 E2.40144
G1 X131.454 Y121.407 E2.41454
G1 X131.059 Y121.753 E2.42764
G1 X130.616 Y122.035 E2.44074
G1 X130.235 Y122.21 E2.4512
G1 X129.175 Y122.619 E2.47954
G1 X128.485 Y122.875 E2.4979
G1 X125.89 Y123.922 E2.56771
G1 X123.449 Y124.989 E2.63416
G1 X120.937 Y126.171 E2.70341
G1 X118.504 Y127.403 E2.77144
G1 X116.119 Y128.695 E2.8391
G1 X113.772 Y130.054 E2.90676
G1 X112.416 Y130.88 E2.94636
G1 X111.846 Y131.234 E2.9631
G1 X111.397 Y131.469 E2.97574
G1 X110.598 Y131.814 E2.99745
G1 X110.103 Y132.012 E3.01075
G1 X109.602 Y132.17 E3.02386
G1 X109.334 Y132.221 E3.03066
G1 X108.555 Y132.338 E3.05031
G1 X108.444 Y132.353 E3.05311
G1 X107.923 Y132.414 E3.06619
G1 X107.399 Y132.435 E3.07927
G1 X107.133 Y132.415 E3.08593
G1 X106.264 Y132.315 E3.10775
G1 X105.744 Y132.24 E3.12085
G1 X105.231 Y132.125 E3.13397
G1 X104.968 Y132.033 E3.14092
G1 X104.139 Y131.704 E3.16317
G1 X103.638 Y131.488 E3.17678
G1 X103.206 Y131.264 E3.18891
G1 X101.76 Y130.381 E3.23118
G1 X99.425 Y129.009 E3.29874
G1 X97.028 Y127.687 E3.36702
G1 X94.603 Y126.44 E3.43504
G1 X92.118 Y125.247 E3.5038
G1 X89.648 Y124.149 E3.57123
G1 X87.112 Y123.104 E3.63965
G1 X84.777 Y122.213 E3.702
G1 X84.334 Y122.008 E3.71417
G1 X83.895 Y121.719 E3.72728
G1 X83.506 Y121.367 E3.74037
G1 X83.175 Y120.959 E3.75348
G1 X82.91 Y120.506 E3.76657
G1 X82.716 Y120.018 E3.77967
G1 X82.598 Y119.507 E3.79275
G1 X82.552 Y118.777 E3.811
G1 X82.55 Y118.67 E3.81367
G1 X82.55 Y76.627 E4.86243
G1 X82.559 Y75.962 E4.87902
G1 X82.606 Y75.439 E4.89212
G1 X82.732 Y74.93 E4.9052
G1 X82.934 Y74.445 E4.91831
G1 X83.207 Y73.997 E4.93139
G1 X83.544 Y73.595 E4.94448
M205 X6 Y6
G0 F2666.7 X83.838 Y73.726
M205 X5 Y5
G1 F1200 X84.228 Y73.411 E4.95698
G1 X84.663 Y73.161 E4.9695
G1 X85.132 Y72.983 E4.98201
G1 X85.624 Y72.883 E4.99454
G1 X86.242 Y72.851 E5.00997
G1 X128.338 Y72.85 E6.06006
G1 X129.036 Y72.86 E6.07748
G1 X129.536 Y72.907 E6.09
G1 X130.021 Y73.033 E6.1025
G1 X130.481 Y73.234 E6.11503
G1 X130.902 Y73.506 E6.12753
G1 X131.275 Y73.841 E6.14004
G1 X131.591 Y74.231 E6.15256
G1 X131.84 Y74.666 E6.16506
G1 X132.017 Y75.136 E6.17759
G1 X132.118 Y75.627 E6.19009
G1 X132.149 Y76.241 E6.20543
G1 X132.15 Y118.307 E7.25477
G1 X132.14 Y119.035 E7.27293
G1 X132.093 Y119.535 E7.28546
G1 X131.967 Y120.02 E7.29796
G1 X131.766 Y120.48 E7.31048
G1 X131.495 Y120.902 E7.32299
G1 X131.16 Y121.275 E7.3355
G1 X130.77 Y121.591 E7.34802
G1 X130.126 Y121.93 E7.36617
G1 X129.071 Y122.338 E7.39439
G1 X128.33 Y122.613 E7.41411
G1 X125.805 Y123.632 E7.48203
G1 X123.306 Y124.724 E7.55006
G1 X120.822 Y125.893 E7.61854
G1 X118.403 Y127.118 E7.68618
G1 X115.96 Y128.441 E7.75548
G1 X113.569 Y129.826 E7.82441
G1 X112.285 Y130.608 E7.86191
G1 X111.688 Y130.979 E7.87945
G1 X111.278 Y131.194 E7.89099
G1 X110.487 Y131.536 E7.91249
G1 X109.992 Y131.734 E7.92579
G1 X109.29 Y131.924 E7.94393
G1 X108.409 Y132.055 E7.96615
G1 X107.888 Y132.116 E7.97923
G1 X107.167 Y132.117 E7.99722
G1 X106.306 Y132.018 E8.01884
G1 X105.786 Y131.943 E8.03195
G1 X105.078 Y131.754 E8.05022
G1 X104.258 Y131.429 E8.07223
G1 X103.757 Y131.213 E8.08584
G1 X103.362 Y131.008 E8.09694
G1 X101.966 Y130.155 E8.13775
G1 X99.546 Y128.732 E8.20778
G1 X97.176 Y127.426 E8.27528
G1 X94.736 Y126.17 E8.34374
G1 X92.25 Y124.978 E8.41251
G1 X89.779 Y123.879 E8.47997
G1 X87.215 Y122.822 E8.54915
G1 X84.883 Y121.931 E8.61143
G1 X84.46 Y121.735 E8.62306
G1 X84.044 Y121.454 E8.63558
G1 X83.678 Y121.111 E8.64809
G1 X83.372 Y120.714 E8.66059
G1 X83.132 Y120.274 E8.6731
G1 X82.965 Y119.801 E8.68561
G1 X82.862 Y119.09 E8.70353
G1 X82.85 Y118.67 E8.71401
G1 X82.85 Y76.631 E9.76268
G1 X82.859 Y75.966 E9.77927
G1 X82.906 Y75.467 E9.79177
G1 X83.031 Y74.981 E9.80429
G1 X83.232 Y74.522 E9.81679
G1 X83.504 Y74.1 E9.82931
G1 X83.838 Y73.726 E9.84182
M205 X6 Y6
G1 F2100 E4.84182
G1 F600 Z1.2
;MESH:adapter_v1.stl
G0 F2666.7 X127.95 Y117.95 Z1.2
M205 X5 Y5
;TYPE:WALL-INNER
G1 F600 Z0.2
G1 F2100 E9.84182
G1 F1200 X111.45 Y117.95 E10.25342
G1 X111.45 Y123.939 E10.40281
G1 X111.308 Y125.014 E10.42986
G1 X110.912 Y125.971 E10.4557
G1 X110.287 Y126.787 E10.48134
G1 X109.471 Y127.412 E10.50698
G1 X108.514 Y127.808 E10.53281
G1 X107.5 Y127.943 E10.55833
G1 X106.486 Y127.808 E10.58385
G1 X105.529 Y127.412 E10.60968
G1 X104.713 Y126.787 E10.63532
G1 X104.088 Y125.971 E10.66096
G1 X103.692 Y125.014 E10.6868
G1 X103.55 Y123.939 E10.71385
G1 X103.55 Y117.95 E10.86324
G1 X87.05 Y117.95 E11.27484
G1 X87.05 Y77.05 E12.29509
G1 X127.95 Y77.05 E13.31535
G1 X127.95 Y117.95 E14.3356
M205 X6 Y6
G0 F2666.7 X112.022 Y118.522
G0 X110.938 Y123.08
M205 X5 Y5
G1 F1200 X110.582 Y122.221 E14.3588
G1 X110.017 Y121.483 E14.38198
G1 X109.279 Y120.918 E14.40517
G1 X108.42 Y120.562 E14.42836
G1 X107.5 Y120.44 E14.45151
G1 X106.58 Y120.562 E14.47466
G1 X105.721 Y120.918 E14.49786
G1 X104.983 Y121.483 E14.52104
G1 X104.418 Y122.221 E14.54423
G1 X104.062 Y123.08 E14.56742
G1 X103.94 Y124 E14.59057
G1 X104.062 Y124.92 E14.61372
G1 X104.418 Y125.779 E14.63692
G1 X104.983 Y126.517 E14.6601
G1 X105.721 Y127.082 E14.68329
G1 X106.58 Y127.438 E14.70648
G1 X107.5 Y127.56 E14.72963
G1 X108.42 Y127.438 E14.75278
G1 X109.279 Y127.082 E14.77598
G1 X110.017 Y126.517 E14.79916
G1 X110.582 Y125.779 E14.82235
G1 X110.938 Y124.92 E14.84554
G1 X111.06 Y124 E14.8687
G1 X110.938 Y123.08 E14.89185
M205 X6 Y6
G0 F2666.7 X112.022 Y118.522
G0 X128.25 Y118.25
M205 X5 Y5
G1 F1200 X111.75 Y118.25 E15.30344
G1 X111.75 Y123.955 E15.44575
G1 X111.6 Y125.094 E15.47441
G1 X111.174 Y126.123 E15.50219
G1 X110.501 Y127.001 E15.52979
G1 X109.623 Y127.674 E15.55738
G1 X108.594 Y128.1 E15.58516
G1 X107.5 Y128.245 E15.61269
G1 X106.406 Y128.1 E15.64022
G1 X105.377 Y127.674 E15.668
G1 X104.499 Y127.001 E15.6956
G1 X103.826 Y126.123 E15.72319
G1 X103.4 Y125.094 E15.75097
G1 X103.25 Y123.955 E15.77963
G1 X103.25 Y118.25 E15.92194
G1 X86.75 Y118.25 E16.33354
G1 X86.75 Y76.75 E17.36876
G1 X128.25 Y76.75 E18.40398
G1 X128.25 Y118.25 E19.4392
M205 X6 Y6
G0 F2666.7 X112.022 Y118.522
G0 X110.646 Y123.158
M205 X5 Y5
G1 F1200 X110.32 Y122.372 E19.46043
G1 X109.803 Y121.697 E19.48164
G1 X109.128 Y121.18 E19.50285
G1 X108.342 Y120.854 E19.52408
G1 X107.5 Y120.743 E19.54526
G1 X106.658 Y120.854 E19.56645
G1 X105.872 Y121.18 E19.58767
G1 X105.197 Y121.697 E19.60888
G1 X104.68 Y122.372 E19.63009
G1 X104.354 Y123.158 E19.65132
G1 X104.243 Y124 E19.6725
G1 X104.354 Y124.842 E19.69369
G1 X104.68 Y125.628 E19.71492
G1 X105.197 Y126.303 E19.73612
G1 X105.872 Y126.82 E19.75733
G1 X106.658 Y127.146 E19.77856
G1 X107.5 Y127.257 E19.79975
G1 X108.342 Y127.146 E19.82093
G1 X109.128 Y126.82 E19.84216
G1 X109.803 Y126.303 E19.86337
G1 X110.32 Y125.628 E19.88458
G1 X110.646 Y124.842 E19.9058
G1 X110.757 Y124 E19.92699
G1 X110.646 Y123.158 E19.94817
M205 X6 Y6
G0 F2666.7 X112.022 Y118.522
G0 X128.48 Y118.48
G0 X128.55 Y118.55
M205 X5 Y5
G1 F1200 X112.05 Y118.55 E20.35977
G1 X112.05 Y123.971 E20.495
G1 X111.892 Y125.174 E20.52526
G1 X111.436 Y126.275 E20.55499
G1 X110.715 Y127.215 E20.58454
G1 X109.775 Y127.936 E20.61409
G1 X108.674 Y128.392 E20.64382
G1 X107.5 Y128.547 E20.67336
G1 X106.326 Y128.392 E20.7029
G1 X105.225 Y127.936 E20.73263
G1 X104.285 Y127.215 E20.76218
G1 X103.564 Y126.275 E20.79173
G1 X103.108 Y125.174 E20.82146
G1 X102.95 Y123.971 E20.85172
G1 X102.95 Y118.55 E20.98695
G1 X86.45 Y118.55 E21.39854
G1 X86.45 Y76.45 E22.44873
G1 X128.55 Y76.45 E23.49892
G1 X128.55 Y118.55 E24.54911
M205 X6 Y6
G0 F2666.7 X128.48 Y118.48
G0 X112.022 Y118.522
G0 X110.45 Y123.211
G0 X110.354 Y123.236
M205 X5 Y5
G1 F1200 X110.058 Y122.523 E24.56837
G1 X109.589 Y121.911 E24.5876
G1 X108.977 Y121.442 E24.60684
G1 X108.264 Y121.146 E24.62609
G1 X107.5 Y121.046 E24.64531
G1 X106.736 Y121.146 E24.66453
G1 X106.023 Y121.442 E24.68379
G1 X105.411 Y121.911 E24.70303
G1 X104.942 Y122.523 E24.72226
G1 X104.646 Y123.236 E24.74152
G1 X104.546 Y124 E24.76074
G1 X104.646 Y124.764 E24.77996
G1 X104.942 Y125.477 E24.79922
G1 X105.411 Y126.089 E24.81845
G1 X106.023 Y126.558 E24.83768
G1 X106.736 Y126.854 E24.85694
G1 X107.5 Y126.954 E24.87616
G1 X108.264 Y126.854 E24.89538
G1 X108.977 Y126.558 E24.91464
G1 X109.589 Y126.089 E24.93387
G1 X110.058 Y125.477 E24.95311
G1 X110.354 Y124.764 E24.97237
G1 X110.454 Y124 E24.99159
G1 X110.354 Y123.236 E25.01081
M205 X6 Y6
G1 F2100 E20.01081
G0 F2666.7 X110.45 Y123.211
G0 X112.022 Y118.522
G0 X128.48 Y118.48
G1 F2100 E25.01081
G0 F2666.7 X128.8 Y118.8
M205 X5 Y5
;TYPE:WALL-OUTER
G1 F1200 X112.3 Y118.8 E25.4224
G1 X112.3 Y123.989 E25.55184
G1 X112.136 Y125.239 E25.58329
G1 X111.655 Y126.399 E25.61461
G1 X110.893 Y127.393 E25.64586
G1 X109.899 Y128.155 E25.6771
G1 X108.739 Y128.636 E25.70843
G1 X107.5 Y128.799 E25.7396
G1 X106.261 Y128.636 E25.77077
G1 X105.101 Y128.155 E25.8021
G1 X104.107 Y127.393 E25.83334
G1 X103.345 Y126.399 E25.86458
G1 X102.864 Y125.239 E25.89591
G1 X102.7 Y123.989 E25.92736
G1 X102.7 Y118.8 E26.0568
G1 X86.2 Y118.8 E26.46839
G1 X86.2 Y76.2 E27.53105
G1 X128.8 Y76.2 E28.59371
G1 X128.8 Y118.8 E29.65638
M205 X6 Y6
G0 F2666.7 X128.6 Y118.8
G1 F2100 E24.65638
G0 F2666.7 X128.48 Y118.48
G0 X112.022 Y118.522
G0 X110.434 Y123.168
G1 F2100 E29.65638
G0 F2666.7 X110.11 Y123.301
M205 X5 Y5
G1 F1200 X109.84 Y122.649 E29.67398
G1 X109.411 Y122.089 E29.69158
G1 X108.851 Y121.66 E29.70917
G1 X108.199 Y121.39 E29.72678
G1 X107.5 Y121.298 E29.74436
G1 X106.801 Y121.39 E29.76195
G1 X106.149 Y121.66 E29.77956
G1 X105.589 Y122.089 E29.79715
G1 X105.16 Y122.649 E29.81475
G1 X104.89 Y123.301 E29.83235
G1 X104.798 Y124 E29.84994
G1 X104.89 Y124.699 E29.86753
G1 X105.16 Y125.351 E29.88513
G1 X105.589 Y125.911 E29.90273
G1 X106.149 Y126.34 E29.92033
G1 X106.801 Y126.61 E29.93793
G1 X107.5 Y126.702 E29.95552
G1 X108.199 Y126.61 E29.9731
G1 X108.851 Y126.34 E29.99071
G1 X109.411 Y125.911 E30.0083
G1 X109.84 Y125.351 E30.0259
G1 X110.11 Y124.699 E30.0435
G1 X110.202 Y124 E30.06109
G1 X110.11 Y123.301 E30.07868
M205 X6 Y6
G0 F2666.7 X110.034 Y123.117
G0 X110.357 Y122.984
G0 X111.16 Y122.859
M205 X5 Y5
;TYPE:SKIN
G1 F1200 X110.835 Y122.074 E30.09987
G1 X110.224 Y121.276 E30.12494
G1 X109.426 Y120.665 E30.15001
G1 X108.496 Y120.28 E30.17512
G1 X107.5 Y120.148 E30.20019
G1 X106.504 Y120.28 E30.22525
G1 X105.574 Y120.665 E30.25036
G1 X104.776 Y121.276 E30.27543
G1 X104.165 Y122.074 E30.3005
G1 X103.84 Y122.859 E30.32169
G1 X103.84 Y117.66 E30.45138
G1 X87.34 Y117.66 E30.86298
G1 X87.34 Y77.34 E31.86876
G1 X127.66 Y77.34 E32.87455
G1 X127.66 Y117.66 E33.88034
G1 X111.16 Y117.66 E34.29193
G1 X111.16 Y122.859 E34.42162
M205 X6 Y6
G0 F2666.7 X108.997 Y121.408
G0 X102.978 Y118.522
G0 X87.855 Y117.553
M205 X5 Y5
G1 F1200 X87.444 Y117.142 E34.43612
M205 X6 Y6
G0 F2666.7 X87.444 Y116.718
M205 X5 Y5
G1 F1200 X88.279 Y117.553 E34.46558
M205 X6 Y6
G0 F2666.7 X88.703 Y117.553
M205 X5 Y5
G1 F1200 X87.444 Y116.294 E34.50999
M205 X6 Y6
G0 F2666.7 X87.444 Y115.87
M205 X5 Y5
G1 F1200 X89.127 Y117.553 E34.56936
M205 X6 Y6
G0 F2666.7 X89.552 Y117.553
M205 X5 Y5
G1 F1200 X87.444 Y115.445 E34.64373
M205 X6 Y6
G0 F2666.7 X87.444 Y115.021
M205 X5 Y5
G1 F1200 X89.976 Y117.553 E34.73305
M205 X6 Y6
G0 F2666.7 X90.4 Y117.553
M205 X5 Y5
G1 F1200 X87.444 Y114.597 E34.83733
M205 X6 Y6
G0 F2666.7 X87.444 Y114.172
M205 X5 Y5
G1 F1200 X90.825 Y117.553 E34.95661
M205 X6 Y6
G0 F2666.7 X91.249 Y117.553
M205 X5 Y5
G1 F1200 X87.444 Y113.748 E35.09084
M205 X6 Y6
G0 F2666.7 X87.444 Y113.324
M205 X5 Y5
G1 F1200 X91.673 Y117.553 E35.24003
M205 X6 Y6
G0 F2666.7 X92.097 Y117.553
M205 X5 Y5
G1 F1200 X87.444 Y112.9 E35.40417
M205 X6 Y6
G0 F2666.7 X87.444 Y112.475
M205 X5 Y5
G1 F1200 X92.522 Y117.553 E35.58331
M205 X6 Y6
G0 F2666.7 X92.946 Y117.553
M205 X5 Y5
G1 F1200 X87.444 Y112.051 E35.77741
M205 X6 Y6
G0 F2666.7 X87.444 Y111.627
M205 X5 Y5
G1 F1200 X93.37 Y117.553 E35.98647
M205 X6 Y6
G0 F2666.7 X93.794 Y117.553
M205 X5 Y5
G1 F1200 X87.444 Y111.203 E36.21048
M205 X6 Y6
G0 F2666.7 X87.444 Y110.778
M205 X5 Y5
G1 F1200 X94.219 Y117.553 E36.44949
M205 X6 Y6
G0 F2666.7 X94.643 Y117.553
M205 X5 Y5
G1 F1200 X87.444 Y110.354 E36.70345
M205 X6 Y6
G0 F2666.7 X87.444 Y109.93
M205 X5 Y5
G1 F1200 X95.067 Y117.553 E36.97237
M205 X6 Y6
G0 F2666.7 X95.491 Y117.553
M205 X5 Y5
G1 F1200 X87.444 Y109.506 E37.25625
M205 X6 Y6
G0 F2666.7 X87.444 Y109.081
M205 X5 Y5
G1 F1200 X95.916 Y117.553 E37.55513
M205 X6 Y6
G0 F2666.7 X96.34 Y117.553
M205 X5 Y5
G1 F1200 X87.444 Y108.657 E37.86896
M205 X6 Y6
G0 F2666.7 X87.444 Y108.233
M205 X5 Y5
G1 F1200 X96.764 Y117.553 E38.19774
M205 X6 Y6
G0 F2666.7 X97.188 Y117.553
M205 X5 Y5
G1 F1200 X87.444 Y107.809 E38.54149
M205 X6 Y6
G0 F2666.7 X87.444 Y107.384
M205 X5 Y5
G1 F1200 X97.613 Y117.553 E38.90023
M205 X6 Y6
G0 F2666.7 X98.037 Y117.553
M205 X5 Y5
G1 F1200 X87.444 Y106.96 E39.27393
M205 X6 Y6
G0 F2666.7 X87.444 Y106.536
M205 X5 Y5
G1 F1200 X98.461 Y117.553 E39.66258
M205 X6 Y6
G0 F2666.7 X98.886 Y117.553
M205 X5 Y5
G1 F1200 X87.444 Y106.111 E40.06623
M205 X6 Y6
G0 F2666.7 X87.444 Y105.687
M205 X5 Y5
G1 F1200 X99.31 Y117.553 E40.48483
M205 X6 Y6
G0 F2666.7 X99.734 Y117.553
M205 X5 Y5
G1 F1200 X87.444 Y105.263 E40.9184
M205 X6 Y6
G0 F2666.7 X87.444 Y104.839
M205 X5 Y5
G1 F1200 X100.158 Y117.553 E41.36692
M205 X6 Y6
G0 F2666.7 X100.583 Y117.553
M205 X5 Y5
G1 F1200 X87.444 Y104.414 E41.83043
M205 X6 Y6
G0 F2666.7 X87.444 Y103.99
M205 X5 Y5
G1 F1200 X101.007 Y117.553 E42.3089
M205 X6 Y6
G0 F2666.7 X101.431 Y117.553
M205 X5 Y5
G1 F1200 X87.444 Y103.566 E42.80233
M205 X6 Y6
G0 F2666.7 X87.444 Y103.142
M205 X5 Y5
G1 F1200 X101.855 Y117.553 E43.31072
M205 X6 Y6
G0 F2666.7 X102.28 Y117.553
M205 X5 Y5
G1 F1200 X87.444 Y102.717 E43.8341
M205 X6 Y6
G0 F2666.7 X87.444 Y102.293
M205 X5 Y5
G1 F1200 X102.704 Y117.553 E44.37244
M205 X6 Y6
G0 F2666.7 X103.128 Y117.553
M205 X5 Y5
G1 F1200 X87.444 Y101.869 E44.92573
M205 X6 Y6
G0 F2666.7 X87.444 Y101.445
M205 X5 Y5
G1 F1200 X103.552 Y117.553 E45.49398
M205 X6 Y6
G0 F2666.7 X103.944 Y117.945
M205 X5 Y5
