G93 R50.0;FLAVOR:Marlin
;TIME:13170
;Filament used: 7.72969m, 0m
;Layer height: 0.2
;MINX:63.6
;MINY:29.35
;MINZ:0.2
;MAXX:151.4
;MAXY:175.625
;MAXZ:26
;Generated with Cura_SteamEngine 4.11.0
M140 S40
M105
M190 S40
M104 S200
M105
M109 S200
M82 ;absolute extrusion mode
G21 ;metric values
G90 ;absolute positioning
M82 ;set extruder to absolute mode
M107 ;start with the fan off
G28 X0 Y0 ;move X/Y to min endstops
G28 Z0 ;move Z to min endstops
G1 Z15.0 F9000 ;move the platform down 15mm
G92 E0 ;zero the extruded length
G1 F200 E15 ;extrude 15mm of feed stock
G92 E0 ;zero the extruded length again
G1 F9000
;Put printing message on LCD screen
M117 Printing...
G92 E0
G92 E0
G1 F2100 E-5
;LAYER_COUNT:130G93 R50.0
;LAYER:0G93 R50.0
M107
M204 S1000
M205 X6 Y6
G1 F600 Z1.2
G0 F2666.7 X63.985 Y31.017 Z1.2
M205 X5 Y5
;TYPE:SKIRT
G1 F600 Z0.2
G1 F2100 E0
G1 F1200 X64.257 Y30.596 E0.0125
G1 X64.593 Y30.223 E0.02503
G1 X64.983 Y29.908 E0.03753
G1 X65.419 Y29.659 E0.05006
G1 X65.888 Y29.482 E0.06256
G1 X66.379 Y29.382 E0.07506
G1 X66.991 Y29.351 E0.09035
G1 X147.588 Y29.35 E2.10085
G1 X148.286 Y29.36 E2.11826
G1 X148.786 Y29.407 E2.13079
G1 X149.271 Y29.533 E2.14329
G1 X149.731 Y29.734 E2.15581
G1 X150.152 Y30.006 E2.16831
G1 X150.525 Y30.341 E2.18082
G1 X150.841 Y30.731 E2.19334
G1 X151.09 Y31.166 E2.20584
G1 X151.267 Y31.636 E2.21837
G1 X151.368 Y32.127 E2.23088
G1 X151.399 Y32.741 E2.24621
G1 X151.4 Y134.838 E4.79303
G1 X151.39 Y135.535 E4.81042
G1 X151.343 Y136.035 E4.82295
G1 X151.217 Y136.52 E4.83545
G1 X151.016 Y136.98 E4.84797
G1 X150.744 Y137.401 E4.86047
G1 X150.409 Y137.774 E4.87298
G1 X149.847 Y138.199 E4.89056
G1 X149.085 Y138.651 E4.91266
G1 X142.265 Y142.548 E5.1086
G1 X139.85 Y143.974 E5.17856
G1 X137.558 Y145.416 E5.24611
G1 X135.283 Y146.939 E5.3144
G1 X133.04 Y148.534 E5.38306
G1 X130.836 Y150.197 E5.45193
G1 X128.733 Y151.879 E5.5191
G1 X126.615 Y153.675 E5.58838
G1 X124.589 Y155.494 E5.6563
G1 X122.609 Y157.372 E5.72437
G1 X120.652 Y159.34 E5.7936
G1 X118.803 Y161.306 E5.86093
G1 X116.975 Y163.364 E5.92959
G1 X115.207 Y165.471 E5.9982
G1 X113.521 Y167.599 E6.06593
G1 X111.867 Y169.815 E6.13491
G1 X110.781 Y171.35 E6.18181
G1 X110.363 Y171.867 E6.1984
G1 X109.929 Y172.315 E6.21395
G1 X109.604 Y172.641 E6.22544
G1 X109.122 Y173.11 E6.24221
G1 X108.64 Y173.494 E6.25759
G1 X108.048 Y173.878 E6.27519
G1 X107.703 Y174.095 E6.28536
G1 X107.136 Y174.439 E6.3019
G1 X106.629 Y174.688 E6.31599
G1 X106.515 Y174.732 E6.31904
G1 X105.946 Y174.94 E6.33415
G1 X105.568 Y175.072 E6.34414
G1 X104.902 Y175.293 E6.36164
G1 X104.369 Y175.42 E6.37531
G1 X103.684 Y175.508 E6.39254
G1 X103.211 Y175.561 E6.40441
G1 X102.55 Y175.625 E6.42098
G1 X101.94 Y175.625 E6.43619
G1 X101.238 Y175.556 E6.45379
G1 X100.841 Y175.511 E6.46375
G1 X100.176 Y175.425 E6.48048
G1 X99.58 Y175.288 E6.49574
G1 X98.881 Y175.054 E6.51412
G1 X98.588 Y174.952 E6.52186
G1 X97.917 Y174.706 E6.53969
G1 X97.438 Y174.483 E6.55287
G1 X97.303 Y174.404 E6.55677
G1 X96.767 Y174.076 E6.57245
G1 X96.43 Y173.864 E6.58238
G1 X95.653 Y173.361 E6.60547
G1 X93.274 Y171.867 E6.67555
G1 X90.941 Y170.493 E6.74309
G1 X88.558 Y169.177 E6.81099
G1 X86.091 Y167.907 E6.88021
G1 X83.636 Y166.727 E6.94815
G1 X81.12 Y165.607 E7.01685
G1 X78.594 Y164.564 E7.08502
G1 X76.01 Y163.582 E7.15398
G1 X73.445 Y162.692 E7.22171
G1 X70.846 Y161.87 E7.2897
G1 X68.236 Y161.126 E7.3574
G1 X65.97 Y160.54 E7.41579
G1 X65.496 Y160.376 E7.4283
G1 X65.054 Y160.139 E7.44081
G1 X64.655 Y159.835 E7.45333
G1 X64.31 Y159.471 E7.46584
G1 X64.026 Y159.057 E7.47836
G1 X63.812 Y158.603 E7.49088
G1 X63.673 Y158.122 E7.50337
G1 X63.61 Y157.577 E7.51705
G1 X63.6 Y157.164 E7.52736
G1 X63.6 Y33.127 E10.62148
G1 X63.61 Y32.462 E10.63807
G1 X63.658 Y31.962 E10.6506
G1 X63.784 Y31.477 E10.6631
G1 X63.985 Y31.017 E10.67562
M205 X6 Y6
G1 F2100 E5.67562
G1 F600 Z1.2
;MESH:bottom_v4_mesh.stl
G0 F2666.7 X147.2 Y134.891 Z1.2
M205 X5 Y5
;TYPE:WALL-INNER
G1 F600 Z0.2
G1 F2100 E10.67562
G1 F1200 X108.7 Y156.891 E11.78174
G1 X108.7 Y164.945 E11.98265
G1 X108.533 Y166.431 E12.01995
G1 X108.053 Y167.8 E12.05614
G1 X107.29 Y169.016 E12.09195
G1 X106.266 Y170.04 E12.12808
G1 X105.05 Y170.803 E12.16389
G1 X103.681 Y171.283 E12.20007
G1 X102.25 Y171.444 E12.236
G1 X100.819 Y171.283 E12.27192
G1 X99.45 Y170.803 E12.30811
G1 X98.234 Y170.04 E12.34392
G1 X97.21 Y169.016 E12.38004
G1 X96.447 Y167.8 E12.41585
G1 X95.967 Y166.431 E12.45204
G1 X95.8 Y164.945 E12.48934
G1 X95.8 Y156.45 E12.70125
G1 X67.8 Y156.45 E13.39971
G1 X67.8 Y33.55 E16.46546
G1 X147.2 Y33.55 E18.44611
G1 X147.2 Y134.891 E20.97407
M205 X6 Y6
G0 F2666.7 X109.266 Y157.219
G0 X107.497 Y161.971
M205 X5 Y5
G1 F1200 X106.535 Y160.715 E21.01353
G1 X105.279 Y159.753 E21.053
G1 X103.817 Y159.147 E21.09248
G1 X102.25 Y158.94 E21.1319
G1 X100.683 Y159.147 E21.17133
G1 X99.221 Y159.753 E21.21081
G1 X97.965 Y160.715 E21.25028
G1 X97.003 Y161.971 E21.28974
G1 X96.397 Y163.433 E21.32922
G1 X96.19 Y165 E21.36865
G1 X96.397 Y166.567 E21.40808
G1 X97.003 Y168.029 E21.44756
G1 X97.965 Y169.285 E21.48702
G1 X99.221 Y170.247 E21.52649
G1 X100.683 Y170.853 E21.56597
G1 X102.25 Y171.06 E21.60539
G1 X103.817 Y170.853 E21.64482
G1 X105.279 Y170.247 E21.6843
G1 X106.535 Y169.285 E21.72377
G1 X107.497 Y168.029 E21.76323
G1 X108.103 Y166.567 E21.80271
G1 X108.31 Y165 E21.84214
G1 X108.103 Y163.433 E21.88157
G1 X107.497 Y161.971 E21.92105
M205 X6 Y6
G0 F2666.7 X109.266 Y157.219
G0 X147.5 Y135.065
M205 X5 Y5
G1 F1200 X109 Y157.065 E23.02717
G1 X109 Y164.961 E23.22414
G1 X108.827 Y166.498 E23.26272
G1 X108.325 Y167.93 E23.30057
G1 X107.525 Y169.205 E23.33812
G1 X106.455 Y170.275 E23.37587
G1 X105.18 Y171.075 E23.41342
G1 X103.748 Y171.577 E23.45127
G1 X102.25 Y171.746 E23.48887
G1 X100.752 Y171.577 E23.52648
G1 X99.32 Y171.075 E23.56433
G1 X98.045 Y170.275 E23.60188
G1 X96.975 Y169.205 E23.63963
G1 X96.175 Y167.93 E23.67717
G1 X95.673 Y166.498 E23.71503
G1 X95.5 Y164.961 E23.75361
G1 X95.5 Y156.75 E23.95843
G1 X67.5 Y156.75 E24.6569
G1 X67.5 Y33.25 E27.73762
G1 X147.5 Y33.25 E29.73322
G1 X147.5 Y135.065 E32.27301
M205 X6 Y6
G0 F2666.7 X109.266 Y157.219
G0 X107.235 Y162.122
M205 X5 Y5
G1 F1200 X106.321 Y160.929 E32.3105
G1 X105.128 Y160.015 E32.34799
G1 X103.739 Y159.439 E32.3855
G1 X102.25 Y159.243 E32.42296
G1 X100.761 Y159.439 E32.46042
G1 X99.372 Y160.015 E32.49793
G1 X98.179 Y160.929 E32.53542
G1 X97.265 Y162.122 E32.57291
G1 X96.689 Y163.511 E32.61042
G1 X96.493 Y165 E32.64789
G1 X96.689 Y166.489 E32.68535
G1 X97.265 Y167.878 E32.72286
G1 X98.179 Y169.071 E32.76035
G1 X99.372 Y169.985 E32.79784
G1 X100.761 Y170.561 E32.83535
G1 X102.25 Y170.757 E32.87281
G1 X103.739 Y170.561 E32.91028
G1 X105.128 Y169.985 E32.94779
G1 X106.321 Y169.071 E32.98528
G1 X107.235 Y167.878 E33.02277
G1 X107.811 Y166.489 E33.06028
G1 X108.007 Y165 E33.09774
G1 X107.811 Y163.511 E33.1352
G1 X107.235 Y162.122 E33.17271
M205 X6 Y6
G0 F2666.7 X109.266 Y157.219
G0 X147.714 Y135.189
G0 X147.8 Y135.239
M205 X5 Y5
G1 F1200 X109.3 Y157.239 E34.27884
G1 X109.3 Y164.977 E34.47186
G1 X109.121 Y166.565 E34.51173
G1 X108.597 Y168.06 E34.55124
G1 X107.76 Y169.394 E34.59053
G1 X106.644 Y170.51 E34.6299
G1 X105.31 Y171.347 E34.66918
G1 X103.815 Y171.871 E34.7087
G1 X102.25 Y172.048 E34.74799
G1 X100.685 Y171.871 E34.78728
G1 X99.19 Y171.347 E34.82679
G1 X97.856 Y170.51 E34.86608
G1 X96.74 Y169.394 E34.90545
G1 X95.903 Y168.06 E34.94473
G1 X95.379 Y166.565 E34.98425
G1 X95.2 Y164.977 E35.02411
G1 X95.2 Y157.05 E35.22185
G1 X67.2 Y157.05 E35.92032
G1 X67.2 Y32.95 E39.016
G1 X147.8 Y32.95 E41.02658
G1 X147.8 Y135.239 E43.57819
M205 X6 Y6
G0 F2666.7 X147.714 Y135.189
G0 X109.266 Y157.219
G0 X107.059 Y162.223
G0 X106.973 Y162.273
M205 X5 Y5
G1 F1200 X106.107 Y161.143 E43.6137
G1 X104.977 Y160.277 E43.64922
G1 X103.661 Y159.731 E43.68476
G1 X102.25 Y159.546 E43.72026
G1 X100.839 Y159.731 E43.75575
G1 X99.523 Y160.277 E43.7913
G1 X98.393 Y161.143 E43.82681
G1 X97.527 Y162.273 E43.86232
G1 X96.981 Y163.589 E43.89786
G1 X96.796 Y165 E43.93336
G1 X96.981 Y166.411 E43.96886
G1 X97.527 Y167.727 E44.0044
G1 X98.393 Y168.857 E44.03992
G1 X99.523 Y169.723 E44.07543
G1 X100.839 Y170.269 E44.11097
G1 X102.25 Y170.454 E44.14647
G1 X103.661 Y170.269 E44.18197
G1 X104.977 Y169.723 E44.21751
G1 X106.107 Y168.857 E44.25302
G1 X106.973 Y167.727 E44.28854
G1 X107.519 Y166.411 E44.32408
G1 X107.704 Y165 E44.35958
G1 X107.519 Y163.589 E44.39508
G1 X106.973 Y162.273 E44.43062
M205 X6 Y6
G1 F2100 E39.43062
G0 F2666.7 X107.059 Y162.223
G0 X109.266 Y157.219
G0 X147.714 Y135.189
G1 F2100 E44.43062
G0 F2666.7 X148.05 Y135.384
M205 X5 Y5
;TYPE:WALL-OUTER
G1 F1200 X109.55 Y157.384 E45.53674
G1 X109.55 Y164.987 E45.7264
G1 X109.366 Y166.624 E45.76749
G1 X108.824 Y168.17 E45.80836
G1 X107.957 Y169.551 E45.84904
G1 X106.801 Y170.707 E45.88982
G1 X105.42 Y171.574 E45.93049
G1 X103.874 Y172.116 E45.97136
G1 X102.25 Y172.299 E46.01213
G1 X100.626 Y172.116 E46.05289
G1 X99.08 Y171.574 E46.09376
G1 X97.699 Y170.707 E46.13443
G1 X96.543 Y169.551 E46.17522
G1 X95.676 Y168.17 E46.21589
G1 X95.134 Y166.624 E46.25676
G1 X94.95 Y164.987 E46.29785
G1 X94.95 Y157.3 E46.4896
G1 X66.95 Y157.3 E47.18807
G1 X66.95 Y32.7 E50.29623
G1 X148.05 Y32.7 E52.31927
G1 X148.05 Y135.384 E54.88074
M205 X6 Y6
G0 F2666.7 X147.877 Y135.483
G1 F2100 E49.88074
G0 F2666.7 X147.704 Y135.179
G0 X109.266 Y157.219
G0 X107.078 Y162.266
G1 F2100 E54.88074
G0 F2666.7 X106.755 Y162.399
M205 X5 Y5
G1 F1200 X105.929 Y161.321 E54.91461
G1 X104.851 Y160.495 E54.94849
G1 X103.596 Y159.975 E54.98238
G1 X102.25 Y159.798 E55.01624
G1 X100.904 Y159.975 E55.05011
G1 X99.649 Y160.495 E55.08399
G1 X98.571 Y161.321 E55.11787
G1 X97.745 Y162.399 E55.15175
G1 X97.225 Y163.654 E55.18564
G1 X97.048 Y165 E55.2195
G1 X97.225 Y166.346 E55.25337
G1 X97.745 Y167.601 E55.28725
G1 X98.571 Y168.679 E55.32113
G1 X99.649 Y169.505 E55.35501
G1 X100.904 Y170.025 E55.3889
G1 X102.25 Y170.202 E55.42276
G1 X103.596 Y170.025 E55.45663
G1 X104.851 Y169.505 E55.49051
G1 X105.929 Y168.679 E55.52439
G1 X106.755 Y167.601 E55.55827
G1 X107.275 Y166.346 E55.59215
G1 X107.452 Y165 E55.62602
G1 X107.275 Y163.654 E55.65988
G1 X106.755 Y162.399 E55.69377
M205 X6 Y6
G0 F2666.7 X106.634 Y162.241
G0 X106.912 Y162.03
G0 X107.75 Y161.824
M205 X5 Y5
;TYPE:SKIN
G1 F1200 X106.742 Y160.508 E55.73512
G1 X105.426 Y159.5 E55.77647
G1 X103.893 Y158.865 E55.81787
G1 X102.25 Y158.648 E55.85921
G1 X100.607 Y158.865 E55.90055
G1 X99.074 Y159.5 E55.94194
G1 X97.758 Y160.508 E55.98329
G1 X96.75 Y161.824 E56.02464
G1 X96.115 Y163.357 E56.06603
G1 X96.09 Y163.546 E56.07079
G1 X96.09 Y156.16 E56.25503
G1 X68.09 Y156.16 E56.9535
G1 X68.09 Y33.84 E60.00478
G1 X146.91 Y33.84 E61.97095
G1 X146.91 Y134.723 E64.48749
G1 X108.41 Y156.723 E65.59362
G1 X108.41 Y163.546 E65.76382
G1 X108.385 Y163.357 E65.76857
G1 X107.75 Y161.824 E65.80996
M205 X6 Y6
G0 F2666.7 X104.997 Y160.243
G0 X103.671 Y159.693
G0 X95.228 Y157.022
G0 X68.655 Y156.054
M205 X5 Y5
G1 F1200 X68.194 Y155.592 E65.82624
M205 X6 Y6
G0 F2666.7 X68.194 Y155.168
M205 X5 Y5
G1 F1200 X69.08 Y156.054 E65.8575
M205 X6 Y6
G0 F2666.7 X69.504 Y156.054
M205 X5 Y5
G1 F1200 X68.194 Y154.743 E65.90373
M205 X6 Y6
G0 F2666.7 X68.194 Y154.319
M205 X5 Y5
G1 F1200 X69.928 Y156.054 E65.96492
M205 X6 Y6
G0 F2666.7 X70.352 Y156.054
M205 X5 Y5
G1 F1200 X68.194 Y153.895 E66.04107
M205 X6 Y6
G0 F2666.7 X68.194 Y153.471
M205 X5 Y5
G1 F1200 X70.777 Y156.054 E66.13219
M205 X6 Y6
G0 F2666.7 X71.201 Y156.054
M205 X5 Y5
G1 F1200 X68.194 Y153.046 E66.23829
M205 X6 Y6
G0 F2666.7 X68.194 Y152.622
M205 X5 Y5
G1 F1200 X71.625 Y156.054 E66.35934
M205 X6 Y6
G0 F2666.7 X72.049 Y156.054
M205 X5 Y5
G1 F1200 X68.194 Y152.198 E66.49536
M205 X6 Y6
G0 F2666.7 X68.194 Y151.774
M205 X5 Y5
G1 F1200 X72.474 Y156.054 E66.64634
M205 X6 Y6
G0 F2666.7 X72.898 Y156.054
M205 X5 Y5
G1 F1200 X68.194 Y151.349 E66.81231
M205 X6 Y6
G0 F2666.7 X68.194 Y150.925
M205 X5 Y5
G1 F1200 X73.322 Y156.054 E66.99323
M205 X6 Y6
G0 F2666.7 X73.746 Y156.054
M205 X5 Y5
G1 F1200 X68.194 Y150.501 E67.18911
M205 X6 Y6
G0 F2666.7 X68.194 Y150.077
M205 X5 Y5
G1 F1200 X74.171 Y156.054 E67.39996
M205 X6 Y6
G0 F2666.7 X74.595 Y156.054
M205 X5 Y5
G1 F1200 X68.194 Y149.652 E67.6258
M205 X6 Y6
G0 F2666.7 X68.194 Y149.228
M205 X5 Y5
G1 F1200 X75.019 Y156.054 E67.86658
M205 X6 Y6
G0 F2666.7 X75.444 Y156.054
M205 X5 Y5
G1 F1200 X68.194 Y148.804 E68.12235
M205 X6 Y6
G0 F2666.7 X68.194 Y148.379
M205 X5 Y5
G1 F1200 X75.868 Y156.054 E68.39309
M205 X6 Y6
G0 F2666.7 X76.292 Y156.054
M205 X5 Y5
G1 F1200 X68.194 Y147.955 E68.67878
M205 X6 Y6
G0 F2666.7 X68.194 Y147.531
M205 X5 Y5
G1 F1200 X76.716 Y156.054 E68.97944
M205 X6 Y6
G0 F2666.7 X77.141 Y156.054
M205 X5 Y5
G1 F1200 X68.194 Y147.107 E69.29507
M205 X6 Y6
G0 F2666.7 X68.194 Y146.682
M205 X5 Y5
G1 F1200 X77.565 Y156.054 E69.62567
M205 X6 Y6
G0 F2666.7 X77.989 Y156.054
M205 X5 Y5
G1 F1200 X68.194 Y146.258 E69.97123
M205 X6 Y6
G0 F2666.7 X68.194 Y145.834
M205 X5 Y5
G1 F1200 X78.413 Y156.054 E70.33175
M205 X6 Y6
G0 F2666.7 X78.838 Y156.054
M205 X5 Y5
G1 F1200 X68.194 Y145.41 E70.70725
M205 X6 Y6
G0 F2666.7 X68.194 Y144.985
M205 X5 Y5
G1 F1200 X79.262 Y156.054 E71.09772
M205 X6 Y6
G0 F2666.7 X79.686 Y156.054
M205 X5 Y5
G1 F1200 X68.194 Y144.561 E71.50315
M205 X6 Y6
G0 F2666.7 X68.194 Y144.137
M205 X5 Y5
G1 F1200 X80.11 Y156.054 E71.92354
M205 X6 Y6
G0 F2666.7 X80.535 Y156.054
M205 X5 Y5
G1 F1200 X68.194 Y143.713 E72.3589
M205 X6 Y6
G0 F2666.7 X68.194 Y143.288
M205 X5 Y5
G1 F1200 X80.959 Y156.054 E72.80924
M205 X6 Y6
G0 F2666.7 X81.383 Y156.054
M205 X5 Y5
G1 F1200 X68.194 Y142.864 E73.27453
M205 X6 Y6
G0 F2666.7 X68.194 Y142.44
M205 X5 Y5
G1 F1200 X81.808 Y156.054 E73.7548
M205 X6 Y6
G0 F2666.7 X82.232 Y156.054
M205 X5 Y5
G1 F1200 X68.194 Y142.016 E74.25003
M205 X6 Y6
G0 F2666.7 X68.194 Y141.591
M205 X5 Y5
G1 F1200 X82.656 Y156.054 E74.76023
M205 X6 Y6
G0 F2666.7 X83.08 Y156.054
M205 X5 Y5
G1 F1200 X68.194 Y141.167 E75.2854
M205 X6 Y6
G0 F2666.7 X68.194 Y140.743
M205 X5 Y5
G1 F1200 X83.505 Y156.054 E75.82553
M205 X6 Y6
G0 F2666.7 X83.929 Y156.054
M205 X5 Y5
G1 F1200 X68.194 Y140.318 E76.38064
M205 X6 Y6
G0 F2666.7 X68.194 Y139.894
M205 X5 Y5
G1 F1200 X84.353 Y156.054 E76.95071
M205 X6 Y6
G0 F2666.7 X84.777 Y156.054
M205 X5 Y5
G1 F1200 X68.194 Y139.47 E77.53574
M205 X6 Y6
G0 F2666.7 X68.194 Y139.046
M205 X5 Y5
G1 F1200 X85.202 Y156.054 E78.13575
M205 X6 Y6
G0 F2666.7 X85.626 Y156.054
M205 X5 Y5
G1 F1200 X68.194 Y138.621 E78.75072
M205 X6 Y6
G0 F2666.7 X68.194 Y138.197
M205 X5 Y5
G1 F1200 X86.05 Y156.054 E79.38066
M205 X6 Y6
G0 F2666.7 X86.474 Y156.054
M205 X5 Y5
G1 F1200 X68.194 Y137.773 E80.02555
M205 X6 Y6
G0 F2666.7 X68.194 Y137.349
M205 X5 Y5
G1 F1200 X86.899 Y156.054 E80.68542
M205 X6 Y6
G0 F2666.7 X87.323 Y156.054
M205 X5 Y5
G1 F1200 X68.194 Y136.924 E81.36027
M205 X6 Y6
G0 F2666.7 X68.194 Y136.5
M205 X5 Y5
G1 F1200 X87.747 Y156.054 E82.05007
M205 X6 Y6
G0 F2666.7 X88.171 Y156.054
M205 X5 Y5
G1 F1200 X68.194 Y136.076 E82.75483
M205 X6 Y6
G0 F2666.7 X68.194 Y135.652
M205 X5 Y5
G1 F1200 X88.596 Y156.054 E83.47457
M205 X6 Y6
G0 F2666.7 X89.02 Y156.054
M205 X5 Y5
G1 F1200 X68.194 Y135.227 E84.20928
M205 X6 Y6
G0 F2666.7 X68.194 Y134.803
M205 X5 Y5
G1 F1200 X89.444 Y156.054 E84.95895
M205 X6 Y6
G0 F2666.7 X89.869 Y156.054
M205 X5 Y5
G1 F1200 X68.194 Y134.379 E85.72359
M205 X6 Y6
G0 F2666.7 X68.194 Y133.955
M205 X5 Y5
G1 F1200 X90.293 Y156.054 E86.50319
M205 X6 Y6
G0 F2666.7 X90.717 Y156.054
M205 X5 Y5
G1 F1200 X68.194 Y133.53 E87.29777
