G93 R50.0;FLAVOR:Marlin
;TIME:13173
;Filament used: 7.64761m, 0m
;Layer height: 0.2
;MINX:63.6
;MINY:29.35
;MINZ:0.2
;MAXX:151.4
;MAXY:175.637
;MAXZ:21
;Generated with Cura_SteamEngine 4.11.0
M140 S40
M105
M190 S40
M104 S200
M105
M109 S200
M82 ;absolute extrusion mode
G21 ;metric values
G90 ;absolute positioning
M82 ;set extruder to absolute mode
M107 ;start with the fan off
G28 X0 Y0 ;move X/Y to min endstops
G28 Z0 ;move Z to min endstops
G1 Z15.0 F9000 ;move the platform down 15mm
G92 E0 ;zero the extruded length
G1 F200 E15 ;extrude 15mm of feed stock
G92 E0 ;zero the extruded length again
G1 F9000
;Put printing message on LCD screen
M117 Printing...
G92 E0
G92 E0
G1 F2100 E-5
;LAYER_COUNT:105G93 R50.0
;LAYER:0G93 R50.0
M107
M204 S1000
M205 X6 Y6
G1 F600 Z1.2
G0 F2666.7 X63.984 Y32.016 Z1.2
M205 X5 Y5
;TYPE:SKIRT
G1 F600 Z0.2
G1 F2100 E0
G1 F1200 X64.256 Y31.594 E0.01252
G1 X64.595 Y31.208 E0.02534
G1 X65.026 Y30.769 E0.04069
G1 X65.565 Y30.246 E0.05942
G1 X65.952 Y29.927 E0.07193
G1 X66.385 Y29.673 E0.08445
G1 X66.853 Y29.492 E0.09697
G1 X67.343 Y29.387 E0.10947
G1 X67.864 Y29.355 E0.12249
G1 X68.273 Y29.35 E0.13269
G1 X146.588 Y29.35 E2.08627
G1 X147.289 Y29.36 E2.10376
G1 X147.788 Y29.407 E2.11626
G1 X148.274 Y29.533 E2.12879
G1 X148.733 Y29.734 E2.14129
G1 X149.155 Y30.006 E2.15381
G1 X149.532 Y30.335 E2.16629
G1 X150.017 Y30.813 E2.18328
G1 X150.503 Y31.315 E2.20071
G1 X150.822 Y31.702 E2.21322
G1 X151.076 Y32.135 E2.22574
G1 X151.258 Y32.602 E2.23824
G1 X151.363 Y33.093 E2.25077
G1 X151.395 Y33.615 E2.26381
G1 X151.4 Y34.024 E2.27402
G1 X151.4 Y133.842 E4.76399
G1 X151.389 Y134.546 E4.78155
G1 X151.341 Y135.046 E4.79408
G1 X151.214 Y135.531 E4.80659
G1 X150.872 Y136.255 E4.82656
G1 X150.816 Y136.355 E4.82942
G1 X150.427 Y137.026 E4.84877
G1 X150.073 Y137.614 E4.86589
G1 X149.781 Y138.021 E4.87838
G1 X149.427 Y138.378 E4.89092
G1 X149.018 Y138.676 E4.90355
G1 X148.65 Y138.899 E4.91428
G1 X142.352 Y142.497 E5.09522
G1 X139.937 Y143.923 E5.16518
G1 X137.653 Y145.36 E5.23249
G1 X135.361 Y146.893 E5.30127
G1 X133.121 Y148.486 E5.36984
G1 X130.936 Y150.135 E5.43813
G1 X128.809 Y151.835 E5.50605
G1 X126.701 Y153.623 E5.575
G1 X124.675 Y155.441 E5.6429
G1 X122.694 Y157.32 E5.71101
G1 X120.737 Y159.288 E5.78025
G1 X118.889 Y161.253 E5.84753
G1 X117.06 Y163.311 E5.91622
G1 X115.292 Y165.418 E5.98483
G1 X113.601 Y167.552 E6.05275
G1 X111.949 Y169.764 E6.12162
G1 X110.703 Y171.524 E6.17541
G1 X110.395 Y171.896 E6.18745
G1 X109.926 Y172.378 E6.20423
G1 X109.642 Y172.663 E6.21427
G1 X109.16 Y173.132 E6.23104
G1 X108.681 Y173.514 E6.24633
G1 X108.079 Y173.905 E6.26423
G1 X107.755 Y174.109 E6.27378
G1 X107.207 Y174.442 E6.28978
G1 X106.755 Y174.67 E6.30241
G1 X106.583 Y174.738 E6.30702
G1 X106.027 Y174.941 E6.32179
G1 X105.704 Y175.054 E6.33032
G1 X104.993 Y175.292 E6.34903
G1 X104.393 Y175.429 E6.36438
G1 X103.707 Y175.517 E6.38163
G1 X103.385 Y175.553 E6.38971
G1 X102.647 Y175.625 E6.40821
G1 X102.073 Y175.637 E6.42253
G1 X101.807 Y175.622 E6.42918
G1 X101.104 Y175.552 E6.4468
G1 X100.8 Y175.517 E6.45443
G1 X100.094 Y175.426 E6.47219
G1 X99.495 Y175.289 E6.48752
G1 X98.806 Y175.057 E6.50565
G1 X98.504 Y174.951 E6.51364
G1 X97.846 Y174.709 E6.53113
G1 X97.297 Y174.445 E6.54632
G1 X96.715 Y174.091 E6.56332
G1 X96.433 Y173.913 E6.57163
G1 X94.865 Y172.897 E6.61824
G1 X92.539 Y171.437 E6.68675
G1 X90.173 Y170.042 E6.75526
G1 X87.814 Y168.741 E6.82246
G1 X85.328 Y167.459 E6.89224
G1 X82.884 Y166.285 E6.95987
G1 X80.383 Y165.171 E7.02817
G1 X77.827 Y164.114 E7.09717
G1 X75.276 Y163.149 E7.1652
G1 X72.703 Y162.255 E7.23315
G1 X70.081 Y161.425 E7.30175
G1 X67.87 Y160.79 E7.35914
G1 X66.919 Y160.528 E7.38374
G1 X66.448 Y160.357 E7.39624
G1 X66.01 Y160.113 E7.40875
G1 X65.613 Y159.8 E7.42136
G1 X65.215 Y159.42 E7.43509
G1 X64.967 Y159.172 E7.44384
G1 X64.496 Y158.685 E7.46074
G1 X64.177 Y158.298 E7.47325
G1 X63.923 Y157.865 E7.48577
G1 X63.742 Y157.397 E7.49829
G1 X63.637 Y156.907 E7.51079
G1 X63.605 Y156.386 E7.52381
G1 X63.6 Y155.977 E7.53401
G1 X63.6 Y34.162 E10.5727
G1 X63.61 Y33.46 E10.59021
G1 X63.657 Y32.961 E10.60272
G1 X63.783 Y32.475 E10.61524
G1 X63.984 Y32.016 E10.62774
M205 X6 Y6
G1 F2100 E5.62774
G1 F600 Z1.2
;MESH:bottom_v5.stl
G0 F2666.7 X147.2 Y134.221 Z1.2
M205 X5 Y5
;TYPE:WALL-INNER
G1 F600 Z0.2
G1 F2100 E10.62774
G1 F1200 X146.617 Y135.225 E10.6567
G1 X108.7 Y156.891 E11.74607
G1 X108.7 Y165.045 E11.94947
G1 X108.535 Y166.509 E11.98622
G1 X108.063 Y167.857 E12.02185
G1 X107.312 Y169.054 E12.0571
G1 X106.304 Y170.062 E12.09266
G1 X105.107 Y170.813 E12.12791
G1 X103.759 Y171.285 E12.16353
G1 X102.295 Y171.45 E12.20028
G1 X102.205 Y171.45 E12.20253
G1 X100.741 Y171.285 E12.23928
G1 X99.393 Y170.813 E12.27491
G1 X98.196 Y170.062 E12.31016
G1 X97.188 Y169.054 E12.34572
G1 X96.437 Y167.857 E12.38097
G1 X95.965 Y166.509 E12.41659
G1 X95.8 Y165.045 E12.45335
G1 X95.8 Y156.45 E12.66775
G1 X68.184 Y156.45 E13.35663
G1 X67.8 Y156.066 E13.37018
G1 X67.8 Y33.934 E16.41677
G1 X68.184 Y33.55 E16.43032
G1 X146.816 Y33.55 E18.3918
G1 X147.2 Y33.934 E18.40535
G1 X147.2 Y134.221 E20.90702
M205 X6 Y6
G0 F2666.7 X109.266 Y157.219
G0 X106.631 Y162.471
M205 X5 Y5
G1 F1200 X105.827 Y161.423 E20.93997
G1 X104.779 Y160.619 E20.97292
G1 X103.558 Y160.113 E21.00589
G1 X102.25 Y159.94 E21.0388
G1 X100.942 Y160.113 E21.07171
G1 X99.721 Y160.619 E21.10468
G1 X98.673 Y161.423 E21.13763
G1 X97.869 Y162.471 E21.17058
G1 X97.363 Y163.692 E21.20355
G1 X97.19 Y165 E21.23646
G1 X97.363 Y166.308 E21.26938
G1 X97.869 Y167.529 E21.30235
G1 X98.673 Y168.577 E21.3353
G1 X99.721 Y169.381 E21.36825
G1 X100.942 Y169.887 E21.40122
G1 X102.25 Y170.06 E21.43413
G1 X103.558 Y169.887 E21.46704
G1 X104.779 Y169.381 E21.50001
G1 X105.827 Y168.577 E21.53296
G1 X106.631 Y167.529 E21.56591
G1 X107.137 Y166.308 E21.59888
G1 X107.31 Y165 E21.63179
G1 X107.137 Y163.692 E21.6647
G1 X106.631 Y162.471 E21.69767
M205 X6 Y6
G0 F2666.7 X109.266 Y157.219
G0 X147.5 Y134.301
M205 X5 Y5
G1 F1200 X146.836 Y135.445 E21.73067
G1 X109 Y157.065 E22.81771
G1 X109 Y165.061 E23.01717
G1 X108.829 Y166.576 E23.0552
G1 X108.335 Y167.987 E23.0925
G1 X107.547 Y169.243 E23.12948
G1 X106.493 Y170.297 E23.16667
G1 X105.237 Y171.085 E23.20365
G1 X103.826 Y171.579 E23.24094
G1 X102.311 Y171.75 E23.27898
G1 X102.189 Y171.75 E23.28202
G1 X100.674 Y171.579 E23.32005
G1 X99.263 Y171.085 E23.35734
G1 X98.007 Y170.297 E23.39433
G1 X96.953 Y169.243 E23.43151
G1 X96.165 Y167.987 E23.4685
G1 X95.671 Y166.576 E23.50579
G1 X95.5 Y165.061 E23.54382
G1 X95.5 Y156.75 E23.75114
G1 X68.06 Y156.75 E24.43564
G1 X67.5 Y156.19 E24.45539
G1 X67.5 Y33.81 E27.50817
G1 X68.06 Y33.25 E27.52793
G1 X146.94 Y33.25 E29.4956
G1 X147.5 Y33.81 E29.51535
G1 X147.5 Y134.301 E32.02211
M205 X6 Y6
G0 F2666.7 X109.266 Y157.219
G0 X106.369 Y162.622
M205 X5 Y5
G1 F1200 X105.613 Y161.637 E32.05309
G1 X104.628 Y160.881 E32.08406
G1 X103.48 Y160.405 E32.11506
G1 X102.25 Y160.243 E32.14601
G1 X101.02 Y160.405 E32.17696
G1 X99.872 Y160.881 E32.20796
G1 X98.887 Y161.637 E32.23893
G1 X98.131 Y162.622 E32.2699
G1 X97.655 Y163.77 E32.30091
G1 X97.493 Y165 E32.33185
G1 X97.655 Y166.23 E32.3628
G1 X98.131 Y167.378 E32.3938
G1 X98.887 Y168.363 E32.42477
G1 X99.872 Y169.119 E32.45575
G1 X101.02 Y169.595 E32.48675
G1 X102.25 Y169.757 E32.5177
G1 X103.48 Y169.595 E32.54864
G1 X104.628 Y169.119 E32.57965
G1 X105.613 Y168.363 E32.61062
G1 X106.369 Y167.378 E32.64159
G1 X106.845 Y166.23 E32.67259
G1 X107.007 Y165 E32.70354
G1 X106.845 Y163.77 E32.73449
G1 X106.369 Y162.622 E32.76549
M205 X6 Y6
G0 F2666.7 X109.266 Y157.219
G0 X147.704 Y134.356
G0 X147.8 Y134.381
M205 X5 Y5
G1 F1200 X147.055 Y135.665 E32.80252
G1 X109.3 Y157.239 E33.88724
G1 X109.3 Y165.077 E34.08276
G1 X109.123 Y166.643 E34.12207
G1 X108.607 Y168.117 E34.16103
G1 X107.782 Y169.432 E34.19975
G1 X106.682 Y170.532 E34.23856
G1 X105.367 Y171.357 E34.27728
G1 X103.893 Y171.873 E34.31624
G1 X102.327 Y172.05 E34.35555
G1 X102.173 Y172.05 E34.35939
G1 X100.607 Y171.873 E34.39871
G1 X99.133 Y171.357 E34.43766
G1 X97.818 Y170.532 E34.47639
G1 X96.718 Y169.432 E34.51519
G1 X95.893 Y168.117 E34.55392
G1 X95.377 Y166.643 E34.59287
G1 X95.2 Y165.077 E34.63219
G1 X95.2 Y157.05 E34.83242
G1 X67.936 Y157.05 E35.51252
G1 X67.2 Y156.314 E35.53849
G1 X67.2 Y33.686 E38.59746
G1 X67.936 Y32.95 E38.62342
G1 X147.064 Y32.95 E40.59728
G1 X147.8 Y33.686 E40.62324
G1 X147.8 Y134.381 E43.13509
M205 X6 Y6
G0 F2666.7 X147.704 Y134.356
G0 X109.266 Y157.219
G0 X106.193 Y162.723
G0 X106.107 Y162.773
M205 X5 Y5
G1 F1200 X105.399 Y161.851 E43.16409
G1 X104.477 Y161.143 E43.19308
G1 X103.402 Y160.697 E43.22212
G1 X102.25 Y160.546 E43.2511
G1 X101.098 Y160.697 E43.28008
G1 X100.023 Y161.143 E43.30911
G1 X99.101 Y161.851 E43.33811
G1 X98.393 Y162.773 E43.36711
G1 X97.947 Y163.848 E43.39614
G1 X97.796 Y165 E43.42512
G1 X97.947 Y166.152 E43.45411
G1 X98.393 Y167.227 E43.48314
G1 X99.101 Y168.149 E43.51214
G1 X100.023 Y168.857 E43.54114
G1 X101.098 Y169.303 E43.57017
G1 X102.25 Y169.454 E43.59915
G1 X103.402 Y169.303 E43.62813
G1 X104.477 Y168.857 E43.65717
G1 X105.399 Y168.149 E43.68616
G1 X106.107 Y167.227 E43.71516
G1 X106.553 Y166.152 E43.74419
G1 X106.704 Y165 E43.77318
G1 X106.553 Y163.848 E43.80216
G1 X106.107 Y162.773 E43.83119
M205 X6 Y6
G1 F2100 E38.83119
G0 F2666.7 X106.193 Y162.723
G0 X109.266 Y157.219
G0 X147.704 Y134.356
G1 F2100 E43.83119
G0 F2666.7 X148.05 Y134.447
M205 X5 Y5
;TYPE:WALL-OUTER
G1 F1200 X147.237 Y135.849 E43.87162
G1 X109.55 Y157.384 E44.95438
G1 X109.55 Y165.087 E45.14653
G1 X109.368 Y166.702 E45.18708
G1 X108.834 Y168.227 E45.22738
G1 X107.979 Y169.589 E45.2675
G1 X106.839 Y170.729 E45.30771
G1 X105.477 Y171.584 E45.34783
G1 X103.952 Y172.118 E45.38813
G1 X102.337 Y172.3 E45.42867
G1 X102.163 Y172.3 E45.43302
G1 X100.548 Y172.118 E45.47356
G1 X99.023 Y171.584 E45.51386
G1 X97.661 Y170.729 E45.55398
G1 X96.521 Y169.589 E45.59419
G1 X95.666 Y168.227 E45.63431
G1 X95.132 Y166.702 E45.67462
G1 X94.95 Y165.087 E45.71516
G1 X94.95 Y157.3 E45.9094
G1 X67.832 Y157.3 E46.58587
G1 X66.95 Y156.418 E46.61698
G1 X66.95 Y33.582 E49.68114
G1 X67.832 Y32.7 E49.71225
G1 X147.168 Y32.7 E51.6913
G1 X148.05 Y33.582 E51.72241
G1 X148.05 Y134.447 E54.2385
M205 X6 Y6
G0 F2666.7 X147.95 Y134.62
G1 F2100 E49.2385
G0 F2666.7 X147.649 Y134.444
G0 X109.266 Y157.219
G0 X106.212 Y162.766
G1 F2100 E54.2385
G0 F2666.7 X105.889 Y162.899
M205 X5 Y5
G1 F1200 X105.221 Y162.029 E54.26586
G1 X104.351 Y161.361 E54.29322
G1 X103.337 Y160.941 E54.3206
G1 X102.25 Y160.798 E54.34795
G1 X101.163 Y160.941 E54.3753
G1 X100.149 Y161.361 E54.40268
G1 X99.279 Y162.029 E54.43004
G1 X98.611 Y162.899 E54.4574
G1 X98.191 Y163.913 E54.48478
G1 X98.048 Y165 E54.51213
G1 X98.191 Y166.087 E54.53948
G1 X98.611 Y167.101 E54.56685
G1 X99.279 Y167.971 E54.59422
G1 X100.149 Y168.639 E54.62158
G1 X101.163 Y169.059 E54.64896
G1 X102.25 Y169.202 E54.6763
G1 X103.337 Y169.059 E54.70365
G1 X104.351 Y168.639 E54.73103
G1 X105.221 Y167.971 E54.75839
G1 X105.889 Y167.101 E54.78575
G1 X106.309 Y166.087 E54.81313
G1 X106.452 Y165 E54.84048
G1 X106.309 Y163.913 E54.86783
G1 X105.889 Y162.899 E54.89521
M205 X6 Y6
G0 F2666.7 X105.768 Y162.741
G0 X106.045 Y162.53
G0 X106.884 Y162.324
M205 X5 Y5
;TYPE:SKIN
G1 F1200 X106.034 Y161.216 E54.93004
G1 X104.926 Y160.366 E54.96488
G1 X103.634 Y159.831 E54.99976
G1 X102.25 Y159.648 E55.03459
G1 X100.866 Y159.831 E55.06941
G1 X99.574 Y160.366 E55.10429
G1 X98.466 Y161.216 E55.13913
G1 X97.616 Y162.324 E55.17397
G1 X97.081 Y163.616 E55.20885
G1 X96.898 Y165 E55.24367
G1 X97.081 Y166.384 E55.2785
G1 X97.616 Y167.676 E55.31338
G1 X98.466 Y168.784 E55.34822
G1 X99.574 Y169.634 E55.38305
G1 X100.866 Y170.169 E55.41793
G1 X102.25 Y170.352 E55.45276
G1 X103.634 Y170.169 E55.48758
G1 X104.926 Y169.634 E55.52247
G1 X106.034 Y168.784 E55.5573
G1 X106.884 Y167.676 E55.59214
G1 X107.419 Y166.384 E55.62702
G1 X107.602 Y165 E55.66184
G1 X107.419 Y163.616 E55.69667
G1 X106.884 Y162.324 E55.73155
M205 X6 Y6
G0 F2666.7 X108.41 Y165.03
M205 X5 Y5
G1 F1200 X108.251 Y166.442 E55.767
G1 X107.8 Y167.731 E55.80106
G1 X107.082 Y168.874 E55.83473
G1 X106.124 Y169.832 E55.86853
G1 X104.981 Y170.55 E55.9022
G1 X103.692 Y171.001 E55.93627
G1 X102.28 Y171.16 E55.97171
G1 X102.22 Y171.16 E55.97321
G1 X100.808 Y171.001 E56.00865
G1 X99.519 Y170.55 E56.04272
G1 X98.376 Y169.832 E56.07639
G1 X97.418 Y168.874 E56.11019
G1 X96.7 Y167.731 E56.14386
G1 X96.249 Y166.442 E56.17792
G1 X96.09 Y165.03 E56.21337
G1 X96.09 Y156.16 E56.43463
G1 X68.304 Y156.16 E57.12775
G1 X68.09 Y155.946 E57.1353
G1 X68.09 Y34.054 E60.17591
G1 X68.304 Y33.84 E60.18346
G1 X146.696 Y33.84 E62.13896
G1 X146.91 Y34.054 E62.14651
G1 X146.91 Y134.143 E64.64324
G1 X146.405 Y135.013 E64.66833
G1 X108.41 Y156.723 E65.75993
G1 X108.41 Y165.03 E65.96715
M205 X6 Y6
G0 F2666.7 X105.427 Y161.823
G0 X104.497 Y161.109
G0 X95.228 Y157.022
G0 X68.194 Y155.593
M205 X5 Y5
G1 F1200 X68.655 Y156.054 E65.98341
M205 X6 Y6
G0 F2666.7 X69.08 Y156.054
M205 X5 Y5
G1 F1200 X68.194 Y155.168 E66.01467
M205 X6 Y6
G0 F2666.7 X68.194 Y154.744
M205 X5 Y5
G1 F1200 X69.504 Y156.054 E66.06088
M205 X6 Y6
G0 F2666.7 X69.928 Y156.054
M205 X5 Y5
G1 F1200 X68.194 Y154.32 E66.12205
M205 X6 Y6
G0 F2666.7 X68.194 Y153.896
M205 X5 Y5
G1 F1200 X70.352 Y156.054 E66.19818
M205 X6 Y6
G0 F2666.7 X70.777 Y156.054
M205 X5 Y5
G1 F1200 X68.194 Y153.471 E66.28931
M205 X6 Y6
G0 F2666.7 X68.194 Y153.047
M205 X5 Y5
G1 F1200 X71.201 Y156.054 E66.39539
M205 X6 Y6
G0 F2666.7 X71.625 Y156.054
M205 X5 Y5
G1 F1200 X68.194 Y152.623 E66.51642
M205 X6 Y6
G0 F2666.7 X68.194 Y152.199
M205 X5 Y5
G1 F1200 X72.049 Y156.054 E66.65242
M205 X6 Y6
G0 F2666.7 X72.474 Y156.054
M205 X5 Y5
G1 F1200 X68.194 Y151.774 E66.80341
M205 X6 Y6
G0 F2666.7 X68.194 Y151.35
M205 X5 Y5
G1 F1200 X72.898 Y156.054 E66.96935
M205 X6 Y6
G0 F2666.7 X73.322 Y156.054
M205 X5 Y5
G1 F1200 X68.194 Y150.926 E67.15026
M205 X6 Y6
G0 F2666.7 X68.194 Y150.502
M205 X5 Y5
G1 F1200 X73.746 Y156.054 E67.34612
M205 X6 Y6
G0 F2666.7 X74.171 Y156.054
M205 X5 Y5
G1 F1200 X68.194 Y150.077 E67.55697
M205 X6 Y6
G0 F2666.7 X68.194 Y149.653
M205 X5 Y5
G1 F1200 X74.595 Y156.054 E67.78279
M205 X6 Y6
G0 F2666.7 X75.019 Y156.054
M205 X5 Y5
G1 F1200 X68.194 Y149.229 E68.02356
M205 X6 Y6
G0 F2666.7 X68.194 Y148.804
M205 X5 Y5
G1 F1200 X75.444 Y156.054 E68.27932
M205 X6 Y6
G0 F2666.7 X75.868 Y156.054
M205 X5 Y5
G1 F1200 X68.194 Y148.38 E68.55004
M205 X6 Y6
G0 F2666.7 X68.194 Y147.956
M205 X5 Y5
G1 F1200 X76.292 Y156.054 E68.83572
M205 X6 Y6
G0 F2666.7 X76.716 Y156.054
M205 X5 Y5
G1 F1200 X68.194 Y147.532 E69.13636
M205 X6 Y6
G0 F2666.7 X68.194 Y147.107
M205 X5 Y5
G1 F1200 X77.141 Y156.054 E69.45199
M205 X6 Y6
G0 F2666.7 X77.565 Y156.054
M205 X5 Y5
G1 F1200 X68.194 Y146.683 E69.78257
M205 X6 Y6
G0 F2666.7 X68.194 Y146.259
M205 X5 Y5
G1 F1200 X77.989 Y156.054 E70.12812
M205 X6 Y6
G0 F2666.7 X78.413 Y156.054
M205 X5 Y5
G1 F1200 X68.194 Y145.835 E70.48862
M205 X6 Y6
G0 F2666.7 X68.194 Y145.41
M205 X5 Y5
G1 F1200 X78.838 Y156.054 E70.86412
M205 X6 Y6
G0 F2666.7 X79.262 Y156.054
M205 X5 Y5
G1 F1200 X68.194 Y144.986 E71.25457
M205 X6 Y6
G0 F2666.7 X68.194 Y144.562
M205 X5 Y5
G1 F1200 X79.686 Y156.054 E71.65998
M205 X6 Y6
G0 F2666.7 X80.11 Y156.054
M205 X5 Y5
G1 F1200 X68.194 Y144.138 E72.08035
M205 X6 Y6
G0 F2666.7 X68.194 Y143.713
M205 X5 Y5
G1 F1200 X80.535 Y156.054 E72.51571
M205 X6 Y6
G0 F2666.7 X80.959 Y156.054
M205 X5 Y5
G1 F1200 X68.194 Y143.289 E72.96603
M205 X6 Y6
G0 F2666.7 X68.194 Y142.865
M205 X5 Y5
