G93 R50.0;FLAVOR:Marlin
;TIME:3984
;Filament used: 2.39911m, 0m
;Layer height: 0.2
;MINX:83.35
;MINY:42.85
;MINZ:0.2
;MAXX:131.65
;MAXY:162.135
;MAXZ:6.8
;Generated with Cura_SteamEngine 4.11.0
M140 S40
M105
M190 S40
M104 S200
M105
M109 S200
M82 ;absolute extrusion mode
G21 ;metric values
G90 ;absolute positioning
M82 ;set extruder to absolute mode
M107 ;start with the fan off
G28 X0 Y0 ;move X/Y to min endstops
G28 Z0 ;move Z to min endstops
G1 Z15.0 F9000 ;move the platform down 15mm
G92 E0 ;zero the extruded length
G1 F200 E15 ;extrude 15mm of feed stock
G92 E0 ;zero the extruded length again
G1 F9000
;Put printing message on LCD screen
M117 Printing...
G92 E0
G92 E0
G1 F2100 E-5
;LAYER_COUNT:34G93 R50.0
;LAYER:0G93 R50.0
M107
M204 S1000
M205 X6 Y6
G1 F600 Z1.2
G0 F2666.7 X83.732 Y44.522 Z1.2
M205 X5 Y5
;TYPE:SKIRT
G1 F600 Z0.2
G1 F2100 E0
G1 F1200 X84.004 Y44.1 E0.01252
G1 X84.338 Y43.726 E0.02503
G1 X84.728 Y43.411 E0.03754
G1 X85.163 Y43.161 E0.05005
G1 X85.632 Y42.983 E0.06257
G1 X86.124 Y42.883 E0.07509
G1 X86.742 Y42.851 E0.09053
G1 X127.838 Y42.85 E1.11567
G1 X128.536 Y42.86 E1.13308
G1 X129.036 Y42.907 E1.14561
G1 X129.521 Y43.033 E1.15811
G1 X129.981 Y43.234 E1.17063
G1 X130.402 Y43.506 E1.18314
G1 X130.775 Y43.841 E1.19564
G1 X131.091 Y44.231 E1.20817
G1 X131.34 Y44.666 E1.22067
G1 X131.517 Y45.136 E1.2332
G1 X131.618 Y45.627 E1.2457
G1 X131.649 Y46.241 E1.26104
G1 X131.65 Y148.307 E3.80708
G1 X131.64 Y149.036 E3.82527
G1 X131.593 Y149.536 E3.8378
G1 X131.467 Y150.021 E3.8503
G1 X131.266 Y150.481 E3.86282
G1 X130.995 Y150.903 E3.87533
G1 X130.66 Y151.276 E3.88784
G1 X130.27 Y151.592 E3.90036
G1 X129.628 Y151.93 E3.91846
G1 X129.259 Y152.073 E3.92833
G1 X126.673 Y153.115 E3.99788
G1 X124.187 Y154.2 E4.06554
G1 X121.675 Y155.381 E4.13478
G1 X119.24 Y156.613 E4.20285
G1 X116.843 Y157.911 E4.27085
G1 X114.47 Y159.285 E4.33925
G1 X111.708 Y160.988 E4.4202
G1 X111.307 Y161.198 E4.43149
G1 X110.574 Y161.516 E4.45142
G1 X110.019 Y161.738 E4.46633
G1 X109.321 Y161.927 E4.48437
G1 X108.576 Y162.039 E4.50316
G1 X108.471 Y162.053 E4.5058
G1 X107.893 Y162.12 E4.52032
G1 X107.306 Y162.135 E4.53497
G1 X106.802 Y162.09 E4.54759
G1 X106.413 Y162.04 E4.55737
G1 X105.744 Y161.943 E4.57423
G1 X105.041 Y161.757 E4.59237
G1 X104.318 Y161.472 E4.61176
G1 X104.219 Y161.431 E4.61443
G1 X103.726 Y161.217 E4.62784
G1 X102.935 Y160.77 E4.6505
G1 X101.331 Y159.762 E4.69776
G1 X98.962 Y158.361 E4.76642
G1 X96.551 Y157.029 E4.83513
G1 X94.138 Y155.782 E4.90288
G1 X91.679 Y154.598 E4.97096
G1 X89.165 Y153.474 E5.03966
G1 X86.616 Y152.418 E5.10848
G1 X86.056 Y152.205 E5.12343
G1 X85.335 Y151.915 E5.14281
G1 X84.886 Y151.692 E5.15532
G1 X84.478 Y151.4 E5.16784
G1 X84.121 Y151.047 E5.18036
G1 X83.826 Y150.641 E5.19288
G1 X83.598 Y150.195 E5.20537
G1 X83.444 Y149.717 E5.2179
G1 X83.361 Y149.089 E5.2337
G1 X83.35 Y148.664 E5.24431
G1 X83.35 Y46.631 E7.78953
G1 X83.359 Y45.966 E7.80612
G1 X83.406 Y45.467 E7.81862
G1 X83.531 Y44.981 E7.83114
G1 X83.732 Y44.522 E7.84364
M205 X6 Y6
G1 F2100 E2.84364
G1 F600 Z1.2
;MESH:bottom_v7.stl
G0 F2666.7 X127.45 Y147.95 Z1.2
M205 X5 Y5
;TYPE:WALL-INNER
G1 F600 Z0.2
G1 F2100 E7.84364
G1 F1200 X111.45 Y147.95 E8.24276
G1 X111.45 Y153.989 E8.39341
G1 X111.309 Y155.053 E8.42018
G1 X110.92 Y155.995 E8.4456
G1 X110.301 Y156.801 E8.47095
G1 X109.495 Y157.42 E8.4963
G1 X108.554 Y157.809 E8.5217
G1 X107.495 Y157.948 E8.54835
G1 X106.447 Y157.809 E8.57472
G1 X105.505 Y157.42 E8.60014
G1 X104.699 Y156.801 E8.62549
G1 X104.08 Y155.995 E8.65084
G1 X103.691 Y155.053 E8.67627
G1 X103.55 Y153.989 E8.70304
G1 X103.55 Y147.95 E8.85368
G1 X87.55 Y147.95 E9.25281
G1 X87.55 Y47.05 E11.76977
G1 X127.45 Y47.05 E12.76508
G1 X127.45 Y147.95 E15.28204
M205 X6 Y6
G0 F2666.7 X112.022 Y148.522
G0 X110.149 Y152.471
M205 X5 Y5
G1 F1200 X109.663 Y151.837 E15.30196
G1 X109.029 Y151.351 E15.32189
G1 X108.291 Y151.045 E15.34182
G1 X107.5 Y150.94 E15.36172
G1 X106.709 Y151.045 E15.38163
G1 X105.971 Y151.351 E15.40156
G1 X105.337 Y151.837 E15.42149
G1 X104.851 Y152.471 E15.44141
G1 X104.545 Y153.209 E15.46134
G1 X104.44 Y154 E15.48125
G1 X104.545 Y154.791 E15.50115
G1 X104.851 Y155.529 E15.52108
G1 X105.337 Y156.163 E15.54101
G1 X105.971 Y156.649 E15.56094
G1 X106.709 Y156.955 E15.58086
G1 X107.5 Y157.06 E15.60077
G1 X108.291 Y156.955 E15.62067
G1 X109.029 Y156.649 E15.6406
G1 X109.663 Y156.163 E15.66053
G1 X110.149 Y155.529 E15.68046
G1 X110.455 Y154.791 E15.70039
G1 X110.56 Y154 E15.72029
G1 X110.455 Y153.209 E15.7402
G1 X110.149 Y152.471 E15.76013
M205 X6 Y6
G0 F2666.7 X112.022 Y148.522
G0 X127.75 Y148.25
M205 X5 Y5
G1 F1200 X111.75 Y148.25 E16.15925
G1 X111.75 Y154.005 E16.30281
G1 X111.601 Y155.133 E16.33119
G1 X111.182 Y156.147 E16.35856
G1 X110.515 Y157.015 E16.38586
G1 X109.647 Y157.682 E16.41317
G1 X108.633 Y158.101 E16.44054
G1 X107.495 Y158.25 E16.46917
G1 X106.367 Y158.101 E16.49755
G1 X105.353 Y157.682 E16.52492
G1 X104.485 Y157.015 E16.55223
G1 X103.818 Y156.147 E16.57953
G1 X103.399 Y155.133 E16.6069
G1 X103.25 Y154.005 E16.63529
G1 X103.25 Y148.25 E16.77884
G1 X87.25 Y148.25 E17.17797
G1 X87.25 Y46.75 E19.70989
G1 X127.75 Y46.75 E20.72017
G1 X127.75 Y148.25 E23.2521
M205 X6 Y6
G0 F2666.7 X112.022 Y148.522
G0 X109.887 Y152.622
M205 X5 Y5
G1 F1200 X109.449 Y152.051 E23.27005
G1 X108.878 Y151.613 E23.288
G1 X108.213 Y151.337 E23.30596
G1 X107.5 Y151.243 E23.3239
G1 X106.787 Y151.337 E23.34184
G1 X106.122 Y151.613 E23.3598
G1 X105.551 Y152.051 E23.37775
G1 X105.113 Y152.622 E23.39571
G1 X104.837 Y153.287 E23.41367
G1 X104.743 Y154 E23.43161
G1 X104.837 Y154.713 E23.44955
G1 X105.113 Y155.378 E23.46751
G1 X105.551 Y155.949 E23.48546
G1 X106.122 Y156.387 E23.50341
G1 X106.787 Y156.663 E23.52137
G1 X107.5 Y156.757 E23.53931
G1 X108.213 Y156.663 E23.55725
G1 X108.878 Y156.387 E23.57521
G1 X109.449 Y155.949 E23.59316
G1 X109.887 Y155.378 E23.61111
G1 X110.163 Y154.713 E23.62907
G1 X110.257 Y154 E23.64701
G1 X110.163 Y153.287 E23.66495
G1 X109.887 Y152.622 E23.68291
M205 X6 Y6
G0 F2666.7 X112.022 Y148.522
G0 X127.98 Y148.48
G0 X128.05 Y148.55
M205 X5 Y5
G1 F1200 X112.05 Y148.55 E24.08203
G1 X112.05 Y154.021 E24.21851
G1 X111.893 Y155.213 E24.2485
G1 X111.444 Y156.299 E24.27781
G1 X110.729 Y157.229 E24.30708
G1 X109.799 Y157.944 E24.33634
G1 X108.713 Y158.393 E24.36565
G1 X107.521 Y158.55 E24.39565
G1 X107.479 Y158.55 E24.39669
G1 X106.287 Y158.393 E24.42669
G1 X105.201 Y157.944 E24.456
G1 X104.271 Y157.229 E24.48526
G1 X103.556 Y156.299 E24.51453
G1 X103.107 Y155.213 E24.54384
G1 X102.95 Y154.021 E24.57383
G1 X102.95 Y148.55 E24.71031
G1 X86.95 Y148.55 E25.10943
G1 X86.95 Y46.45 E27.65632
G1 X128.05 Y46.45 E28.68157
G1 X128.05 Y148.55 E31.22846
M205 X6 Y6
G0 F2666.7 X127.98 Y148.48
G0 X112.022 Y148.522
G0 X109.711 Y152.723
G0 X109.625 Y152.773
M205 X5 Y5
G1 F1200 X109.235 Y152.265 E31.24444
G1 X108.727 Y151.875 E31.26041
G1 X108.135 Y151.629 E31.2764
G1 X107.5 Y151.546 E31.29238
G1 X106.865 Y151.629 E31.30835
G1 X106.273 Y151.875 E31.32435
G1 X105.765 Y152.265 E31.34032
G1 X105.375 Y152.773 E31.3563
G1 X105.129 Y153.365 E31.37229
G1 X105.046 Y154 E31.38826
G1 X105.129 Y154.635 E31.40424
G1 X105.375 Y155.227 E31.42023
G1 X105.765 Y155.735 E31.43621
G1 X106.273 Y156.125 E31.45218
G1 X106.865 Y156.371 E31.46817
G1 X107.5 Y156.454 E31.48415
G1 X108.135 Y156.371 E31.50012
G1 X108.727 Y156.125 E31.51612
G1 X109.235 Y155.735 E31.53209
G1 X109.625 Y155.227 E31.54807
G1 X109.871 Y154.635 E31.56406
G1 X109.954 Y154 E31.58003
G1 X109.871 Y153.365 E31.59601
G1 X109.625 Y152.773 E31.612
M205 X6 Y6
G1 F2100 E26.612
G0 F2666.7 X109.711 Y152.723
G0 X112.022 Y148.522
G0 X127.98 Y148.48
G1 F2100 E31.612
G0 F2666.7 X128.3 Y148.8
M205 X5 Y5
;TYPE:WALL-OUTER
G1 F1200 X112.3 Y148.8 E32.01112
G1 X112.3 Y154.039 E32.14181
G1 X112.137 Y155.278 E32.17298
G1 X111.663 Y156.423 E32.2039
G1 X110.907 Y157.407 E32.23485
G1 X109.923 Y158.163 E32.2658
G1 X108.778 Y158.637 E32.29672
G1 X107.539 Y158.8 E32.32789
G1 X107.461 Y158.8 E32.32984
G1 X106.222 Y158.637 E32.36101
G1 X105.077 Y158.163 E32.39192
G1 X104.093 Y157.407 E32.42288
G1 X103.337 Y156.423 E32.45383
G1 X102.863 Y155.278 E32.48474
G1 X102.7 Y154.039 E32.51592
G1 X102.7 Y148.8 E32.6466
G1 X86.7 Y148.8 E33.04572
G1 X86.7 Y46.2 E35.60509
G1 X128.3 Y46.2 E36.64281
G1 X128.3 Y148.8 E39.20218
M205 X6 Y6
G0 F2666.7 X128.1 Y148.8
G1 F2100 E34.20218
G0 F2666.7 X127.98 Y148.48
G0 X112.022 Y148.522
G0 X109.73 Y152.766
G1 F2100 E39.20218
G0 F2666.7 X109.407 Y152.899
M205 X5 Y5
G1 F1200 X109.057 Y152.443 E39.21651
G1 X108.601 Y152.093 E39.23085
G1 X108.07 Y151.873 E39.24519
G1 X107.5 Y151.798 E39.25953
G1 X106.93 Y151.873 E39.27387
G1 X106.399 Y152.093 E39.28821
G1 X105.943 Y152.443 E39.30255
G1 X105.593 Y152.899 E39.31689
G1 X105.373 Y153.43 E39.33123
G1 X105.298 Y154 E39.34557
G1 X105.373 Y154.57 E39.35991
G1 X105.593 Y155.101 E39.37425
G1 X105.943 Y155.557 E39.38859
G1 X106.399 Y155.907 E39.40293
G1 X106.93 Y156.127 E39.41726
G1 X107.5 Y156.202 E39.43161
G1 X108.07 Y156.127 E39.44595
G1 X108.601 Y155.907 E39.46029
G1 X109.057 Y155.557 E39.47462
G1 X109.407 Y155.101 E39.48896
G1 X109.627 Y154.57 E39.5033
G1 X109.702 Y154 E39.51764
G1 X109.627 Y153.43 E39.53198
G1 X109.407 Y152.899 E39.54632
M205 X6 Y6
G0 F2666.7 X109.286 Y152.741
G0 X109.563 Y152.53
G0 X110.402 Y152.324
M205 X5 Y5
;TYPE:SKIN
G1 F1200 X109.87 Y151.63 E39.56813
G1 X109.176 Y151.098 E39.58995
G1 X108.367 Y150.763 E39.61179
G1 X107.5 Y150.648 E39.63361
G1 X106.633 Y150.763 E39.65542
G1 X105.824 Y151.098 E39.67727
G1 X105.13 Y151.63 E39.69908
G1 X104.598 Y152.324 E39.72089
G1 X104.263 Y153.133 E39.74274
G1 X104.148 Y154 E39.76455
G1 X104.263 Y154.867 E39.78637
G1 X104.598 Y155.676 E39.80821
G1 X105.13 Y156.37 E39.83002
G1 X105.824 Y156.902 E39.85184
G1 X106.633 Y157.237 E39.87368
G1 X107.5 Y157.352 E39.8955
G1 X108.367 Y157.237 E39.91731
G1 X109.176 Y156.902 E39.93916
G1 X109.87 Y156.37 E39.96097
G1 X110.402 Y155.676 E39.98278
G1 X110.737 Y154.867 E40.00462
G1 X110.852 Y154 E40.02644
G1 X110.737 Y153.133 E40.04826
G1 X110.402 Y152.324 E40.0701
M205 X6 Y6
G0 F2666.7 X111.16 Y153.967
M205 X5 Y5
G1 F1200 X111.025 Y154.98 E40.09559
G1 X110.667 Y155.849 E40.11904
G1 X110.094 Y156.594 E40.14248
G1 X109.349 Y157.167 E40.16593
G1 X108.481 Y157.525 E40.18935
G1 X107.495 Y157.655 E40.21416
G1 X106.52 Y157.525 E40.2387
G1 X105.651 Y157.167 E40.26214
G1 X104.906 Y156.594 E40.28559
G1 X104.333 Y155.849 E40.30903
G1 X103.975 Y154.98 E40.33248
G1 X103.84 Y153.967 E40.35797
G1 X103.84 Y147.66 E40.5153
G1 X87.84 Y147.66 E40.91442
G1 X87.84 Y47.34 E43.41691
G1 X127.16 Y47.34 E44.39775
G1 X127.16 Y147.66 E46.90025
G1 X111.16 Y147.66 E47.29937
G1 X111.16 Y153.967 E47.4567
M205 X6 Y6
G0 F2666.7 X109.263 Y152.237
G0 X108.747 Y151.841
G0 X102.978 Y148.522
G0 X88.157 Y147.554
M205 X5 Y5
G1 F1200 X87.944 Y147.341 E47.46421
M205 X6 Y6
G0 F2666.7 X87.944 Y146.916
M205 X5 Y5
G1 F1200 X88.581 Y147.554 E47.4867
M205 X6 Y6
G0 F2666.7 X89.005 Y147.554
M205 X5 Y5
G1 F1200 X87.944 Y146.492 E47.52415
M205 X6 Y6
G0 F2666.7 X87.944 Y146.068
M205 X5 Y5
G1 F1200 X89.429 Y147.554 E47.57655
M205 X6 Y6
G0 F2666.7 X89.854 Y147.554
M205 X5 Y5
G1 F1200 X87.944 Y145.644 E47.64393
M205 X6 Y6
G0 F2666.7 X87.944 Y145.219
M205 X5 Y5
G1 F1200 X90.278 Y147.554 E47.72629
M205 X6 Y6
G0 F2666.7 X90.702 Y147.554
M205 X5 Y5
G1 F1200 X87.944 Y144.795 E47.8236
M205 X6 Y6
G0 F2666.7 X87.944 Y144.371
M205 X5 Y5
G1 F1200 X91.126 Y147.554 E47.93587
M205 X6 Y6
G0 F2666.7 X91.551 Y147.554
M205 X5 Y5
G1 F1200 X87.944 Y143.947 E48.06312
M205 X6 Y6
G0 F2666.7 X87.944 Y143.522
M205 X5 Y5
G1 F1200 X91.975 Y147.554 E48.20534
M205 X6 Y6
G0 F2666.7 X92.399 Y147.554
M205 X5 Y5
G1 F1200 X87.944 Y143.098 E48.36252
M205 X6 Y6
G0 F2666.7 X87.944 Y142.674
M205 X5 Y5
G1 F1200 X92.824 Y147.554 E48.53468
M205 X6 Y6
G0 F2666.7 X93.248 Y147.554
M205 X5 Y5
G1 F1200 X87.944 Y142.25 E48.72179
M205 X6 Y6
G0 F2666.7 X87.944 Y141.825
M205 X5 Y5
G1 F1200 X93.672 Y147.554 E48.92388
M205 X6 Y6
G0 F2666.7 X94.096 Y147.554
M205 X5 Y5
G1 F1200 X87.944 Y141.401 E49.14092
M205 X6 Y6
G0 F2666.7 X87.944 Y140.977
M205 X5 Y5
G1 F1200 X94.521 Y147.554 E49.37294
M205 X6 Y6
G0 F2666.7 X94.945 Y147.554
M205 X5 Y5
G1 F1200 X87.944 Y140.553 E49.61992
M205 X6 Y6
G0 F2666.7 X87.944 Y140.128
M205 X5 Y5
G1 F1200 X95.369 Y147.554 E49.88188
M205 X6 Y6
G0 F2666.7 X95.793 Y147.554
M205 X5 Y5
G1 F1200 X87.944 Y139.704 E50.15879
M205 X6 Y6
G0 F2666.7 X87.944 Y139.28
M205 X5 Y5
G1 F1200 X96.218 Y147.554 E50.45068
M205 X6 Y6
G0 F2666.7 X96.642 Y147.554
M205 X5 Y5
G1 F1200 X87.944 Y138.855 E50.75754
M205 X6 Y6
G0 F2666.7 X87.944 Y138.431
M205 X5 Y5
G1 F1200 X97.066 Y147.554 E51.07936
M205 X6 Y6
G0 F2666.7 X97.49 Y147.554
M205 X5 Y5
G1 F1200 X87.944 Y138.007 E51.41614
M205 X6 Y6
G0 F2666.7 X87.944 Y137.583
M205 X5 Y5
G1 F1200 X97.915 Y147.554 E51.7679
M205 X6 Y6
G0 F2666.7 X98.339 Y147.554
M205 X5 Y5
G1 F1200 X87.944 Y137.158 E52.13462
M205 X6 Y6
G0 F2666.7 X87.944 Y136.734
M205 X5 Y5
G1 F1200 X98.763 Y147.554 E52.51631
M205 X6 Y6
G0 F2666.7 X99.187 Y147.554
M205 X5 Y5
G1 F1200 X87.944 Y136.31 E52.91296
M205 X6 Y6
G0 F2666.7 X87.944 Y135.886
M205 X5 Y5
G1 F1200 X99.612 Y147.554 E53.32458
M205 X6 Y6
G0 F2666.7 X100.036 Y147.554
M205 X5 Y5
G1 F1200 X87.944 Y135.461 E53.75117
M205 X6 Y6
G0 F2666.7 X87.944 Y135.037
M205 X5 Y5
G1 F1200 X100.46 Y147.554 E54.19273
M205 X6 Y6
G0 F2666.7 X100.885 Y147.554
M205 X5 Y5
G1 F1200 X87.944 Y134.613 E54.64925
M205 X6 Y6
G0 F2666.7 X87.944 Y134.189
M205 X5 Y5
G1 F1200 X101.309 Y147.554 E55.12074
M205 X6 Y6
G0 F2666.7 X101.733 Y147.554
M205 X5 Y5
G1 F1200 X87.944 Y133.764 E55.6072
M205 X6 Y6
G0 F2666.7 X87.944 Y133.34
M205 X5 Y5
G1 F1200 X102.157 Y147.554 E56.10862
M205 X6 Y6
G0 F2666.7 X102.582 Y147.554
M205 X5 Y5
G1 F1200 X87.944 Y132.916 E56.62502
M205 X6 Y6
G0 F2666.7 X87.944 Y132.492
M205 X5 Y5
G1 F1200 X103.006 Y147.554 E57.15637
M205 X6 Y6
G0 F2666.7 X103.43 Y147.554
M205 X5 Y5
G1 F1200 X87.944 Y132.067 E57.7027
M205 X6 Y6
G0 F2666.7 X87.944 Y131.643
M205 X5 Y5
G1 F1200 X103.854 Y147.554 E58.26398
M205 X6 Y6
G0 F2666.7 X103.944 Y147.643
M205 X5 Y5
G1 F1200 X106.919 Y150.618 E58.36894
M205 X6 Y6
G0 F2666.7 X106.556 Y150.68
M205 X5 Y5
G1 F1200 X103.944 Y148.068 E58.46108
M205 X6 Y6
G0 F2666.7 X103.944 Y148.492
M205 X5 Y5
G1 F1200 X106.256 Y150.804 E58.54264
M205 X6 Y6
G0 F2666.7 X105.956 Y150.928
M205 X5 Y5
G1 F1200 X103.944 Y148.916 E58.61362
M205 X6 Y6
G0 F2666.7 X103.944 Y149.34
M205 X5 Y5
G1 F1200 X105.679 Y151.075 E58.67483
M205 X6 Y6
G0 F2666.7 X105.438 Y151.259
M205 X5 Y5
G1 F1200 X103.944 Y149.765 E58.72753
M205 X6 Y6
G0 F2666.7 X103.944 Y150.189
M205 X5 Y5
G1 F1200 X105.198 Y151.443 E58.77177
M205 X6 Y6
G0 F2666.7 X104.981 Y151.65
M205 X5 Y5
G1 F1200 X103.944 Y150.613 E58.80835
M205 X6 Y6
G0 F2666.7 X103.944 Y151.038
M205 X5 Y5
G1 F1200 X104.797 Y151.89 E58.83843
M205 X6 Y6
G0 F2666.7 X104.613 Y152.131
M205 X5 Y5
G1 F1200 X103.944 Y151.462 E58.86203
M205 X6 Y6
G0 F2666.7 X103.944 Y151.886
M205 X5 Y5
G1 F1200 X104.454 Y152.396 E58.88002
M205 X6 Y6
G0 F2666.7 X104.33 Y152.696
M205 X5 Y5
G1 F1200 X103.944 Y152.31 E58.89364
M205 X6 Y6
G0 F2666.7 X103.944 Y152.735
M205 X5 Y5
G1 F1200 X104.206 Y152.996 E58.90286
M205 X6 Y6
G0 F2666.7 X103.944 Y153.159
M205 X5 Y5
G1 F1200 X104.129 Y153.344 E58.90939
M205 X6 Y6
G0 F2666.7 X103.944 Y153.583
M205 X5 Y5
G1 F1200 X104.08 Y153.719 E58.91419
M205 X6 Y6
G0 F2666.7 X103.952 Y154.015
M205 X5 Y5
G1 F1200 X104.059 Y154.123 E58.91798
M205 X6 Y6
