G93 R50.0;FLAVOR:Marlin
;TIME:13503
;Filament used: 7.82069m, 0m
;Layer height: 0.2
;MINX:63.6
;MINY:29.35
;MINZ:0.2
;MAXX:151.4
;MAXY:175.642
;MAXZ:26
;Generated with Cura_SteamEngine 4.11.0
M140 S40
M105
M190 S40
M104 S200
M105
M109 S200
M82 ;absolute extrusion mode
G21 ;metric values
G90 ;absolute positioning
M82 ;set extruder to absolute mode
M107 ;start with the fan off
G28 X0 Y0 ;move X/Y to min endstops
G28 Z0 ;move Z to min endstops
G1 Z15.0 F9000 ;move the platform down 15mm
G92 E0 ;zero the extruded length
G1 F200 E15 ;extrude 15mm of feed stock
G92 E0 ;zero the extruded length again
G1 F9000
;Put printing message on LCD screen
M117 Printing...
G92 E0
G92 E0
G1 F2100 E-5
;LAYER_COUNT:130G93 R50.0
;LAYER:0G93 R50.0
M107
M204 S1000
M205 X6 Y6
G1 F600 Z1.2
G0 F2666.7 X63.984 Y32.016 Z1.2
M205 X5 Y5
;TYPE:SKIRT
G1 F600 Z0.2
G1 F2100 E0
G1 F1200 X64.256 Y31.594 E0.01252
G1 X64.595 Y31.208 E0.02534
G1 X65.026 Y30.769 E0.04069
G1 X65.565 Y30.246 E0.05942
G1 X65.952 Y29.927 E0.07193
G1 X66.385 Y29.673 E0.08445
G1 X66.853 Y29.492 E0.09697
G1 X67.343 Y29.387 E0.10947
G1 X67.864 Y29.355 E0.12249
G1 X68.273 Y29.35 E0.13269
G1 X146.588 Y29.35 E2.08627
G1 X147.289 Y29.36 E2.10376
G1 X147.788 Y29.407 E2.11626
G1 X148.274 Y29.533 E2.12879
G1 X148.733 Y29.734 E2.14129
G1 X149.155 Y30.006 E2.15381
G1 X149.532 Y30.335 E2.16629
G1 X150.017 Y30.813 E2.18328
G1 X150.503 Y31.315 E2.20071
G1 X150.822 Y31.702 E2.21322
G1 X151.076 Y32.135 E2.22574
G1 X151.258 Y32.602 E2.23824
G1 X151.363 Y33.093 E2.25077
G1 X151.395 Y33.615 E2.26381
G1 X151.4 Y34.024 E2.27402
G1 X151.4 Y133.842 E4.76399
G1 X151.389 Y134.546 E4.78155
G1 X151.341 Y135.046 E4.79408
G1 X151.214 Y135.531 E4.80659
G1 X150.872 Y136.255 E4.82656
G1 X150.816 Y136.355 E4.82942
G1 X150.427 Y137.026 E4.84877
G1 X150.073 Y137.614 E4.86589
G1 X149.781 Y138.021 E4.87838
G1 X149.427 Y138.378 E4.89092
G1 X149.005 Y138.684 E4.90393
G1 X148.6 Y138.928 E4.91572
G1 X142.389 Y142.477 E5.09417
G1 X139.99 Y143.893 E5.16366
G1 X137.658 Y145.361 E5.23239
G1 X135.415 Y146.861 E5.2997
G1 X133.142 Y148.478 E5.36929
G1 X131.004 Y150.091 E5.4361
G1 X128.836 Y151.825 E5.50535
G1 X126.738 Y153.604 E5.57397
G1 X124.712 Y155.422 E5.64187
G1 X122.732 Y157.3 E5.70994
G1 X120.776 Y159.267 E5.77914
G1 X118.928 Y161.232 E5.84643
G1 X117.098 Y163.293 E5.91518
G1 X115.331 Y165.398 E5.98374
G1 X113.624 Y167.554 E6.05234
G1 X112.02 Y169.7 E6.11917
G1 X111.503 Y170.433 E6.14155
G1 X110.808 Y171.391 E6.17107
G1 X110.431 Y171.867 E6.18622
G1 X110.097 Y172.249 E6.19887
G1 X109.715 Y172.642 E6.21255
G1 X109.271 Y173.052 E6.22762
G1 X108.839 Y173.407 E6.24157
G1 X108.43 Y173.711 E6.25428
G1 X107.991 Y174.004 E6.26745
G1 X107.543 Y174.272 E6.28047
G1 X106.798 Y174.657 E6.30139
G1 X106.28 Y174.875 E6.31541
G1 X105.428 Y175.177 E6.33796
G1 X104.811 Y175.349 E6.35393
G1 X104.287 Y175.461 E6.3673
G1 X103.664 Y175.559 E6.38303
G1 X103.164 Y175.609 E6.39557
G1 X102.661 Y175.636 E6.40813
G1 X102.1 Y175.642 E6.42213
G1 X101.521 Y175.622 E6.43658
G1 X100.964 Y175.573 E6.45053
G1 X100.38 Y175.491 E6.46524
G1 X99.84 Y175.385 E6.47897
G1 X99.321 Y175.254 E6.49232
G1 X98.839 Y175.106 E6.5049
G1 X98.366 Y174.938 E6.51742
G1 X97.885 Y174.74 E6.53039
G1 X97.431 Y174.526 E6.54291
G1 X96.978 Y174.283 E6.55574
G1 X96.496 Y173.995 E6.56974
G1 X95.148 Y173.116 E6.60989
G1 X94.73 Y172.84 E6.62238
G1 X92.417 Y171.388 E6.69051
G1 X90.069 Y170.008 E6.75844
G1 X87.635 Y168.666 E6.82778
G1 X85.208 Y167.417 E6.89587
G1 X82.761 Y166.244 E6.96356
G1 X80.233 Y165.119 E7.03258
G1 X77.69 Y164.07 E7.1012
G1 X75.138 Y163.106 E7.16925
G1 X72.566 Y162.214 E7.23716
G1 X69.951 Y161.389 E7.30556
G1 X67.774 Y160.764 E7.36206
G1 X66.919 Y160.528 E7.38419
G1 X66.448 Y160.356 E7.39669
G1 X66.01 Y160.113 E7.40919
G1 X65.613 Y159.8 E7.4218
G1 X65.215 Y159.42 E7.43553
G1 X64.967 Y159.172 E7.44427
G1 X64.496 Y158.685 E7.46118
G1 X64.177 Y158.298 E7.47369
G1 X63.923 Y157.865 E7.48621
G1 X63.742 Y157.397 E7.49873
G1 X63.637 Y156.907 E7.51123
G1 X63.605 Y156.386 E7.52425
G1 X63.6 Y155.977 E7.53445
G1 X63.6 Y34.162 E10.57314
G1 X63.61 Y33.46 E10.59065
G1 X63.657 Y32.961 E10.60315
G1 X63.783 Y32.475 E10.61568
G1 X63.984 Y32.016 E10.62818
M205 X6 Y6
G1 F2100 E5.62818
G1 F600 Z1.2
;MESH:bottom_v6.stl
G0 F2666.7 X147.2 Y134.221 Z1.2
M205 X5 Y5
;TYPE:WALL-INNER
G1 F600 Z0.2
G1 F2100 E10.62818
G1 F1200 X146.617 Y135.225 E10.65714
G1 X108.7 Y156.891 E11.7465
G1 X108.699 Y165.085 E11.9509
G1 X108.664 Y165.756 E11.96766
G1 X108.58 Y166.322 E11.98194
G1 X108.415 Y166.975 E11.99874
G1 X108.205 Y167.555 E12.01413
G1 X107.939 Y168.113 E12.02955
G1 X107.789 Y168.375 E12.03708
G1 X107.449 Y168.884 E12.05235
G1 X107.059 Y169.36 E12.0677
G1 X106.618 Y169.8 E12.08324
G1 X106.104 Y170.22 E12.0998
G1 X105.606 Y170.55 E12.1147
G1 X105.07 Y170.837 E12.12986
G1 X104.449 Y171.091 E12.1466
G1 X103.891 Y171.26 E12.16114
G1 X103.302 Y171.377 E12.17612
G1 X102.647 Y171.441 E12.19254
G1 X102.153 Y171.449 E12.20487
G1 X101.483 Y171.413 E12.2216
G1 X100.918 Y171.328 E12.23586
G1 X100.275 Y171.165 E12.2524
G1 X99.693 Y170.954 E12.26785
G1 X99.159 Y170.7 E12.2826
G1 X98.62 Y170.378 E12.29826
G1 X98.095 Y169.984 E12.31463
G1 X97.639 Y169.568 E12.33003
G1 X97.236 Y169.119 E12.34508
G1 X96.856 Y168.602 E12.36109
G1 X96.537 Y168.069 E12.37658
G1 X96.287 Y167.539 E12.3912
G1 X96.069 Y166.925 E12.40745
G1 X95.922 Y166.337 E12.42257
G1 X95.833 Y165.732 E12.43782
G1 X95.8 Y165.058 E12.45466
G1 X95.8 Y156.45 E12.66939
G1 X68.184 Y156.45 E13.35827
G1 X67.8 Y156.066 E13.37182
G1 X67.8 Y33.934 E16.41841
G1 X68.184 Y33.55 E16.43196
G1 X146.816 Y33.55 E18.39344
G1 X147.2 Y33.934 E18.40699
G1 X147.2 Y134.221 E20.90866
M205 X6 Y6
G0 F2666.7 X109.266 Y157.219
G0 X106.687 Y162.583
M205 X5 Y5
G1 F1200 X106.278 Y161.949 E20.92748
G1 X105.778 Y161.385 E20.94628
G1 X105.2 Y160.898 E20.96513
G1 X104.555 Y160.504 E20.98399
G1 X103.86 Y160.21 E21.00281
G1 X103.127 Y160.025 E21.02167
G1 X102.375 Y159.948 E21.04053
G1 X101.621 Y159.988 E21.05936
G1 X100.881 Y160.136 E21.07819
G1 X100.172 Y160.396 E21.09702
G1 X99.51 Y160.755 E21.11581
G1 X98.907 Y161.212 E21.13468
G1 X98.381 Y161.753 E21.15351
G1 X97.938 Y162.365 E21.17235
G1 X97.595 Y163.037 E21.19117
G1 X97.353 Y163.753 E21.21003
G1 X97.224 Y164.497 E21.22886
G1 X97.205 Y165.251 E21.24768
G1 X97.297 Y166.001 E21.26653
G1 X97.501 Y166.728 E21.28536
G1 X97.813 Y167.417 E21.30423
G1 X98.222 Y168.051 E21.32305
G1 X98.722 Y168.615 E21.34185
G1 X99.3 Y169.102 E21.3607
G1 X99.945 Y169.496 E21.37956
G1 X100.64 Y169.79 E21.39838
G1 X101.374 Y169.975 E21.41726
G1 X102.125 Y170.052 E21.4361
G1 X102.879 Y170.012 E21.45493
G1 X103.619 Y169.864 E21.47376
G1 X104.328 Y169.604 E21.49259
G1 X104.99 Y169.245 E21.51138
G1 X105.611 Y168.773 E21.53084
G1 X106.134 Y168.23 E21.54964
G1 X106.562 Y167.635 E21.56793
G1 X106.905 Y166.963 E21.58675
G1 X107.147 Y166.247 E21.6056
G1 X107.276 Y165.503 E21.62444
G1 X107.295 Y164.749 E21.64325
G1 X107.203 Y163.999 E21.6621
G1 X106.999 Y163.272 E21.68094
G1 X106.687 Y162.583 E21.6998
M205 X6 Y6
G0 F2666.7 X109.266 Y157.219
G0 X147.5 Y134.301
M205 X5 Y5
G1 F1200 X146.836 Y135.445 E21.7328
G1 X109 Y157.065 E22.81984
G1 X108.999 Y165.101 E23.0203
G1 X108.963 Y165.784 E23.03736
G1 X108.873 Y166.39 E23.05264
G1 X108.703 Y167.06 E23.06989
G1 X108.481 Y167.673 E23.08615
G1 X108.208 Y168.247 E23.10201
G1 X108.043 Y168.535 E23.11028
G1 X107.69 Y169.063 E23.12613
G1 X107.282 Y169.561 E23.14219
G1 X106.819 Y170.023 E23.1585
G1 X106.285 Y170.46 E23.17572
G1 X105.754 Y170.811 E23.19159
G1 X105.195 Y171.11 E23.20741
G1 X104.555 Y171.372 E23.22466
G1 X103.964 Y171.551 E23.24006
G1 X103.341 Y171.675 E23.25591
G1 X102.668 Y171.741 E23.27278
G1 X102.142 Y171.749 E23.2859
G1 X101.455 Y171.712 E23.30306
G1 X100.858 Y171.623 E23.31812
G1 X100.19 Y171.453 E23.33531
G1 X99.575 Y171.23 E23.35163
G1 X99.022 Y170.967 E23.36691
G1 X98.45 Y170.625 E23.38353
G1 X97.902 Y170.215 E23.4006
G1 X97.43 Y169.784 E23.41655
G1 X96.997 Y169.301 E23.43273
G1 X96.605 Y168.768 E23.44923
G1 X96.276 Y168.217 E23.46524
G1 X96.008 Y167.649 E23.48091
G1 X95.782 Y167.013 E23.49775
G1 X95.627 Y166.395 E23.51364
G1 X95.534 Y165.758 E23.5297
G1 X95.5 Y165.073 E23.54681
G1 X95.5 Y156.75 E23.75442
G1 X68.06 Y156.75 E24.43892
G1 X67.5 Y156.19 E24.45867
G1 X67.5 Y33.81 E27.51146
G1 X68.06 Y33.25 E27.53121
G1 X146.94 Y33.25 E29.49888
G1 X147.5 Y33.81 E29.51864
G1 X147.5 Y134.301 E32.02539
M205 X6 Y6
G0 F2666.7 X109.266 Y157.219
G0 X106.423 Y162.727
M205 X5 Y5
G1 F1200 X106.038 Y162.131 E32.04309
G1 X105.568 Y161.6 E32.06078
G1 X105.024 Y161.142 E32.07852
G1 X104.418 Y160.772 E32.09623
G1 X103.764 Y160.495 E32.11395
G1 X103.075 Y160.321 E32.13168
G1 X102.368 Y160.249 E32.1494
G1 X101.659 Y160.286 E32.16711
G1 X100.963 Y160.426 E32.18482
G1 X100.296 Y160.67 E32.20254
G1 X99.673 Y161.008 E32.22022
G1 X99.106 Y161.437 E32.23796
G1 X98.611 Y161.946 E32.25567
G1 X98.195 Y162.522 E32.27339
G1 X97.872 Y163.154 E32.2911
G1 X97.645 Y163.827 E32.30882
G1 X97.523 Y164.527 E32.32654
G1 X97.505 Y165.236 E32.34423
G1 X97.592 Y165.942 E32.36198
G1 X97.784 Y166.625 E32.37967
G1 X98.077 Y167.273 E32.39741
G1 X98.462 Y167.869 E32.41511
G1 X98.932 Y168.4 E32.4328
G1 X99.476 Y168.858 E32.45054
G1 X100.082 Y169.228 E32.46825
G1 X100.736 Y169.505 E32.48597
G1 X101.426 Y169.679 E32.50372
G1 X102.132 Y169.751 E32.52142
G1 X102.841 Y169.714 E32.53913
G1 X103.537 Y169.574 E32.55684
G1 X104.204 Y169.33 E32.57456
G1 X104.827 Y168.992 E32.59224
G1 X105.411 Y168.548 E32.61054
G1 X105.903 Y168.037 E32.62824
G1 X106.305 Y167.478 E32.64541
G1 X106.628 Y166.846 E32.66312
G1 X106.855 Y166.173 E32.68083
G1 X106.977 Y165.473 E32.69856
G1 X106.995 Y164.764 E32.71625
G1 X106.908 Y164.058 E32.734
G1 X106.716 Y163.375 E32.75169
G1 X106.423 Y162.727 E32.76943
M205 X6 Y6
G0 F2666.7 X109.266 Y157.219
G0 X147.704 Y134.356
G0 X147.8 Y134.381
M205 X5 Y5
G1 F1200 X147.055 Y135.665 E32.80646
G1 X109.3 Y157.239 E33.89118
G1 X109.299 Y165.117 E34.0877
G1 X109.262 Y165.817 E34.10519
G1 X109.168 Y166.449 E34.12112
G1 X108.991 Y167.145 E34.13904
G1 X108.757 Y167.791 E34.15618
G1 X108.477 Y168.38 E34.17245
G1 X108.297 Y168.695 E34.1815
G1 X107.931 Y169.242 E34.19791
G1 X107.505 Y169.762 E34.21468
G1 X107.02 Y170.246 E34.23177
G1 X106.461 Y170.703 E34.24979
G1 X105.907 Y171.07 E34.26636
G1 X105.32 Y171.383 E34.28296
G1 X104.661 Y171.653 E34.30072
G1 X104.037 Y171.842 E34.31699
G1 X103.379 Y171.973 E34.33372
G1 X102.691 Y172.041 E34.35097
G1 X102.13 Y172.049 E34.36496
G1 X101.427 Y172.011 E34.38253
G1 X100.799 Y171.918 E34.39836
G1 X100.105 Y171.741 E34.41623
G1 X99.459 Y171.507 E34.43337
G1 X98.877 Y171.23 E34.44945
G1 X98.286 Y170.877 E34.46662
G1 X97.715 Y170.45 E34.4844
G1 X97.216 Y169.994 E34.50127
G1 X96.758 Y169.483 E34.51838
G1 X96.354 Y168.934 E34.53539
G1 X96.015 Y168.365 E34.55191
G1 X95.729 Y167.76 E34.5686
G1 X95.495 Y167.101 E34.58605
G1 X95.332 Y166.452 E34.60274
G1 X95.235 Y165.784 E34.61958
G1 X95.2 Y165.088 E34.63696
G1 X95.2 Y157.05 E34.83747
G1 X67.936 Y157.05 E35.51757
G1 X67.2 Y156.314 E35.54354
G1 X67.2 Y33.686 E38.6025
G1 X67.936 Y32.95 E38.62847
G1 X147.064 Y32.95 E40.60232
G1 X147.8 Y33.686 E40.62829
G1 X147.8 Y134.381 E43.14014
M205 X6 Y6
G0 F2666.7 X147.704 Y134.356
G0 X109.266 Y157.219
G0 X106.246 Y162.824
G0 X106.159 Y162.871
M205 X5 Y5
G1 F1200 X105.798 Y162.313 E43.15671
G1 X105.358 Y161.815 E43.17329
G1 X104.848 Y161.386 E43.18992
G1 X104.281 Y161.04 E43.20648
G1 X103.668 Y160.78 E43.22309
G1 X103.023 Y160.617 E43.23969
G1 X102.361 Y160.55 E43.25629
G1 X101.697 Y160.584 E43.27287
G1 X101.045 Y160.716 E43.28947
G1 X100.42 Y160.944 E43.30606
G1 X99.836 Y161.261 E43.32264
G1 X99.305 Y161.663 E43.33925
G1 X98.841 Y162.139 E43.35583
G1 X98.452 Y162.679 E43.37244
G1 X98.149 Y163.271 E43.38903
G1 X97.937 Y163.901 E43.40561
G1 X97.822 Y164.557 E43.42222
G1 X97.805 Y165.221 E43.43879
G1 X97.887 Y165.883 E43.45543
G1 X98.067 Y166.522 E43.47199
G1 X98.341 Y167.129 E43.4886
G1 X98.702 Y167.687 E43.50518
G1 X99.142 Y168.185 E43.52176
G1 X99.652 Y168.614 E43.53838
G1 X100.219 Y168.96 E43.55495
G1 X100.832 Y169.22 E43.57156
G1 X101.478 Y169.383 E43.58818
G1 X102.139 Y169.45 E43.60475
G1 X102.803 Y169.416 E43.62134
G1 X103.455 Y169.284 E43.63793
G1 X104.08 Y169.056 E43.65453
G1 X104.664 Y168.739 E43.6711
G1 X105.211 Y168.323 E43.68825
G1 X105.672 Y167.844 E43.70483
G1 X106.048 Y167.321 E43.7209
G1 X106.351 Y166.729 E43.73749
G1 X106.563 Y166.099 E43.75407
G1 X106.678 Y165.443 E43.77068
G1 X106.695 Y164.779 E43.78725
G1 X106.613 Y164.117 E43.80389
G1 X106.433 Y163.478 E43.82045
G1 X106.159 Y162.871 E43.83707
M205 X6 Y6
G1 F2100 E38.83707
G0 F2666.7 X106.246 Y162.824
G0 X109.266 Y157.219
G0 X147.704 Y134.356
G1 F2100 E43.83707
G0 F2666.7 X148.05 Y134.447
M205 X5 Y5
;TYPE:WALL-OUTER
G1 F1200 X147.237 Y135.849 E43.87749
G1 X109.55 Y157.384 E44.96026
G1 X109.549 Y165.13 E45.15348
G1 X109.512 Y165.836 E45.17112
G1 X109.413 Y166.499 E45.18784
G1 X109.23 Y167.219 E45.20637
G1 X108.986 Y167.893 E45.22425
G1 X108.702 Y168.489 E45.24072
G1 X108.505 Y168.834 E45.25063
G1 X108.136 Y169.385 E45.26717
G1 X107.682 Y169.939 E45.28504
G1 X107.189 Y170.431 E45.30241
G1 X106.614 Y170.901 E45.32094
G1 X106.025 Y171.291 E45.33856
G1 X105.433 Y171.607 E45.3553
G1 X104.746 Y171.888 E45.37382
G1 X104.095 Y172.085 E45.39078
G1 X103.412 Y172.221 E45.40815
G1 X102.708 Y172.291 E45.4258
G1 X102.12 Y172.299 E45.44047
G1 X101.408 Y172.261 E45.45826
G1 X100.749 Y172.163 E45.47488
G1 X100.031 Y171.98 E45.49336
G1 X99.357 Y171.736 E45.51124
G1 X98.761 Y171.452 E45.52771
G1 X98.154 Y171.089 E45.54535
G1 X97.552 Y170.64 E45.56409
G1 X97.037 Y170.169 E45.5815
G1 X96.566 Y169.644 E45.59909
G1 X96.142 Y169.067 E45.61695
G1 X95.798 Y168.49 E45.63371
G1 X95.496 Y167.851 E45.65134
G1 X95.259 Y167.185 E45.66897
G1 X95.087 Y166.5 E45.68659
G1 X94.985 Y165.801 E45.70421
G1 X94.95 Y165.1 E45.72172
G1 X94.95 Y157.3 E45.91629
G1 X67.832 Y157.3 E46.59275
G1 X66.95 Y156.418 E46.62387
G1 X66.95 Y33.582 E49.68802
G1 X67.832 Y32.7 E49.71914
G1 X147.168 Y32.7 E51.69818
G1 X148.05 Y33.582 E51.7293
G1 X148.05 Y134.447 E54.24539
M205 X6 Y6
G0 F2666.7 X147.95 Y134.62
G1 F2100 E49.24539
G0 F2666.7 X147.649 Y134.444
G0 X109.266 Y157.219
G0 X106.233 Y162.802
G1 F2100 E54.24539
G0 F2666.7 X105.939 Y162.991
M205 X5 Y5
G1 F1200 X105.598 Y162.464 E54.26104
G1 X105.183 Y161.994 E54.27669
G1 X104.702 Y161.59 E54.29235
G1 X104.166 Y161.263 E54.30802
G1 X103.588 Y161.018 E54.32368
G1 X102.98 Y160.864 E54.33932
G1 X102.355 Y160.801 E54.35499
G1 X101.728 Y160.833 E54.37065
G1 X101.113 Y160.957 E54.3863
G1 X100.523 Y161.172 E54.40197
G1 X99.972 Y161.472 E54.41762
G1 X99.471 Y161.851 E54.43329
G1 X99.033 Y162.3 E54.44893
G1 X98.666 Y162.81 E54.46461
G1 X98.38 Y163.368 E54.48025
G1 X98.18 Y163.963 E54.49591
G1 X98.071 Y164.582 E54.51159
G1 X98.055 Y165.209 E54.52723
G1 X98.133 Y165.833 E54.54292
G1 X98.303 Y166.436 E54.55855
G1 X98.561 Y167.009 E54.57422
G1 X98.902 Y167.536 E54.58988
G1 X99.317 Y168.006 E54.60552
G1 X99.798 Y168.41 E54.62119
G1 X100.334 Y168.737 E54.63685
G1 X100.912 Y168.982 E54.65251
G1 X101.521 Y169.136 E54.66818
G1 X102.145 Y169.199 E54.68383
G1 X102.772 Y169.167 E54.69949
G1 X103.387 Y169.043 E54.71514
G1 X103.977 Y168.828 E54.7308
G1 X104.528 Y168.528 E54.74645
G1 X105.044 Y168.136 E54.76262
G1 X105.479 Y167.684 E54.77827
G1 X105.834 Y167.19 E54.79344
G1 X106.12 Y166.632 E54.80908
G1 X106.32 Y166.037 E54.82474
G1 X106.429 Y165.418 E54.84042
G1 X106.445 Y164.791 E54.85607
G1 X106.367 Y164.167 E54.87175
G1 X106.197 Y163.564 E54.88738
