G93 R50.0;FLAVOR:Marlin
;TIME:12182
;Filament used: 8.69834m, 0m
;Layer height: 0.2
;MINX:63.55
;MINY:36.8
;MINZ:0.3
;MAXX:151.45
;MAXY:168.2
;MAXZ:25.9
;Generated with Cura_SteamEngine 4.10.0
M140 S40
M105
M190 S40
M104 S200
M105
M109 S200
M82 ;absolute extrusion mode
G21 ;metric values
G90 ;absolute positioning
M82 ;set extruder to absolute mode
M107 ;start with the fan off
G28 X0 Y0 ;move X/Y to min endstops
G28 Z0 ;move Z to min endstops
G1 Z15.0 F9000 ;move the platform down 15mm
G92 E0 ;zero the extruded length
G1 F200 E15 ;extrude 15mm of feed stock
G92 E0 ;zero the extruded length again
G1 F9000
;Put printing message on LCD screen
M117 Printing...
G92 E0
G92 E0
G1 F1800 E-4
;LAYER_COUNT:130G93 R50.0
;LAYER:0G93 R50.0
M107
M204 S1000
M205 X6 Y6
G0 F3000 X63.935 Y39.503 Z0.3
M205 X5 Y5
;TYPE:SKIRT
G1 F1800 E0
G1 F1200 X64.206 Y39.076 E0.02523
G1 X64.558 Y38.674 E0.05189
G1 X64.99 Y38.234 E0.08265
G1 X65.53 Y37.71 E0.12019
G1 X65.92 Y37.388 E0.14542
G1 X66.356 Y37.132 E0.17065
G1 X66.827 Y36.948 E0.19588
G1 X67.321 Y36.84 E0.2211
G1 X67.864 Y36.805 E0.24825
G1 X68.273 Y36.8 E0.26866
G1 X146.589 Y36.8 E4.17586
G1 X147.29 Y36.81 E4.21084
G1 X147.793 Y36.857 E4.23604
G1 X148.283 Y36.983 E4.26128
G1 X148.746 Y37.185 E4.28648
G1 X149.173 Y37.457 E4.31174
G1 X149.566 Y37.798 E4.3377
G1 X150.017 Y38.241 E4.36924
G1 X150.539 Y38.78 E4.40667
G1 X150.861 Y39.17 E4.43191
G1 X151.117 Y39.606 E4.45713
G1 X151.302 Y40.076 E4.48233
G1 X151.41 Y40.57 E4.50756
G1 X151.445 Y41.115 E4.5348
G1 X151.45 Y41.524 E4.55521
G1 X151.45 Y163.34 E10.63264
G1 X151.44 Y164.042 E10.66766
G1 X151.393 Y164.545 E10.69287
G1 X151.267 Y165.035 E10.71811
G1 X151.065 Y165.498 E10.74331
G1 X150.794 Y165.925 E10.76854
G1 X150.438 Y166.331 E10.79548
G1 X149.974 Y166.801 E10.82843
G1 X149.473 Y167.287 E10.86325
G1 X149.084 Y167.609 E10.88845
G1 X148.648 Y167.866 E10.9137
G1 X148.178 Y168.051 E10.9389
G1 X147.684 Y168.16 E10.96413
G1 X147.136 Y168.195 E10.99153
G1 X146.727 Y168.2 E11.01194
G1 X106.911 Y168.2 E12.99836
G1 X106.222 Y168.19 E13.03274
G1 X105.498 Y168.096 E13.06917
G1 X104.603 Y167.874 E13.11517
G1 X104.216 Y167.77 E13.13516
G1 X103.541 Y167.581 E13.17013
G1 X102.862 Y167.304 E13.20672
G1 X102.034 Y166.848 E13.25388
G1 X66.612 Y146.606 E15.28929
G1 X65.995 Y146.241 E15.32505
G1 X65.581 Y145.95 E15.3503
G1 X65.219 Y145.598 E15.37549
G1 X64.906 Y145.176 E15.4017
G1 X64.712 Y144.861 E15.42016
G1 X64.294 Y144.142 E15.46165
G1 X63.968 Y143.56 E15.49493
G1 X63.757 Y143.101 E15.52014
G1 X63.62 Y142.614 E15.54538
G1 X63.561 Y142.094 E15.57149
G1 X63.55 Y141.668 E15.59275
G1 X63.55 Y41.661 E20.58212
G1 X63.56 Y40.959 E20.61714
G1 X63.607 Y40.456 E20.64235
G1 X63.733 Y39.966 E20.66759
G1 X63.935 Y39.503 E20.69279
M205 X6 Y6
G1 F1800 E16.69279
;MESH:top_v7.stl
G0 F3000 X66.461 Y40.349
G0 X67.368 Y41.255
G0 X68.349 Y142.763
M205 X5 Y5
;TYPE:WALL-INNER
G1 F1800 E20.69279
G1 F1200 X67.75 Y141.731 E20.75232
G1 X67.75 Y41.414 E25.75716
G1 X68.164 Y41 E25.78637
G1 X146.836 Y41 E29.71133
G1 X147.25 Y41.414 E29.74054
G1 X147.25 Y163.586 E35.83572
G1 X146.836 Y164 E35.86493
G1 X106.383 Y164 E37.88314
G1 X104.761 Y163.568 E37.96688
G1 X68.349 Y142.763 E40.05911
M205 X6 Y6
G0 F3000 X75.328 Y134.613
M205 X5 Y5
G1 F1200 X75.892 Y135.11 E40.09662
G1 X76.572 Y135.415 E40.1338
G1 X77.312 Y135.508 E40.17101
G1 X78.05 Y135.378 E40.20839
G1 X78.716 Y135.035 E40.24577
G1 X79.25 Y134.515 E40.28295
G1 X79.609 Y133.856 E40.32039
G1 X79.756 Y133.124 E40.35764
G1 X79.682 Y132.389 E40.3945
G1 X79.443 Y131.787 E40.42681
G1 X79.084 Y131.293 E40.45728
G1 X78.587 Y130.878 E40.48958
G1 X77.936 Y130.589 E40.52512
G1 X77.302 Y130.492 E40.55711
G1 X76.574 Y130.583 E40.59372
G1 X75.913 Y130.877 E40.62981
G1 X75.405 Y131.302 E40.66285
G1 X74.995 Y131.902 E40.69911
G1 X74.789 Y132.516 E40.73142
G1 X74.752 Y133.253 E40.76823
G1 X74.939 Y133.977 E40.80554
G1 X75.328 Y134.613 E40.84274
M205 X6 Y6
G0 F3000 X76.671 Y135.064
G0 X77.933 Y135.032
G0 X88.95 Y128.188
M205 X5 Y5
G1 F1200 X94.95 Y128.188 E41.14208
G1 X94.95 Y106.188 E42.23966
G1 X88.95 Y106.188 E42.539
G1 X88.95 Y128.188 E43.63659
M205 X6 Y6
G0 F3000 X96.95 Y128.188
M205 X5 Y5
G1 F1200 X102.95 Y128.188 E43.93593
G1 X102.95 Y106.188 E45.03351
G1 X96.95 Y106.188 E45.33285
G1 X96.95 Y128.188 E46.43044
M205 X6 Y6
G0 F3000 X104.95 Y128.188
M205 X5 Y5
G1 F1200 X110.95 Y128.188 E46.72978
G1 X110.95 Y106.188 E47.82736
G1 X104.95 Y106.188 E48.1267
G1 X104.95 Y128.188 E49.22429
M205 X6 Y6
G0 F3000 X114.328 Y134.613
M205 X5 Y5
G1 F1200 X114.892 Y135.11 E49.26179
G1 X115.572 Y135.415 E49.29898
G1 X116.312 Y135.508 E49.33618
G1 X117.05 Y135.378 E49.37357
G1 X117.716 Y135.035 E49.41094
G1 X118.25 Y134.515 E49.44813
G1 X118.609 Y133.856 E49.48557
G1 X118.756 Y133.124 E49.52282
G1 X118.682 Y132.389 E49.55967
G1 X118.443 Y131.787 E49.59199
G1 X118.084 Y131.293 E49.62245
G1 X117.587 Y130.878 E49.65476
G1 X116.936 Y130.589 E49.69029
G1 X116.302 Y130.492 E49.72229
G1 X115.574 Y130.583 E49.75889
G1 X114.913 Y130.877 E49.79499
G1 X114.405 Y131.302 E49.82803
G1 X113.995 Y131.902 E49.86429
G1 X113.789 Y132.516 E49.8966
G1 X113.752 Y133.253 E49.93341
G1 X113.939 Y133.977 E49.97072
G1 X114.328 Y134.613 E50.00791
M205 X6 Y6
G0 F3000 X89.322 Y127.816
G0 X70.337 Y102.571
M205 X5 Y5
G1 F1200 X70.904 Y102.861 E50.03969
G1 X71.577 Y102.996 E50.07393
G1 X71.737 Y103 E50.08192
G1 X81.896 Y102.999 E50.58875
G1 X82.59 Y102.865 E50.62401
G1 X83.265 Y102.502 E50.66225
G1 X83.786 Y101.965 E50.69958
G1 X84.128 Y101.3 E50.73688
G1 X84.258 Y100.562 E50.77427
G1 X84.167 Y99.824 E50.81137
G1 X83.873 Y99.163 E50.84746
G1 X83.448 Y98.655 E50.88051
G1 X82.848 Y98.245 E50.91676
G1 X82.253 Y98.045 E50.94808
G1 X81.793 Y98 E50.97114
G1 X71.697 Y98 E51.47483
G1 X71.119 Y98.072 E51.50389
G1 X70.442 Y98.359 E51.54057
G1 X69.869 Y98.838 E51.57783
G1 X69.462 Y99.469 E51.61529
G1 X69.264 Y100.175 E51.65188
G1 X69.264 Y100.823 E51.6842
G1 X69.462 Y101.529 E51.72079
G1 X69.851 Y102.138 E51.75684
G1 X70.337 Y102.571 E51.78931
M205 X6 Y6
G0 F3000 X69.795 Y101.38
G0 X70.75 Y82.2
M205 X5 Y5
G1 F1200 X107.75 Y82.2 E53.63525
G1 X107.75 Y77.2 E53.8847
G1 X70.75 Y77.2 E55.73064
G1 X70.75 Y82.2 E55.98009
M205 X6 Y6
G0 F3000 X70.75 Y75.2
M205 X5 Y5
G1 F1200 X107.75 Y75.2 E57.82603
G1 X107.75 Y70.2 E58.07548
G1 X70.75 Y70.2 E59.92142
G1 X70.75 Y75.2 E60.17087
M205 X6 Y6
G0 F3000 X70.75 Y68.2
M205 X5 Y5
G1 F1200 X107.75 Y68.2 E62.0168
G1 X107.75 Y63.2 E62.26625
G1 X70.75 Y63.2 E64.11219
G1 X70.75 Y68.2 E64.36164
M205 X6 Y6
G0 F3000 X70.75 Y61.2
M205 X5 Y5
G1 F1200 X107.75 Y61.2 E66.20758
G1 X107.75 Y56.2 E66.45703
G1 X70.75 Y56.2 E68.30297
G1 X70.75 Y61.2 E68.55242
M205 X6 Y6
G0 F3000 X70.75 Y54.2
M205 X5 Y5
G1 F1200 X107.75 Y54.2 E70.39836
G1 X107.75 Y49.2 E70.64781
G1 X70.75 Y49.2 E72.49375
G1 X70.75 Y54.2 E72.7432
M205 X6 Y6
G0 F3000 X68.126 Y142.986
G0 X68.056 Y143.056
M205 X5 Y5
G1 F1200 X67.35 Y141.839 E72.81339
G1 X67.35 Y41.248 E77.8319
G1 X67.998 Y40.6 E77.87762
G1 X147.002 Y40.6 E81.81914
G1 X147.65 Y41.248 E81.86486
G1 X147.65 Y163.752 E87.97661
G1 X147.002 Y164.4 E88.02233
G1 X106.329 Y164.4 E90.05151
G1 X104.611 Y163.943 E90.14021
G1 X68.056 Y143.056 E92.24066
M205 X6 Y6
G0 F3000 X68.126 Y142.986
G0 X75.562 Y134.417
G0 X75.638 Y134.353
M205 X5 Y5
G1 F1200 X76.111 Y134.77 E92.27212
G1 X76.681 Y135.026 E92.30329
G1 X77.302 Y135.104 E92.33452
G1 X77.921 Y134.995 E92.36587
G1 X78.48 Y134.707 E92.39725
G1 X78.928 Y134.271 E92.42843
G1 X79.229 Y133.718 E92.45985
G1 X79.352 Y133.104 E92.49109
G1 X79.29 Y132.485 E92.52212
G1 X79.09 Y131.981 E92.54918
G1 X78.79 Y131.568 E92.57464
G1 X78.374 Y131.221 E92.60167
G1 X77.823 Y130.976 E92.63175
G1 X77.297 Y130.896 E92.6583
G1 X76.682 Y130.973 E92.68922
G1 X76.127 Y131.22 E92.71953
G1 X75.704 Y131.573 E92.74701
G1 X75.357 Y132.082 E92.77775
G1 X75.186 Y132.591 E92.80454
G1 X75.155 Y133.212 E92.83556
G1 X75.311 Y133.819 E92.86682
G1 X75.638 Y134.353 E92.89806
M205 X6 Y6
G0 F3000 X75.562 Y134.417
G0 X76.671 Y135.064
G0 X77.933 Y135.032
G0 X89.28 Y127.858
G0 X89.35 Y127.788
M205 X5 Y5
G1 F1200 X94.55 Y127.788 E93.15749
G1 X94.55 Y106.588 E94.21517
G1 X89.35 Y106.588 E94.47459
G1 X89.35 Y127.788 E95.53227
M205 X6 Y6
G0 F3000 X89.28 Y127.858
G0 X97.28 Y127.858
G0 X97.35 Y127.788
M205 X5 Y5
G1 F1200 X102.55 Y127.788 E95.7917
G1 X102.55 Y106.588 E96.84937
G1 X97.35 Y106.588 E97.1088
G1 X97.35 Y127.788 E98.16647
M205 X6 Y6
G0 F3000 X97.28 Y127.858
G0 X105.28 Y127.858
G0 X105.35 Y127.788
M205 X5 Y5
G1 F1200 X110.55 Y127.788 E98.4259
G1 X110.55 Y106.588 E99.48357
G1 X105.35 Y106.588 E99.743
G1 X105.35 Y127.788 E100.80067
M205 X6 Y6
G0 F3000 X105.28 Y127.858
G0 X114.562 Y134.417
G0 X114.638 Y134.353
M205 X5 Y5
G1 F1200 X115.111 Y134.77 E100.83213
G1 X115.681 Y135.026 E100.86331
G1 X116.302 Y135.104 E100.89453
G1 X116.921 Y134.995 E100.92589
G1 X117.48 Y134.707 E100.95726
G1 X117.928 Y134.271 E100.98845
G1 X118.229 Y133.718 E101.01986
G1 X118.352 Y133.104 E101.0511
G1 X118.29 Y132.485 E101.08214
G1 X118.09 Y131.981 E101.10919
G1 X117.79 Y131.568 E101.13466
G1 X117.374 Y131.221 E101.16168
G1 X116.823 Y130.976 E101.19177
G1 X116.297 Y130.896 E101.21831
G1 X115.682 Y130.973 E101.24923
G1 X115.127 Y131.22 E101.27954
G1 X114.704 Y131.573 E101.30703
G1 X114.357 Y132.082 E101.33776
G1 X114.186 Y132.591 E101.36455
G1 X114.155 Y133.212 E101.39557
G1 X114.311 Y133.819 E101.42684
G1 X114.638 Y134.353 E101.45808
M205 X6 Y6
G0 F3000 X114.562 Y134.417
G0 X89.322 Y127.816
G0 X70.509 Y102.32
G0 X70.565 Y102.238
M205 X5 Y5
G1 F1200 X71.037 Y102.48 E101.48454
G1 X71.622 Y102.597 E101.5143
G1 X71.742 Y102.6 E101.52029
G1 X81.858 Y102.599 E102.02498
G1 X82.454 Y102.484 E102.05527
G1 X83.021 Y102.179 E102.08739
G1 X83.458 Y101.729 E102.11868
G1 X83.745 Y101.171 E102.14999
G1 X83.854 Y100.552 E102.18134
G1 X83.777 Y99.932 E102.21251
G1 X83.53 Y99.377 E102.24282
G1 X83.177 Y98.954 E102.27031
G1 X82.668 Y98.607 E102.30104
G1 X82.169 Y98.439 E102.32731
G1 X81.773 Y98.4 E102.34716
G1 X71.722 Y98.4 E102.84861
G1 X71.224 Y98.462 E102.87364
G1 X70.653 Y98.704 E102.90458
G1 X70.172 Y99.106 E102.93586
G1 X69.831 Y99.635 E102.96726
G1 X69.664 Y100.23 E102.99809
G1 X69.664 Y100.768 E103.02493
G1 X69.831 Y101.364 E103.05581
G1 X70.158 Y101.876 E103.08612
G1 X70.565 Y102.238 E103.1133
M205 X6 Y6
G0 F3000 X70.509 Y102.32
G0 X69.795 Y101.38
G0 X71.08 Y81.87
G0 X71.15 Y81.8
M205 X5 Y5
G1 F1200 X107.35 Y81.8 E104.91932
G1 X107.35 Y77.6 E105.12886
G1 X71.15 Y77.6 E106.93489
G1 X71.15 Y81.8 E107.14442
M205 X6 Y6
G0 F3000 X71.08 Y81.87
G0 X71.08 Y74.87
G0 X71.15 Y74.8
M205 X5 Y5
G1 F1200 X107.35 Y74.8 E108.95045
G1 X107.35 Y70.6 E109.15999
G1 X71.15 Y70.6 E110.96601
G1 X71.15 Y74.8 E111.17555
M205 X6 Y6
G0 F3000 X71.08 Y74.87
G0 X71.08 Y67.87
G0 X71.15 Y67.8
M205 X5 Y5
G1 F1200 X107.35 Y67.8 E112.98158
G1 X107.35 Y63.6 E113.19112
G1 X71.15 Y63.6 E114.99714
G1 X71.15 Y67.8 E115.20668
M205 X6 Y6
G0 F3000 X71.08 Y67.87
G0 X71.08 Y60.87
G0 X71.15 Y60.8
M205 X5 Y5
G1 F1200 X107.35 Y60.8 E117.01271
G1 X107.35 Y56.6 E117.22224
G1 X71.15 Y56.6 E119.02827
G1 X71.15 Y60.8 E119.23781
M205 X6 Y6
G0 F3000 X71.08 Y60.87
G0 X71.08 Y53.87
G0 X71.15 Y53.8
M205 X5 Y5
G1 F1200 X107.35 Y53.8 E121.04383
G1 X107.35 Y49.6 E121.25337
G1 X71.15 Y49.6 E123.0594
G1 X71.15 Y53.8 E123.26894
M205 X6 Y6
G1 F1800 E119.26894
G0 F3000 X71.08 Y53.87
G0 X68.126 Y142.986
G0 X67.763 Y143.349
M205 X5 Y5
;TYPE:WALL-OUTER
G1 F1800 E123.26894
G1 F1200 X66.95 Y141.947 E123.34979
G1 X66.95 Y41.082 E128.38197
G1 X67.832 Y40.2 E128.4442
G1 X147.168 Y40.2 E132.40229
G1 X148.05 Y41.082 E132.46452
G1 X148.05 Y163.918 E138.59283
G1 X147.168 Y164.8 E138.65506
G1 X106.275 Y164.8 E140.69522
G1 X104.461 Y164.318 E140.78886
G1 X67.763 Y143.349 E142.89754
M205 X6 Y6
G0 F3000 X67.663 Y143.176
G1 F1800 E138.89754
G0 F3000 X68.096 Y142.926
G0 X75.617 Y134.468
G0 X75.948 Y134.093
M205 X5 Y5
G1 F1800 E142.89754
G1 F1200 X76.33 Y134.43 E142.92295
G1 X76.79 Y134.637 E142.94812
G1 X77.292 Y134.7 E142.97336
G1 X77.792 Y134.612 E142.99869
G1 X78.244 Y134.379 E143.02406
G1 X78.606 Y134.027 E143.04925
G1 X78.849 Y133.58 E143.07463
G1 X78.948 Y133.084 E143.09986
G1 X78.898 Y132.58 E143.12513
G1 X78.737 Y132.175 E143.14688
G1 X78.496 Y131.843 E143.16734
G1 X78.161 Y131.564 E143.18909
G1 X77.71 Y131.363 E143.21373
G1 X77.292 Y131.3 E143.23482
G1 X76.79 Y131.363 E143.26006
G1 X76.34 Y131.563 E143.28463
G1 X76.003 Y131.844 E143.30652
G1 X75.719 Y132.262 E143.33173
G1 X75.583 Y132.666 E143.353
G1 X75.558 Y133.171 E143.37822
G1 X75.684 Y133.661 E143.40346
G1 X75.948 Y134.093 E143.42872
M205 X6 Y6
G0 F3000 X76.098 Y134.225
G1 F1800 E139.42872
G0 F3000 X75.767 Y134.6
G0 X76.671 Y135.064
G0 X77.933 Y135.032
G0 X89.25 Y127.388
G0 X89.75 Y127.388
M205 X5 Y5
G1 F1800 E143.42872
G1 F1200 X94.15 Y127.388 E143.64824
G1 X94.15 Y106.988 E144.666
G1 X89.75 Y106.988 E144.88552
G1 X89.75 Y127.388 E145.90328
M205 X6 Y6
G0 F3000 X89.95 Y127.388
G1 F1800 E141.90328
G0 F3000 X89.95 Y127.888
G0 X94.578 Y127.816
G0 X97.25 Y127.388
G0 X97.75 Y127.388
M205 X5 Y5
G1 F1800 E145.90328
G1 F1200 X102.15 Y127.388 E146.12279
G1 X102.15 Y106.988 E147.14055
G1 X97.75 Y106.988 E147.36007
G1 X97.75 Y127.388 E148.37783
M205 X6 Y6
G0 F3000 X97.95 Y127.388
G1 F1800 E144.37783
G0 F3000 X97.95 Y127.888
G0 X102.578 Y127.816
G0 X105.25 Y127.388
G0 X105.75 Y127.388
M205 X5 Y5
G1 F1800 E148.37783
G1 F1200 X110.15 Y127.388 E148.59735
G1 X110.15 Y106.988 E149.61511
G1 X105.75 Y106.988 E149.83462
G1 X105.75 Y127.388 E150.85238
M205 X6 Y6
G0 F3000 X105.95 Y127.388
G1 F1800 E146.85238
G0 F3000 X105.95 Y127.888
G0 X114.617 Y134.468
G0 X114.948 Y134.093
M205 X5 Y5
G1 F1800 E150.85238
G1 F1200 X115.33 Y134.43 E150.8778
G1 X115.79 Y134.637 E150.90296
G1 X116.292 Y134.7 E150.92821
G1 X116.792 Y134.612 E150.95353
G1 X117.244 Y134.379 E150.9789
G1 X117.606 Y134.027 E151.0041
G1 X117.849 Y133.58 E151.02948
G1 X117.948 Y133.084 E151.05471
G1 X117.898 Y132.58 E151.07998
G1 X117.737 Y132.175 E151.10172
G1 X117.496 Y131.843 E151.12219
G1 X117.161 Y131.564 E151.14394
G1 X116.71 Y131.363 E151.16858
G1 X116.292 Y131.3 E151.18967
G1 X115.79 Y131.363 E151.21491
G1 X115.34 Y131.563 E151.23948
G1 X115.003 Y131.844 E151.26137
G1 X114.719 Y132.262 E151.28658
G1 X114.583 Y132.666 E151.30785
G1 X114.558 Y133.171 E151.33307
G1 X114.684 Y133.661 E151.35831
G1 X114.948 Y134.093 E151.38357
M205 X6 Y6
G0 F3000 X115.098 Y134.225
G1 F1800 E147.38357
G0 F3000 X114.767 Y134.6
G0 X89.322 Y127.816
G0 X71.072 Y102.588
G0 X71.17 Y102.099
M205 X5 Y5
G1 F1800 E151.38357
G1 F1200 X71.666 Y102.198 E151.4088
G1 X71.747 Y102.2 E151.41285
G1 X81.82 Y102.199 E151.91539
G1 X82.318 Y102.103 E151.94069
G1 X82.777 Y101.856 E151.9667
G1 X83.13 Y101.493 E151.99196
G1 X83.362 Y101.042 E152.01726
G1 X83.45 Y100.542 E152.04259
G1 X83.387 Y100.04 E152.06783
G1 X83.187 Y99.59 E152.0924
G1 X82.906 Y99.253 E152.11429
G1 X82.488 Y98.969 E152.1395
G1 X82.084 Y98.833 E152.16077
G1 X81.753 Y98.8 E152.17737
G1 X71.747 Y98.8 E152.67657
G1 X71.329 Y98.852 E152.69758
G1 X70.864 Y99.049 E152.72278
G1 X70.475 Y99.374 E152.74807
G1 X70.2 Y99.801 E152.7734
G1 X70.064 Y100.285 E152.79849
G1 X70.064 Y100.713 E152.81984
G1 X70.2 Y101.199 E152.84502
G1 X70.465 Y101.614 E152.86958
G1 X70.793 Y101.905 E152.89146
G1 X71.17 Y102.099 E152.91261
M205 X6 Y6
G0 F3000 X71.366 Y102.138
G1 F1800 E148.91261
G0 F3000 X71.268 Y102.628
G0 X70.543 Y102.271
G0 X69.795 Y101.38
G0 X71.05 Y81.4
G0 X71.55 Y81.4
M205 X5 Y5
G1 F1800 E152.91261
G1 F1200 X106.95 Y81.4 E154.67873
G1 X106.95 Y78 E154.84835
