G93 R50.0;FLAVOR:Marlin
;TIME:320
;Filament used: 0.146794m, 0m
;Layer height: 0.2
;MINX:96.25
;MINY:86.25
;MINZ:0.2
;MAXX:118.75
;MAXY:118.735
;MAXZ:5
;Generated with Cura_SteamEngine 4.11.0
M140 S40
M105
M190 S40
M104 S200
M105
M109 S200
M82 ;absolute extrusion mode
G21 ;metric values
G90 ;absolute positioning
M82 ;set extruder to absolute mode
M107 ;start with the fan off
G28 X0 Y0 ;move X/Y to min endstops
G28 Z0 ;move Z to min endstops
G1 Z15.0 F9000 ;move the platform down 15mm
G92 E0 ;zero the extruded length
G1 F200 E15 ;extrude 15mm of feed stock
G92 E0 ;zero the extruded length again
G1 F9000
;Put printing message on LCD screen
M117 Printing...
G92 E0
G92 E0
G1 F2100 E-5
;LAYER_COUNT:25G93 R50.0
;LAYER:0G93 R50.0
M107
M204 S1000
M205 X6 Y6
G1 F600 Z1.2
G0 F2666.7 X97.255 Y87.465 Z1.2
M205 X5 Y5
;TYPE:SKIRT
G1 F600 Z0.2
G1 F2100 E0
G1 F1200 X97.654 Y87.091 E0.01364
G1 X98.104 Y86.779 E0.0273
G1 X98.595 Y86.536 E0.04097
G1 X99.115 Y86.367 E0.05461
G1 X99.9 Y86.261 E0.07437
G1 X100.373 Y86.25 E0.08617
G1 X101.156 Y86.263 E0.1057
G1 X101.802 Y86.291 E0.12183
G1 X103.407 Y86.382 E0.16193
G1 X106.161 Y86.459 E0.23066
G1 X108.882 Y86.459 E0.29854
G1 X111.591 Y86.381 E0.36614
G1 X113.026 Y86.309 E0.40198
G1 X113.771 Y86.266 E0.4206
G1 X114.374 Y86.25 E0.43564
G1 X115.047 Y86.26 E0.45243
G1 X115.592 Y86.308 E0.46608
G1 X116.124 Y86.435 E0.47972
G1 X116.633 Y86.638 E0.49339
G1 X117.106 Y86.913 E0.50704
G1 X117.534 Y87.254 E0.52069
G1 X117.908 Y87.654 E0.53435
G1 X118.22 Y88.104 E0.54801
G1 X118.463 Y88.594 E0.56166
G1 X118.633 Y89.115 E0.57533
G1 X118.74 Y89.905 E0.59521
G1 X118.75 Y90.33 E0.60582
G1 X118.75 Y109.346 E1.08017
G1 X118.74 Y110.048 E1.09769
G1 X118.692 Y110.594 E1.11136
G1 X118.565 Y111.126 E1.125
G1 X118.363 Y111.635 E1.13866
G1 X118.088 Y112.108 E1.15231
G1 X117.747 Y112.537 E1.16598
G1 X117.179 Y113.04 E1.18491
G1 X116.503 Y113.526 E1.20568
G1 X115.528 Y114.206 E1.23533
G1 X113.352 Y115.816 E1.30285
G1 X111.722 Y117.085 E1.35438
G1 X111.199 Y117.502 E1.37107
G1 X110.989 Y117.66 E1.37762
G1 X110.527 Y117.953 E1.39127
G1 X109.839 Y118.265 E1.41012
G1 X109.575 Y118.373 E1.41723
G1 X109.053 Y118.54 E1.4309
G1 X108.736 Y118.602 E1.43896
G1 X108.24 Y118.677 E1.45147
G1 X107.949 Y118.713 E1.45879
G1 X107.402 Y118.735 E1.47244
G1 X106.623 Y118.659 E1.49197
G1 X106.359 Y118.623 E1.49861
G1 X105.824 Y118.507 E1.51227
G1 X105.042 Y118.214 E1.5331
G1 X104.788 Y118.107 E1.53998
G1 X104.303 Y117.854 E1.55362
G1 X103.654 Y117.391 E1.57351
G1 X102.865 Y116.77 E1.59856
G1 X100.701 Y115.111 E1.66657
G1 X98.978 Y113.864 E1.71963
G1 X97.837 Y113.051 E1.75458
G1 X97.416 Y112.702 E1.76822
G1 X97.049 Y112.295 E1.78189
G1 X96.747 Y111.839 E1.79553
G1 X96.513 Y111.344 E1.80919
G1 X96.354 Y110.82 E1.82285
G1 X96.263 Y110.056 E1.84204
G1 X96.25 Y109.234 E1.86255
G1 X96.25 Y90.618 E2.32693
G1 X96.26 Y89.953 E2.34352
G1 X96.309 Y89.407 E2.3572
G1 X96.436 Y88.875 E2.37084
G1 X96.639 Y88.367 E2.38449
G1 X96.914 Y87.893 E2.39816
G1 X97.255 Y87.465 E2.41181
M205 X6 Y6
G0 F2666.7 X97.549 Y87.591
M205 X5 Y5
G1 F1200 X97.944 Y87.246 E2.42489
G1 X98.388 Y86.964 E2.43801
G1 X98.868 Y86.753 E2.45109
G1 X99.376 Y86.618 E2.4642
G1 X99.909 Y86.56 E2.47758
G1 X100.369 Y86.55 E2.48905
G1 X101.144 Y86.563 E2.50839
G1 X101.785 Y86.591 E2.52439
G1 X103.382 Y86.682 E2.56429
G1 X106.152 Y86.759 E2.63342
G1 X108.855 Y86.759 E2.70085
G1 X111.615 Y86.68 E2.76972
G1 X113.069 Y86.607 E2.80604
G1 X113.788 Y86.566 E2.824
G1 X114.369 Y86.55 E2.8385
G1 X115.042 Y86.56 E2.85529
G1 X115.565 Y86.608 E2.86839
G1 X116.075 Y86.735 E2.8815
G1 X116.559 Y86.937 E2.89459
G1 X117.007 Y87.21 E2.90767
G1 X117.409 Y87.549 E2.92079
G1 X117.754 Y87.944 E2.93387
G1 X118.035 Y88.387 E2.94696
G1 X118.246 Y88.868 E2.96006
G1 X118.382 Y89.375 E2.97316
G1 X118.44 Y89.913 E2.98665
G1 X118.45 Y90.33 E2.99706
G1 X118.45 Y109.342 E3.47132
G1 X118.44 Y110.044 E3.48883
G1 X118.392 Y110.567 E3.50193
G1 X118.266 Y111.077 E3.51503
G1 X118.064 Y111.561 E3.52812
G1 X117.791 Y112.009 E3.5412
G1 X117.453 Y112.411 E3.55431
G1 X117.004 Y112.796 E3.56906
G1 X116.331 Y113.28 E3.58974
G1 X115.369 Y113.951 E3.619
G1 X113.132 Y115.606 E3.68841
G1 X111.568 Y116.824 E3.73786
G1 X111.012 Y117.267 E3.75559
G1 X110.811 Y117.419 E3.76188
G1 X110.134 Y117.81 E3.78138
G1 X109.632 Y118.027 E3.79502
G1 X109.463 Y118.095 E3.79957
G1 X108.962 Y118.253 E3.81267
G1 X108.691 Y118.305 E3.81956
G1 X108.072 Y118.397 E3.83517
G1 X107.915 Y118.415 E3.83911
G1 X107.133 Y118.415 E3.85861
G1 X106.564 Y118.349 E3.8729
G1 X106.401 Y118.326 E3.87701
G1 X105.888 Y118.213 E3.89011
G1 X105.152 Y117.935 E3.90974
G1 X104.907 Y117.832 E3.91637
G1 X104.442 Y117.588 E3.92947
G1 X103.832 Y117.149 E3.94822
G1 X103.745 Y117.083 E3.95094
G1 X103.051 Y116.535 E3.973
G1 X100.868 Y114.862 E4.04161
G1 X99.152 Y113.62 E4.09445
G1 X98.011 Y112.807 E4.1294
G1 X97.608 Y112.47 E4.1425
G1 X97.26 Y112.077 E4.15559
G1 X96.977 Y111.635 E4.16869
G1 X96.763 Y111.156 E4.18177
G1 X96.625 Y110.649 E4.19488
G1 X96.563 Y110.052 E4.20985
G1 X96.55 Y109.23 E4.23036
G1 X96.55 Y90.622 E4.69454
G1 X96.56 Y89.957 E4.71113
G1 X96.608 Y89.434 E4.72423
G1 X96.735 Y88.925 E4.73732
G1 X96.937 Y88.44 E4.75042
G1 X97.211 Y87.992 E4.76352
G1 X97.549 Y87.591 E4.77661
M205 X6 Y6
G0 F2666.7 X97.843 Y87.723
M205 X5 Y5
G1 F1200 X98.233 Y87.408 E4.78911
G1 X98.669 Y87.159 E4.80164
G1 X99.138 Y86.982 E4.81414
G1 X99.629 Y86.882 E4.82664
G1 X100.226 Y86.851 E4.84155
G1 X100.364 Y86.85 E4.84499
G1 X101.044 Y86.86 E4.86196
G1 X101.768 Y86.89 E4.88003
G1 X103.391 Y86.982 E4.92059
G1 X106.144 Y87.059 E4.98929
G1 X108.864 Y87.059 E5.05714
G1 X111.638 Y86.98 E5.12636
G1 X113.06 Y86.908 E5.16188
G1 X113.892 Y86.861 E5.18267
G1 X114.365 Y86.85 E5.19447
G1 X115.038 Y86.86 E5.21126
G1 X115.537 Y86.908 E5.22376
G1 X116.023 Y87.034 E5.23629
G1 X116.482 Y87.235 E5.24879
G1 X116.904 Y87.507 E5.26131
G1 X117.277 Y87.842 E5.27382
G1 X117.592 Y88.233 E5.28634
G1 X117.841 Y88.668 E5.29885
G1 X118.018 Y89.137 E5.31135
G1 X118.118 Y89.629 E5.32388
G1 X118.149 Y90.241 E5.33916
G1 X118.15 Y109.338 E5.81554
G1 X118.14 Y110.04 E5.83305
G1 X118.093 Y110.539 E5.84555
G1 X117.967 Y111.025 E5.85808
G1 X117.766 Y111.484 E5.87058
G1 X117.494 Y111.906 E5.8831
G1 X117.159 Y112.279 E5.89561
G1 X116.829 Y112.553 E5.90631
G1 X116.159 Y113.033 E5.92687
G1 X115.193 Y113.707 E5.95625
G1 X112.986 Y115.34 E6.02474
G1 X111.381 Y116.59 E6.07548
G1 X110.825 Y117.033 E6.09322
G1 X110.632 Y117.178 E6.09924
G1 X110.014 Y117.535 E6.11704
G1 X109.52 Y117.748 E6.13046
G1 X109.351 Y117.816 E6.135
G1 X108.646 Y118.009 E6.15324
G1 X108.15 Y118.084 E6.16575
G1 X107.881 Y118.116 E6.17251
G1 X107.167 Y118.117 E6.19032
G1 X106.606 Y118.052 E6.20441
G1 X106.443 Y118.029 E6.20851
G1 X105.725 Y117.839 E6.22704
G1 X105.172 Y117.619 E6.24189
G1 X105.026 Y117.556 E6.24585
G1 X104.402 Y117.197 E6.26381
G1 X103.931 Y116.847 E6.27845
G1 X103.254 Y116.313 E6.29996
G1 X101.052 Y114.625 E6.36917
G1 X99.326 Y113.375 E6.42233
G1 X98.185 Y112.562 E6.45728
G1 X97.801 Y112.24 E6.46978
G1 X97.473 Y111.86 E6.4823
G1 X97.21 Y111.433 E6.49481
G1 X97.017 Y110.97 E6.50732
G1 X96.901 Y110.482 E6.51984
G1 X96.863 Y110.047 E6.53073
G1 X96.85 Y109.225 E6.55124
G1 X96.85 Y90.627 E7.01517
G1 X96.86 Y89.962 E7.03176
G1 X96.908 Y89.462 E7.04429
G1 X97.034 Y88.977 E7.05679
G1 X97.235 Y88.517 E7.06931
G1 X97.507 Y88.096 E7.08181
G1 X97.843 Y87.723 E7.09433
M205 X6 Y6
G1 F2100 E2.09433
G1 F600 Z1.2
;MESH:dht_spacer.stl
G0 F2666.7 X110.555 Y111.05 Z1.2
M205 X5 Y5
;TYPE:WALL-INNER
G1 F600 Z0.2
G1 F2100 E7.09433
G1 F1200 X109.979 Y111.338 E7.1104
G1 X109.835 Y111.05 E7.11843
G1 X109.979 Y111.05 E7.11938
G1 X110.555 Y111.05 E7.12605
M205 X6 Y6
G0 F2666.7 X108.055 Y110.554
G0 X107.056 Y110.554
G0 X105.165 Y111.05
M205 X5 Y5
G1 F1200 X105.021 Y111.338 E7.13409
G1 X104.445 Y111.05 E7.15015
G1 X105.021 Y111.05 E7.15682
G1 X105.165 Y111.05 E7.15777
M205 X6 Y6
G0 F2666.7 X106.945 Y110.554
G0 X107.574 Y110.554
G0 X111.825 Y110.75
M205 X5 Y5
G1 F1200 X109.969 Y111.678 E7.20954
G1 X109.825 Y111.75 E7.21355
G1 X109.764 Y111.602 E7.21608
G1 X109.627 Y111.272 E7.22499
G1 X109.413 Y110.993 E7.23376
G1 X109.237 Y110.763 E7.24099
G1 X109.22 Y110.75 E7.24152
G1 X109.237 Y110.75
G1 X109.527 Y110.75 E7.24566
G1 X111.825 Y110.75 E7.30298
M205 X6 Y6
G0 F2666.7 X107.5 Y110.558
G0 X105.763 Y110.763
M205 X5 Y5
G1 F1200 X105.587 Y110.993 E7.31021
G1 X105.373 Y111.272 E7.31898
G1 X105.236 Y111.602 E7.32789
G1 X105.175 Y111.75 E7.33188
G1 X105.031 Y111.678 E7.33443
G1 X103.175 Y110.75 E7.38619
G1 X105.473 Y110.75 E7.44351
G1 X105.763 Y110.75 E7.44765
G1 X105.78 Y110.75 E7.44807
G1 X105.763 Y110.763 E7.44816
M205 X6 Y6
G0 F2666.7 X108.429 Y110.306
G0 X112.08 Y110.338
G0 X114.45 Y109.279
M205 X5 Y5
G1 F1200 X114.45 Y90.45 E7.91785
G1 X114.55 Y90.45 E7.92035
G1 X114.55 Y109.279 E8.07691
G1 X114.55 Y109.44 E8.08093
G1 X114.55 Y109.722 E8.08796
G1 X109.717 Y112.139 E8.22276
G1 X109.687 Y112.154 E8.22359
G1 X109.613 Y112.191 E8.22566
G1 X109.581 Y111.943 E8.22971
G1 X109.568 Y111.912 E8.23049
G1 X109.365 Y111.423 E8.24369
G1 X109.023 Y110.977 E8.25771
G1 X108.711 Y110.737 E8.26753
G1 X108.577 Y110.635 E8.27173
G1 X108.132 Y110.45 E8.28376
G1 X108.577 Y110.45 E8.28701
G1 X108.746 Y110.45 E8.29047
G1 X112.106 Y110.45 E8.37428
G1 X114.306 Y109.35 E8.43564
G1 X114.45 Y109.279 E8.43851
M205 X6 Y6
G0 F2666.7 X112.08 Y110.338
G0 X106.868 Y110.45
M205 X5 Y5
G1 F1200 X106.423 Y110.635 E8.45053
G1 X106.289 Y110.737 E8.45473
G1 X105.977 Y110.977 E8.46455
G1 X105.635 Y111.423 E8.47857
G1 X105.432 Y111.912 E8.49178
G1 X105.419 Y111.943 E8.49261
G1 X105.387 Y112.191 E8.49885
G1 X105.314 Y112.155
G1 X105.284 Y112.14 E8.49962
G1 X100.45 Y109.722 E8.63445
G1 X100.45 Y109.44 E8.64149
G1 X100.45 Y109.279 E8.6455
G1 X100.45 Y90.45 E9.11519
G1 X100.55 Y90.45 E9.11769
G1 X100.55 Y109.279 E9.27425
G1 X100.694 Y109.35 E9.27712
G1 X102.894 Y110.45 E9.33847
G1 X106.254 Y110.45 E9.42229
G1 X106.423 Y110.45 E9.42574
G1 X106.868 Y110.45 E9.429
M205 X6 Y6
G1 F2100 E4.429
G0 F2666.7 X112.08 Y110.338
G0 X114.234 Y109.258
G1 F2100 E9.429
G0 F2666.7 X114.2 Y109.124
M205 X5 Y5
;TYPE:WALL-OUTER
G1 F1200 X114.2 Y90.2 E9.90106
G1 X114.8 Y90.2 E9.91603
G1 X114.8 Y109.877 E10.40687
G1 X109.816 Y112.369 E10.54588
G1 X109.721 Y113.092 E10.56407
G1 X109.49 Y113.649 E10.57911
G1 X109.125 Y114.125 E10.59407
G1 X108.649 Y114.49 E10.60903
G1 X108.092 Y114.721 E10.62408
G1 X107.5 Y114.799 E10.63897
G1 X106.908 Y114.721 E10.65387
G1 X106.351 Y114.49 E10.66891
G1 X105.875 Y114.125 E10.68387
G1 X105.51 Y113.649 E10.69883
G1 X105.279 Y113.092 E10.71388
G1 X105.184 Y112.369 E10.73207
G1 X100.2 Y109.877 E10.87107
G1 X100.2 Y90.2 E11.36191
G1 X100.8 Y90.2 E11.37688
G1 X100.8 Y109.124 E11.84894
G1 X102.953 Y110.2 E11.90898
G1 X112.047 Y110.2 E12.13583
G1 X114.2 Y109.124 E12.19587
M205 X6 Y6
G0 F2666.7 X114.2 Y108.924
G1 F2100 E7.19587
G0 F2666.7 X114.3 Y108.924
G0 X109.799 Y112.227
G1 F2100 E12.19587
G0 F2666.7 X109.402 Y112.5
M205 X5 Y5
G1 F1200 X109.337 Y112.008 E12.20825
G1 X109.147 Y111.549 E12.22064
G1 X108.845 Y111.155 E12.23303
G1 X108.451 Y110.853 E12.24541
G1 X107.992 Y110.663 E12.2578
G1 X107.5 Y110.598 E12.27018
G1 X107.008 Y110.663 E12.28256
G1 X106.549 Y110.853 E12.29495
G1 X106.155 Y111.155 E12.30734
G1 X105.853 Y111.549 E12.31972
G1 X105.663 Y112.008 E12.33211
G1 X105.598 Y112.5 E12.34449
G1 X105.663 Y112.992 E12.35687
G1 X105.853 Y113.451 E12.36926
G1 X106.155 Y113.845 E12.38165
G1 X106.549 Y114.147 E12.39403
G1 X107.008 Y114.337 E12.40642
G1 X107.5 Y114.402 E12.4188
G1 X107.992 Y114.337 E12.43118
G1 X108.451 Y114.147 E12.44357
G1 X108.845 Y113.845 E12.45596
G1 X109.147 Y113.451 E12.46834
G1 X109.337 Y112.992 E12.48073
G1 X109.402 Y112.5 E12.49311
M205 X6 Y6
G0 F2666.7 X109.376 Y112.302
G0 X109.628 Y112.385
M104 S195
M205 X5 Y5
;TYPE:SKIN
G1 F1200 X109.59 Y112.56 E12.49563
G1 X109.439 Y113.257 E12.50567
G1 X109.128 Y113.795 E12.51441
G1 X108.572 Y114.3 E12.52498
G1 X107.961 Y114.537 E12.5342
G1 X107.368 Y114.581 E12.54257
G1 X106.836 Y114.473 E12.55021
G1 X106.373 Y114.222 E12.55762
M205 X6 Y6
G0 F2666.7 X105.776 Y113.624
M205 X5 Y5
G1 F1200 X105.524 Y113.161 E12.56779
G1 X105.394 Y112.394 E12.5828
M205 X6 Y6
G0 F2666.7 X105.309 Y112.309
G0 X105.904 Y113.965
M205 X5 Y5
G1 F1200 X106.033 Y114.094 E12.58507
M205 X6 Y6
G0 F2666.7 X105.201 Y112.227
G0 X103.025 Y110.874
G0 X102.801 Y110.65
M205 X5 Y5
G1 F1200 X102.376 Y110.437 E12.59524
G1 X101.104 Y109.802 E12.62566
G1 X100.737 Y109.647 E12.63418
M205 X6 Y6
G0 F2666.7 X100.569 Y109.479
G0 X102.932 Y110.569
M205 X5 Y5
G1 F1200 X103.075 Y110.712 E12.6367
M205 X6 Y6
G0 F2666.7 X106.558 Y110.57
G0 X111.904 Y110.631
G0 X111.996 Y110.724
M205 X5 Y5
G1 F1200 X112.143 Y110.658 E12.63963
G1 X114.136 Y109.681 E12.68003
G1 X114.386 Y109.507 E12.68558
M205 X6 Y6
G0 F2666.7 X114.4 Y109.394
G1 F2100 E7.68558
;MESH:NONMESH
G0 F600 X114.4 Y109.394 Z0.4
G0 F2666.7 X110.555 Y111.05
;TIME_ELAPSED:35.509659
;LAYER:1G93 R50.0
M106 S85
M205 X7.5 Y7.5
;TYPE:WALL-INNER
;MESH:dht_spacer.stl
G1 F2100 E12.68558
G1 F1620 X109.979 Y111.338 E12.70164
G1 X109.835 Y111.05 E12.70967
G1 X109.979 Y111.05 E12.71063
G1 X110.555 Y111.05 E12.7173
M204 S2000
M205 X18 Y18
G0 F4333.3 X108.055 Y110.554
G0 X107.056 Y110.554
G0 X105.165 Y111.05
M204 S1000
M205 X7.5 Y7.5
G1 F1620 X105.021 Y111.338 E12.72533
G1 X104.445 Y111.05 E12.74139
G1 X105.021 Y111.05 E12.74806
G1 X105.165 Y111.05 E12.74901
M204 S2000
M205 X18 Y18
G0 F4333.3 X106.945 Y110.554
G0 X107.574 Y110.554
G0 X111.825 Y110.75
M204 S1000
M205 X7.5 Y7.5
G1 F1620 X109.969 Y111.678 E12.80078
G1 X109.825 Y111.75 E12.80479
G1 X109.764 Y111.602 E12.80732
G1 X109.627 Y111.272 E12.81623
G1 X109.413 Y110.993 E12.825
G1 X109.237 Y110.763 E12.83223
G1 X109.22 Y110.75 E12.83276
G1 X109.237 Y110.75
G1 X109.527 Y110.75 E12.8369
G1 X111.825 Y110.75 E12.89422
M204 S2000
M205 X18 Y18
G0 F4333.3 X107.5 Y110.558
G0 X105.763 Y110.763
M204 S1000
M205 X7.5 Y7.5
G1 F1620 X105.587 Y110.993 E12.90145
G1 X105.373 Y111.272 E12.91022
G1 X105.236 Y111.602 E12.91913
G1 X105.175 Y111.75 E12.92313
G1 X105.031 Y111.678 E12.92567
G1 X103.175 Y110.75 E12.97743
G1 X105.473 Y110.75 E13.03475
G1 X105.763 Y110.75 E13.03889
G1 X105.78 Y110.75 E13.03932
G1 X105.763 Y110.763 E13.0394
M204 S2000
M205 X18 Y18
G0 F4333.3 X108.429 Y110.306
G0 X112.08 Y110.338
G0 X114.45 Y109.279
M204 S1000
M205 X7.5 Y7.5
G1 F1620 X114.45 Y90.45 E13.50909
G1 X114.55 Y90.45 E13.51159
G1 X114.55 Y109.279 E13.66815
G1 X114.55 Y109.44 E13.67217
G1 X114.55 Y109.722 E13.6792
G1 X109.717 Y112.139 E13.814
G1 X109.687 Y112.154 E13.81483
G1 X109.613 Y112.191 E13.8169
G1 X109.581 Y111.943 E13.82096
G1 X109.568 Y111.912 E13.82173
G1 X109.365 Y111.423 E13.83494
G1 X109.023 Y110.977 E13.84896
G1 X108.711 Y110.737 E13.85877
G1 X108.577 Y110.635 E13.86298
G1 X108.132 Y110.45 E13.875
G1 X108.577 Y110.45 E13.87826
G1 X108.746 Y110.45 E13.88171
G1 X112.106 Y110.45 E13.96552
G1 X114.306 Y109.35 E14.02688
G1 X114.45 Y109.279 E14.02975
M204 S2000
M205 X18 Y18
G0 F4333.3 X112.08 Y110.338
G0 X106.868 Y110.45
M204 S1000
M205 X7.5 Y7.5
G1 F1620 X106.423 Y110.635 E14.04177
G1 X106.289 Y110.737 E14.04597
G1 X105.977 Y110.977 E14.05579
G1 X105.635 Y111.423 E14.06981
G1 X105.432 Y111.912 E14.08302
G1 X105.419 Y111.943 E14.08386
G1 X105.387 Y112.191 E14.09009
G1 X105.314 Y112.155
G1 X105.284 Y112.14 E14.09086
G1 X100.45 Y109.722 E14.22569
G1 X100.45 Y109.44 E14.23273
G1 X100.45 Y109.279 E14.23674
G1 X100.45 Y90.45 E14.70643
G1 X100.55 Y90.45 E14.70893
