G93 R50.0;FLAVOR:Marlin
;TIME:8932
;Filament used: 4.83411m, 0m
;Layer height: 0.2
;MINX:80.749
;MINY:46.184
;MINZ:0.2
;MAXX:133.816
;MAXY:157.15
;MAXZ:28
;Generated with Cura_SteamEngine 4.11.0
M140 S40
M105
M190 S40
M104 S200
M105
M109 S200
M82 ;absolute extrusion mode
G21 ;metric values
G90 ;absolute positioning
M82 ;set extruder to absolute mode
M107 ;start with the fan off
G28 X0 Y0 ;move X/Y to min endstops
G28 Z0 ;move Z to min endstops
G1 Z15.0 F9000 ;move the platform down 15mm
G92 E0 ;zero the extruded length
G1 F200 E15 ;extrude 15mm of feed stock
G92 E0 ;zero the extruded length again
G1 F9000
;Put printing message on LCD screen
M117 Printing...
G92 E0
G92 E0
G1 F2100 E-5
;LAYER_COUNT:140G93 R50.0
;LAYER:0G93 R50.0
M107
M204 S1000
M205 X6 Y6
G1 F600 Z1.2
G0 F2666.7 X83.235 Y49.517 Z1.2
M205 X5 Y5
;TYPE:SKIRT
G1 F600 Z0.2
G1 F2100 E0
G1 F1200 X83.507 Y49.096 E0.0125
G1 X83.843 Y48.723 E0.02503
G1 X84.233 Y48.408 E0.03753
G1 X84.669 Y48.159 E0.05006
G1 X85.138 Y47.982 E0.06256
G1 X85.629 Y47.882 E0.07506
G1 X86.241 Y47.851 E0.09035
G1 X86.679 Y47.85 E0.10127
G1 X89.479 Y47.81 E0.17113
G1 X92.198 Y47.695 E0.23901
G1 X94.914 Y47.502 E0.30693
G1 X97.655 Y47.231 E0.37564
G1 X100.374 Y46.883 E0.44402
G1 X103.224 Y46.433 E0.516
G1 X104.362 Y46.238 E0.5448
G1 X105.125 Y46.185 E0.56388
G1 X109.458 Y46.184 E0.67196
G1 X110.168 Y46.195 E0.68968
G1 X110.723 Y46.251 E0.70359
G1 X113.236 Y46.681 E0.76719
G1 X115.958 Y47.068 E0.83577
G1 X118.664 Y47.375 E0.90371
G1 X121.414 Y47.609 E0.97255
G1 X124.133 Y47.762 E1.04049
G1 X128.17 Y47.848 E1.14121
G1 X129.035 Y47.86 E1.16279
G1 X129.534 Y47.907 E1.17529
G1 X130.02 Y48.033 E1.18782
G1 X130.479 Y48.234 E1.20032
G1 X130.901 Y48.505 E1.21283
G1 X131.274 Y48.84 E1.22534
G1 X131.59 Y49.23 E1.23786
G1 X131.84 Y49.665 E1.25037
G1 X132.017 Y50.134 E1.26288
G1 X132.117 Y50.626 E1.2754
G1 X132.149 Y51.241 E1.29076
G1 X132.15 Y114.179 E2.86076
G1 X132.19 Y116.979 E2.93061
G1 X132.305 Y119.698 E2.9985
G1 X132.498 Y122.414 E3.06642
G1 X132.769 Y125.155 E3.13513
G1 X133.117 Y127.874 E3.20351
G1 X133.569 Y130.739 E3.27586
G1 X133.76 Y131.847 E3.3039
G1 X133.815 Y132.619 E3.32321
G1 X133.816 Y136.954 E3.43135
G1 X133.806 Y137.656 E3.44886
G1 X133.761 Y138.143 E3.46106
G1 X133.289 Y140.896 E3.53074
G1 X132.913 Y143.539 E3.59733
G1 X132.601 Y146.278 E3.6661
G1 X132.366 Y149.029 E3.73497
G1 X132.212 Y151.741 E3.80273
G1 X132.156 Y153.673 E3.85095
G1 X132.137 Y154.124 E3.86221
G1 X132.076 Y154.621 E3.8747
G1 X131.937 Y155.103 E3.88721
G1 X131.723 Y155.557 E3.89973
G1 X131.44 Y155.971 E3.91224
G1 X131.095 Y156.335 E3.92475
G1 X130.696 Y156.639 E3.93726
G1 X130.254 Y156.876 E3.94977
G1 X129.78 Y157.04 E3.96229
G1 X129.079 Y157.14 E3.97995
G1 X128.67 Y157.15 E3.99015
G1 X86.666 Y157.15 E5.03795
G1 X85.968 Y157.141 E5.05536
G1 X85.469 Y157.094 E5.06786
G1 X84.983 Y156.969 E5.08038
G1 X84.523 Y156.769 E5.09289
G1 X84.101 Y156.498 E5.10541
G1 X83.728 Y156.163 E5.11791
G1 X83.412 Y155.773 E5.13043
G1 X83.162 Y155.339 E5.14293
G1 X82.984 Y154.87 E5.15544
G1 X82.883 Y154.378 E5.16797
G1 X82.851 Y153.743 E5.18383
G1 X82.85 Y149.045 E5.30102
G1 X82.81 Y146.242 E5.37095
G1 X82.695 Y143.52 E5.43891
G1 X82.502 Y140.808 E5.50673
G1 X82.231 Y138.069 E5.57539
G1 X81.881 Y135.338 E5.64407
G1 X81.459 Y132.648 E5.712
G1 X80.93 Y129.812 E5.78396
G1 X80.819 Y129.256 E5.7981
G1 X80.759 Y128.728 E5.81136
G1 X80.749 Y128.319 E5.82157
G1 X80.749 Y124.987 E5.90468
G1 X80.76 Y124.3 E5.92182
G1 X80.813 Y123.775 E5.93498
G1 X80.963 Y122.97 E5.95541
G1 X81.216 Y121.71 E5.98747
G1 X81.682 Y118.99 E6.05631
G1 X82.069 Y116.267 E6.12492
G1 X82.376 Y113.561 E6.19285
G1 X82.609 Y110.817 E6.26155
G1 X82.763 Y108.091 E6.32966
G1 X82.85 Y103.996 E6.43183
G1 X82.85 Y51.627 E7.73818
G1 X82.86 Y50.962 E7.75477
G1 X82.908 Y50.462 E7.7673
G1 X83.034 Y49.977 E7.7798
G1 X83.235 Y49.517 E7.79232
M205 X6 Y6
G1 F2100 E2.79232
G1 F600 Z1.2
G0 F2666.7 X105.034 Y49.484 Z1.2
M205 X5 Y5
;TYPE:SUPPORT
G1 F600 Z0.2
G1 F2100 E7.79232
G1 F1200 X109.966 Y49.484 E7.91535
G1 X109.966 Y50.2 E7.93321
G1 X105.034 Y50.2 E8.05624
G1 X105.034 Y49.484 E8.0741
M205 X6 Y6
G1 F2100 E3.0741
G1 F600 Z1.2
G0 F2666.7 X106.5 Y49.604 Z1.2
M205 X5 Y5
G1 F600 Z0.2
G1 F2100 E8.0741
G1 F1200 X106.5 Y50.08 E8.08598
M205 X6 Y6
G1 F2100 E3.08598
G1 F600 Z1.2
G0 F2666.7 X108 Y50.08 Z1.2
M205 X5 Y5
G1 F600 Z0.2
G1 F2100 E8.08598
G1 F1200 X108 Y49.604 E8.09785
M205 X6 Y6
G1 F2100 E3.09785
G1 F600 Z1.2
G0 F2666.7 X109.5 Y49.604 Z1.2
M205 X5 Y5
G1 F600 Z0.2
G1 F2100 E8.09785
G1 F1200 X109.5 Y50.08 E8.10972
M205 X6 Y6
G1 F2100 E3.10972
G1 F600 Z1.2
G0 F2666.7 X85.2 Y124.499 Z1.2
M205 X5 Y5
G1 F600 Z0.2
G1 F2100 E8.10972
G1 F1200 X85.2 Y128.501 E8.20955
G1 X84.049 Y128.501 E8.23827
G1 X84.049 Y124.499 E8.3381
G1 X85.2 Y124.499 E8.36681
M205 X6 Y6
G1 F2100 E3.36681
G1 F600 Z1.2
G0 F2666.7 X85.079 Y126 Z1.2
M205 X5 Y5
G1 F600 Z0.2
G1 F2100 E8.36681
G1 F1200 X84.168 Y126 E8.38953
M205 X6 Y6
G1 F2100 E3.38953
G1 F600 Z1.2
G0 F2666.7 X84.168 Y127.5 Z1.2
M205 X5 Y5
G1 F600 Z0.2
G1 F2100 E8.38953
G1 F1200 X85.079 Y127.5 E8.41226
M205 X6 Y6
G1 F2100 E3.41226
G1 F600 Z1.2
G0 F2666.7 X129.8 Y132.534 Z1.2
M205 X5 Y5
G1 F600 Z0.2
G1 F2100 E8.41226
G1 F1200 X130.516 Y132.534 E8.43012
G1 X130.516 Y137.466 E8.55315
G1 X129.8 Y137.466 E8.57101
G1 X129.8 Y132.534 E8.69404
M205 X6 Y6
G0 F2666.7 X129.919 Y133.5
M205 X5 Y5
G1 F1200 X130.395 Y133.5 E8.70591
M205 X6 Y6
G1 F2100 E3.70591
G1 F600 Z1.2
G0 F2666.7 X130.395 Y135 Z1.2
M205 X5 Y5
G1 F600 Z0.2
G1 F2100 E8.70591
G1 F1200 X129.919 Y135 E8.71778
M205 X6 Y6
G1 F2100 E3.71778
G1 F600 Z1.2
G0 F2666.7 X129.919 Y136.5 Z1.2
M205 X5 Y5
G1 F600 Z0.2
G1 F2100 E8.71778
G1 F1200 X130.395 Y136.5 E8.72966
M205 X6 Y6
G1 F2100 E3.72966
G1 F600 Z1.2
;MESH:top_v9_alt.stl
G0 F2666.7 X127.05 Y108.083 Z1.2
M205 X5 Y5
;TYPE:WALL-INNER
G1 F600 Z0.2
G1 F2100 E8.72966
G1 F1200 X127.05 Y52.95 E10.10496
G1 X87.95 Y52.95 E11.08031
G1 X87.95 Y108.083 E12.45561
G1 X127.05 Y108.083 E13.43096
M205 X6 Y6
G0 F2666.7 X115.05 Y115.95
M205 X5 Y5
G1 F1200 X105.05 Y115.95 E13.68041
G1 X105.05 Y109.95 E13.83008
G1 X87.95 Y109.95 E14.25664
G1 X87.95 Y120.05 E14.50859
G1 X104.95 Y120.05 E14.93266
G1 X104.95 Y128.05 E15.13222
G1 X115.05 Y128.05 E15.38416
G1 X115.05 Y115.95 E15.686
M205 X6 Y6
G0 F2666.7 X114.328 Y127.328
G0 X105.05 Y141.95
M205 X5 Y5
G1 F1200 X87.95 Y141.95 E16.11256
G1 X87.95 Y152.05 E16.36451
G1 X105.05 Y152.05 E16.79107
G1 X105.05 Y141.95 E17.04301
M205 X6 Y6
G0 F2666.7 X127.95 Y152.95
M205 X5 Y5
G1 F1200 X87.05 Y152.95 E18.06327
G1 X87.05 Y52.05 E20.58023
G1 X127.95 Y52.05 E21.60048
G1 X127.95 Y152.95 E24.11744
M205 X6 Y6
G0 F2666.7 X126.75 Y107.783
M205 X5 Y5
G1 F1200 X126.75 Y53.25 E25.47777
G1 X88.25 Y53.25 E26.43816
G1 X88.25 Y107.783 E27.79849
G1 X126.75 Y107.783 E28.75888
M205 X6 Y6
G0 F2666.7 X114.75 Y116.25
M205 X5 Y5
G1 F1200 X105.25 Y116.25 E28.99586
G1 X105.25 Y127.75 E29.28273
G1 X114.75 Y127.75 E29.5197
G1 X114.75 Y116.25 E29.80657
M205 X6 Y6
G0 F2666.7 X104.75 Y110.25
M205 X5 Y5
G1 F1200 X88.25 Y110.25 E30.21817
G1 X88.25 Y119.75 E30.45515
G1 X104.75 Y119.75 E30.86674
G1 X104.75 Y110.25 E31.10372
M205 X6 Y6
G0 F2666.7 X104.75 Y142.25
M205 X5 Y5
G1 F1200 X88.25 Y142.25 E31.51531
G1 X88.25 Y151.75 E31.75229
G1 X104.75 Y151.75 E32.16389
G1 X104.75 Y142.25 E32.40086
M205 X6 Y6
G0 F2666.7 X128.25 Y153.25
M205 X5 Y5
G1 F1200 X86.75 Y153.25 E33.43609
G1 X86.75 Y51.75 E35.96801
G1 X128.25 Y51.75 E37.00323
G1 X128.25 Y153.25 E39.53516
M205 X6 Y6
G0 F2666.7 X126.45 Y103.484
M205 X5 Y5
G1 F1200 X126.45 Y99.584 E39.63245
G1 X88.55 Y99.584 E40.57787
G1 X88.55 Y103.483 E40.67513
G1 X126.45 Y103.484 E41.62055
M205 X6 Y6
G0 F2666.7 X126.45 Y103.584
M205 X5 Y5
G1 F1200 X88.55 Y103.584 E41.93726
G1 X88.55 Y107.483 E42.03452
G1 X126.45 Y107.483 E42.97994
G1 X126.45 Y103.584 E43.0772
M205 X6 Y6
G0 F2666.7 X126.45 Y99.484
M205 X5 Y5
G1 F1200 X126.45 Y95.584 E43.17449
G1 X88.55 Y95.584 E44.11991
G1 X88.55 Y99.483 E44.21717
G1 X126.45 Y99.484 E44.53389
M205 X6 Y6
G0 F2666.7 X126.45 Y95.484
M205 X5 Y5
G1 F1200 X126.45 Y91.584 E44.63117
G1 X88.55 Y91.584 E45.57659
G1 X88.55 Y95.483 E45.67385
G1 X126.45 Y95.484 E45.99057
M205 X6 Y6
G0 F2666.7 X126.45 Y91.484
M205 X5 Y5
G1 F1200 X126.45 Y87.584 E46.08785
G1 X88.55 Y87.583 E47.03327
G1 X88.55 Y91.483 E47.13056
G1 X126.45 Y91.484 E47.44727
M205 X6 Y6
G0 F2666.7 X126.45 Y87.483
M205 X5 Y5
G1 F1200 X126.45 Y83.584 E47.54454
G1 X88.55 Y83.583 E48.48995
G1 X88.55 Y87.483 E48.58724
G1 X126.45 Y87.483 E48.90396
M205 X6 Y6
G0 F2666.7 X126.45 Y83.483
M205 X5 Y5
G1 F1200 X126.45 Y79.584 E49.00122
G1 X88.55 Y79.583 E49.94664
G1 X88.55 Y83.483 E50.04392
G1 X126.45 Y83.483 E50.36064
M205 X6 Y6
G0 F2666.7 X126.45 Y79.483
M205 X5 Y5
G1 F1200 X126.45 Y75.584 E50.4579
G1 X88.55 Y75.583 E51.40332
G1 X88.55 Y79.483 E51.5006
G1 X126.45 Y79.483 E51.81732
M205 X6 Y6
G0 F2666.7 X126.45 Y75.483
M205 X5 Y5
G1 F1200 X126.45 Y71.584 E51.91458
G1 X88.55 Y71.583 E52.86
G1 X88.55 Y75.483 E52.95729
G1 X126.45 Y75.483 E53.274
M205 X6 Y6
G0 F2666.7 X126.45 Y71.483
M205 X5 Y5
G1 F1200 X126.45 Y67.584 E53.37126
G1 X88.55 Y67.584 E54.31668
G1 X88.55 Y71.483 E54.41394
G1 X126.45 Y71.483 E54.73066
M205 X6 Y6
G0 F2666.7 X126.45 Y67.484
M205 X5 Y5
G1 F1200 X126.45 Y63.584 E54.82794
G1 X88.55 Y63.584 E55.77336
G1 X88.55 Y67.483 E55.87062
G1 X126.45 Y67.484 E56.18734
M205 X6 Y6
G0 F2666.7 X126.45 Y63.484
M205 X5 Y5
G1 F1200 X126.45 Y59.584 E56.28463
G1 X88.55 Y59.583 E57.23004
G1 X88.55 Y63.483 E57.32733
G1 X126.45 Y63.484 E57.64405
M205 X6 Y6
G0 F2666.7 X126.45 Y59.483
M205 X5 Y5
G1 F1200 X126.45 Y55.584 E57.74131
G1 X88.55 Y55.584 E58.68673
G1 X88.55 Y59.483 E58.78399
G1 X126.45 Y59.483 E59.1007
M205 X6 Y6
G0 F2666.7 X126.45 Y55.484
M205 X5 Y5
G1 F1200 X126.45 Y55.334 E59.10444
G1 X126.45 Y53.55 E59.14895
G1 X88.55 Y53.55 E60.09437
G1 X88.55 Y55.483 E60.14259
G1 X126.3 Y55.484 E61.08426
G1 X126.45 Y55.484 E61.08668
M205 X6 Y6
G0 F2666.7 X126.328 Y103.262
G0 X88.672 Y103.806
G0 X88.672 Y107.361
G0 X104.45 Y110.55
M205 X5 Y5
G1 F1200 X88.55 Y110.55 E61.48331
G1 X88.55 Y119.45 E61.70532
G1 X104.45 Y119.45 E62.10195
G1 X104.45 Y110.55 E62.32396
M205 X6 Y6
G0 F2666.7 X114.45 Y116.55
M205 X5 Y5
G1 F1200 X105.55 Y116.55 E62.54597
G1 X105.55 Y127.45 E62.81787
G1 X114.45 Y127.45 E63.03988
G1 X114.45 Y116.55 E63.31179
M205 X6 Y6
G0 F2666.7 X114.328 Y127.328
G0 X104.45 Y142.55
M205 X5 Y5
G1 F1200 X88.55 Y142.55 E63.70841
G1 X88.55 Y151.45 E63.93042
G1 X104.45 Y151.45 E64.32705
G1 X104.45 Y142.55 E64.54906
M205 X6 Y6
G0 F2666.7 X128.55 Y153.55
M205 X5 Y5
G1 F1200 X86.45 Y153.55 E65.59925
G1 X86.45 Y51.45 E68.14615
G1 X128.55 Y51.45 E69.19633
G1 X128.55 Y153.55 E71.74323
M205 X6 Y6
G1 F2100 E66.74323
G0 F2666.7 X126.328 Y103.806
G1 F2100 E71.74323
G0 F2666.7 X126.2 Y103.234
M205 X5 Y5
;TYPE:WALL-OUTER
G1 F1200 X126.2 Y103.084 E71.74697
G1 X126.2 Y99.834 E71.82804
G1 X88.8 Y99.834 E72.76099
G1 X88.8 Y103.233 E72.84578
G1 X126.05 Y103.234 E73.77498
G1 X126.2 Y103.234 E73.7774
M205 X6 Y6
G0 F2666.7 X126.2 Y103.084
G0 X126.2 Y103.034
G1 F2100 E68.7774
G0 F2666.7 X126.2 Y103.834
M205 X5 Y5
G1 F2100 E73.7774
G1 F1200 X88.8 Y103.834 E74.71035
G1 X88.8 Y107.233 E74.79514
G1 X126.2 Y107.233 E75.72808
G1 X126.2 Y103.834 E75.81287
M205 X6 Y6
G0 F2666.7 X126 Y103.834
G1 F2100 E70.81287
G0 F2666.7 X126 Y103.734
G0 X126.328 Y99.806
G1 F2100 E75.81287
G0 F2666.7 X126.2 Y99.234
M205 X5 Y5
G1 F1200 X126.2 Y99.084 E75.81662
G1 X126.2 Y95.834 E75.89769
G1 X88.8 Y95.834 E76.83063
G1 X88.8 Y99.233 E76.91542
G1 X126.05 Y99.234 E77.84463
G1 X126.2 Y99.234 E77.84705
M205 X6 Y6
G0 F2666.7 X126.2 Y99.084
G0 X126.2 Y99.034
G1 F2100 E72.84705
G0 F2666.7 X126.4 Y99.034
G0 X126.328 Y95.806
G1 F2100 E77.84705
G0 F2666.7 X126.2 Y95.234
M205 X5 Y5
G1 F1200 X126.2 Y95.084 E77.85079
G1 X126.2 Y91.834 E77.93186
G1 X88.8 Y91.834 E78.86481
G1 X88.8 Y95.233 E78.94959
G1 X126.05 Y95.234 E79.8788
G1 X126.2 Y95.234 E79.88122
M205 X6 Y6
G0 F2666.7 X126.2 Y95.084
G0 X126.2 Y95.034
G1 F2100 E74.88122
G0 F2666.7 X126.4 Y95.034
G0 X126.328 Y91.806
G1 F2100 E79.88122
G0 F2666.7 X126.2 Y91.234
M205 X5 Y5
G1 F1200 X126.2 Y91.084 E79.88496
G1 X126.2 Y87.834 E79.96603
G1 X88.95 Y87.833 E80.89524
G1 X88.8 Y87.833 E80.89898
G1 X88.8 Y87.983 E80.9014
G1 X88.8 Y91.233 E80.98247
G1 X126.05 Y91.234 E81.91168
G1 X126.2 Y91.234 E81.9141
M205 X6 Y6
G0 F2666.7 X126.2 Y91.084
G0 X126.2 Y91.034
G1 F2100 E76.9141
G0 F2666.7 X126.4 Y91.034
G0 X126.328 Y87.806
G1 F2100 E81.9141
G0 F2666.7 X126.2 Y87.233
M205 X5 Y5
G1 F1200 X126.2 Y83.834 E81.99888
G1 X88.95 Y83.833 E82.92809
G1 X88.8 Y83.833 E82.93183
G1 X88.8 Y83.983 E82.93425
G1 X88.8 Y87.233 E83.01532
G1 X126.2 Y87.233 E83.94827
M205 X6 Y6
G0 F2666.7 X126.2 Y87.033
G1 F2100 E78.94827
G0 F2666.7 X126.4 Y87.033
G0 X126.328 Y83.806
G1 F2100 E83.94827
G0 F2666.7 X126.2 Y83.233
M205 X5 Y5
G1 F1200 X126.2 Y79.834 E84.03306
G1 X88.95 Y79.833 E84.96226
G1 X88.8 Y79.833 E84.966
G1 X88.8 Y79.983 E84.96842
G1 X88.8 Y83.233 E85.0495
G1 X126.2 Y83.233 E85.98244
M205 X6 Y6
G0 F2666.7 X126.2 Y83.033
G1 F2100 E80.98244
G0 F2666.7 X126.4 Y83.033
G0 X126.328 Y79.806
G1 F2100 E85.98244
G0 F2666.7 X126.2 Y79.233
M205 X5 Y5
G1 F1200 X126.2 Y75.834 E86.06723
G1 X88.95 Y75.833 E86.99644
G1 X88.8 Y75.833 E87.00018
G1 X88.8 Y75.983 E87.0026
G1 X88.8 Y79.233 E87.08367
G1 X126.2 Y79.233 E88.01662
M205 X6 Y6
G0 F2666.7 X126.2 Y79.033
G1 F2100 E83.01662
G0 F2666.7 X126.4 Y79.033
G0 X126.328 Y75.806
G1 F2100 E88.01662
G0 F2666.7 X126.2 Y75.233
M205 X5 Y5
G1 F1200 X126.2 Y71.834 E88.1014
G1 X88.95 Y71.833 E89.03061
G1 X88.8 Y71.833 E89.03435
G1 X88.8 Y71.983 E89.03677
G1 X88.8 Y75.233 E89.11784
G1 X126.2 Y75.233 E90.05079
M205 X6 Y6
G0 F2666.7 X126.2 Y75.033
G1 F2100 E85.05079
G0 F2666.7 X126.4 Y75.033
G0 X126.328 Y71.806
G1 F2100 E90.05079
G0 F2666.7 X126.2 Y71.233
M205 X5 Y5
G1 F1200 X126.2 Y67.834 E90.13558
G1 X88.8 Y67.834 E91.06852
G1 X88.8 Y71.233 E91.15331
G1 X126.2 Y71.233 E92.08626
M205 X6 Y6
G0 F2666.7 X126.2 Y71.033
G1 F2100 E87.08626
G0 F2666.7 X126.4 Y71.033
G0 X126.328 Y67.806
G1 F2100 E92.08626
G0 F2666.7 X126.2 Y67.234
M205 X5 Y5
G1 F1200 X126.2 Y67.084 E92.09
G1 X126.2 Y63.834 E92.17107
G1 X88.8 Y63.834 E93.10402
G1 X88.8 Y67.233 E93.18881
G1 X126.05 Y67.234 E94.11801
G1 X126.2 Y67.234 E94.12043
M205 X6 Y6
G0 F2666.7 X126.2 Y67.084
G0 X126.2 Y67.034
G1 F2100 E89.12043
G0 F2666.7 X126.4 Y67.034
G0 X126.328 Y63.806
G1 F2100 E94.12043
G0 F2666.7 X126.2 Y63.234
M205 X5 Y5
G1 F1200 X126.2 Y63.084 E94.12417
G1 X126.2 Y59.834 E94.20525
G1 X88.95 Y59.833 E95.13445
G1 X88.8 Y59.833 E95.13819
G1 X88.8 Y59.983 E95.14061
G1 X88.8 Y63.233 E95.22168
G1 X126.05 Y63.234 E96.15089
G1 X126.2 Y63.234 E96.15331
M205 X6 Y6
G0 F2666.7 X126.2 Y63.084
G0 X126.2 Y63.034
G1 F2100 E91.15331
G0 F2666.7 X126.4 Y63.034
G0 X126.328 Y59.806
G1 F2100 E96.15331
G0 F2666.7 X126.2 Y59.233
M205 X5 Y5
G1 F1200 X126.2 Y55.834 E96.2381
G1 X88.8 Y55.834 E97.17104
G1 X88.8 Y59.233 E97.25583
G1 X126.2 Y59.233 E98.18878
M205 X6 Y6
G0 F2666.7 X126.2 Y59.033
G1 F2100 E93.18878
G0 F2666.7 X126.4 Y59.033
G0 X126.328 Y55.806
G1 F2100 E98.18878
G0 F2666.7 X126.2 Y55.234
M205 X5 Y5
G1 F1200 X126.2 Y55.084 E98.19252
G1 X126.2 Y53.8 E98.22455
G1 X88.8 Y53.8 E99.1575
G1 X88.8 Y55.233 E99.19324
G1 X126.05 Y55.234 E100.12245
G1 X126.2 Y55.234 E100.12487
M205 X6 Y6
G0 F2666.7 X126.2 Y55.084
G0 X126.2 Y55.034
G1 F2100 E95.12487
G0 F2666.7 X126.4 Y55.034
G0 X126.328 Y103.262
G0 X88.672 Y103.806
