G93 R50.0;FLAVOR:Marlin
;TIME:8597
;Filament used: 4.81242m, 0m
;Layer height: 0.2
;MINX:80.749
;MINY:46.184
;MINZ:0.2
;MAXX:133.444
;MAXY:157.15
;MAXZ:28
;Generated with Cura_SteamEngine 4.11.0
M140 S40
M105
M190 S40
M104 S200
M105
M109 S200
M82 ;absolute extrusion mode
G21 ;metric values
G90 ;absolute positioning
M82 ;set extruder to absolute mode
M107 ;start with the fan off
G28 X0 Y0 ;move X/Y to min endstops
G28 Z0 ;move Z to min endstops
G1 Z15.0 F9000 ;move the platform down 15mm
G92 E0 ;zero the extruded length
G1 F200 E15 ;extrude 15mm of feed stock
G92 E0 ;zero the extruded length again
G1 F9000
;Put printing message on LCD screen
M117 Printing...
G92 E0
G92 E0
G1 F2100 E-5
;LAYER_COUNT:140G93 R50.0
;LAYER:0G93 R50.0
M107
M204 S1000
M205 X6 Y6
G1 F600 Z1.2
G0 F2666.7 X83.235 Y49.517 Z1.2
M205 X5 Y5
;TYPE:SKIRT
G1 F600 Z0.2
G1 F2100 E0
G1 F1200 X83.507 Y49.096 E0.0125
G1 X83.843 Y48.723 E0.02503
G1 X84.233 Y48.408 E0.03753
G1 X84.669 Y48.159 E0.05006
G1 X85.138 Y47.982 E0.06256
G1 X85.629 Y47.882 E0.07506
G1 X86.241 Y47.851 E0.09035
G1 X86.679 Y47.85 E0.10127
G1 X89.479 Y47.81 E0.17113
G1 X92.198 Y47.695 E0.23901
G1 X94.914 Y47.502 E0.30693
G1 X97.655 Y47.231 E0.37564
G1 X100.374 Y46.883 E0.44402
G1 X103.224 Y46.433 E0.516
G1 X104.362 Y46.238 E0.5448
G1 X105.125 Y46.185 E0.56388
G1 X109.458 Y46.184 E0.67196
G1 X110.168 Y46.195 E0.68968
G1 X110.723 Y46.251 E0.70359
G1 X113.236 Y46.681 E0.76719
G1 X115.958 Y47.068 E0.83577
G1 X118.664 Y47.375 E0.90371
G1 X121.414 Y47.609 E0.97255
G1 X124.133 Y47.762 E1.04049
G1 X128.17 Y47.848 E1.14121
G1 X129.035 Y47.86 E1.16279
G1 X129.534 Y47.907 E1.17529
G1 X130.02 Y48.033 E1.18782
G1 X130.479 Y48.234 E1.20032
G1 X130.901 Y48.505 E1.21283
G1 X131.274 Y48.84 E1.22534
G1 X131.59 Y49.23 E1.23786
G1 X131.84 Y49.665 E1.25037
G1 X132.017 Y50.134 E1.26288
G1 X132.117 Y50.626 E1.2754
G1 X132.149 Y51.241 E1.29076
G1 X132.15 Y116.707 E2.92382
G1 X132.19 Y119.507 E2.99367
G1 X132.305 Y122.226 E3.06156
G1 X132.498 Y124.942 E3.12948
G1 X132.769 Y127.683 E3.19819
G1 X133.118 Y130.407 E3.26669
G1 X133.25 Y131.25 E3.28798
G1 X133.402 Y132.307 E3.31462
G1 X133.443 Y132.991 E3.33171
G1 X133.444 Y136.586 E3.42139
G1 X133.433 Y137.298 E3.43915
G1 X133.324 Y138.19 E3.46157
G1 X132.939 Y140.883 E3.52943
G1 X132.628 Y143.62 E3.59814
G1 X132.394 Y146.362 E3.66679
G1 X132.239 Y149.083 E3.73478
G1 X132.16 Y151.847 E3.80375
G1 X132.15 Y153.312 E3.8403
G1 X132.139 Y154.039 E3.85843
G1 X132.091 Y154.538 E3.87094
G1 X131.965 Y155.023 E3.88344
G1 X131.763 Y155.483 E3.89597
G1 X131.491 Y155.904 E3.90848
G1 X131.156 Y156.277 E3.92098
G1 X130.766 Y156.592 E3.93349
G1 X130.33 Y156.841 E3.94601
G1 X129.861 Y157.018 E3.95852
G1 X129.369 Y157.118 E3.97104
G1 X128.759 Y157.149 E3.98628
G1 X86.666 Y157.15 E5.03629
G1 X85.968 Y157.141 E5.0537
G1 X85.469 Y157.094 E5.06621
G1 X84.983 Y156.969 E5.07872
G1 X84.523 Y156.769 E5.09124
G1 X84.101 Y156.498 E5.10375
G1 X83.728 Y156.163 E5.11625
G1 X83.412 Y155.773 E5.12877
G1 X83.162 Y155.339 E5.14127
G1 X82.984 Y154.87 E5.15378
G1 X82.883 Y154.378 E5.16631
G1 X82.851 Y153.743 E5.18217
G1 X82.85 Y149.045 E5.29936
G1 X82.81 Y146.245 E5.36922
G1 X82.695 Y143.526 E5.4371
G1 X82.502 Y140.809 E5.50505
G1 X82.231 Y138.069 E5.57373
G1 X81.881 Y135.338 E5.64242
G1 X81.459 Y132.648 E5.71034
G1 X80.93 Y129.812 E5.7823
G1 X80.819 Y129.256 E5.79645
G1 X80.759 Y128.728 E5.8097
G1 X80.749 Y128.321 E5.81986
G1 X80.749 Y124.987 E5.90302
G1 X80.76 Y124.3 E5.92016
G1 X80.813 Y123.775 E5.93333
G1 X80.963 Y122.97 E5.95375
G1 X81.216 Y121.71 E5.98581
G1 X81.682 Y118.99 E6.05465
G1 X82.069 Y116.267 E6.12326
G1 X82.376 Y113.561 E6.19119
G1 X82.609 Y110.817 E6.25989
G1 X82.763 Y108.091 E6.328
G1 X82.85 Y103.996 E6.43017
G1 X82.85 Y51.627 E7.73652
G1 X82.86 Y50.962 E7.75311
G1 X82.908 Y50.462 E7.76564
G1 X83.034 Y49.977 E7.77814
G1 X83.235 Y49.517 E7.79066
M205 X6 Y6
G1 F2100 E2.79066
G1 F600 Z1.2
G0 F2666.7 X105.034 Y49.484 Z1.2
M205 X5 Y5
;TYPE:SUPPORT
G1 F600 Z0.2
G1 F2100 E7.79066
G1 F1200 X109.966 Y49.484 E7.91369
G1 X109.966 Y50.2 E7.93155
G1 X105.034 Y50.2 E8.05458
G1 X105.034 Y49.484 E8.07244
M205 X6 Y6
G1 F2100 E3.07244
G1 F600 Z1.2
G0 F2666.7 X106.5 Y49.604 Z1.2
M205 X5 Y5
G1 F600 Z0.2
G1 F2100 E8.07244
G1 F1200 X106.5 Y50.08 E8.08432
M205 X6 Y6
G1 F2100 E3.08432
G1 F600 Z1.2
G0 F2666.7 X108 Y50.08 Z1.2
M205 X5 Y5
G1 F600 Z0.2
G1 F2100 E8.08432
G1 F1200 X108 Y49.604 E8.09619
M205 X6 Y6
G1 F2100 E3.09619
G1 F600 Z1.2
G0 F2666.7 X109.5 Y49.604 Z1.2
M205 X5 Y5
G1 F600 Z0.2
G1 F2100 E8.09619
G1 F1200 X109.5 Y50.08 E8.10806
M205 X6 Y6
G1 F2100 E3.10806
G1 F600 Z1.2
G0 F2666.7 X85.2 Y124.499 Z1.2
M205 X5 Y5
G1 F600 Z0.2
G1 F2100 E8.10806
G1 F1200 X85.2 Y128.501 E8.20789
G1 X84.049 Y128.501 E8.23661
G1 X84.049 Y124.499 E8.33644
G1 X85.2 Y124.499 E8.36515
M205 X6 Y6
G1 F2100 E3.36515
G1 F600 Z1.2
G0 F2666.7 X85.079 Y126 Z1.2
M205 X5 Y5
G1 F600 Z0.2
G1 F2100 E8.36515
G1 F1200 X84.168 Y126 E8.38787
M205 X6 Y6
G1 F2100 E3.38787
G1 F600 Z1.2
G0 F2666.7 X84.168 Y127.5 Z1.2
M205 X5 Y5
G1 F600 Z0.2
G1 F2100 E8.38787
G1 F1200 X85.079 Y127.5 E8.4106
M205 X6 Y6
G1 F2100 E3.4106
G1 F600 Z1.2
G0 F2666.7 X129.8 Y132.906 Z1.2
M205 X5 Y5
G1 F600 Z0.2
G1 F2100 E8.4106
G1 F1200 X130.144 Y132.906 E8.41918
G1 X130.144 Y137.094 E8.52365
G1 X129.8 Y137.094 E8.53223
G1 X129.8 Y132.906 E8.6367
M205 X6 Y6
G0 F2666.7 X129.919 Y133.5
M205 X5 Y5
G1 F1200 X130.023 Y133.5 E8.6393
M205 X6 Y6
G1 F2100 E3.6393
G1 F600 Z1.2
G0 F2666.7 X130.023 Y135 Z1.2
M205 X5 Y5
G1 F600 Z0.2
G1 F2100 E8.6393
G1 F1200 X129.919 Y135 E8.64189
M205 X6 Y6
G1 F2100 E3.64189
G1 F600 Z1.2
G0 F2666.7 X129.919 Y136.5 Z1.2
M205 X5 Y5
G1 F600 Z0.2
G1 F2100 E8.64189
G1 F1200 X130.023 Y136.5 E8.64448
M205 X6 Y6
G1 F2100 E3.64448
G1 F600 Z1.2
;MESH:top_v9.stl
G0 F2666.7 X127.05 Y108.083 Z1.2
M205 X5 Y5
;TYPE:WALL-INNER
G1 F600 Z0.2
G1 F2100 E8.64448
G1 F1200 X127.05 Y52.95 E10.01978
G1 X87.95 Y52.95 E10.99514
G1 X87.95 Y108.083 E12.37043
G1 X127.05 Y108.083 E13.34579
M205 X6 Y6
G0 F2666.7 X115.05 Y115.95
M205 X5 Y5
G1 F1200 X105.05 Y115.95 E13.59524
G1 X105.05 Y109.95 E13.74491
G1 X87.95 Y109.95 E14.17147
G1 X87.95 Y120.05 E14.42342
G1 X104.95 Y120.05 E14.84748
G1 X104.95 Y128.05 E15.04704
G1 X115.05 Y128.05 E15.29899
G1 X115.05 Y115.95 E15.60082
M205 X6 Y6
G0 F2666.7 X114.328 Y127.328
G0 X105.05 Y141.95
M205 X5 Y5
G1 F1200 X87.95 Y141.95 E16.02739
G1 X87.95 Y152.05 E16.27933
G1 X105.05 Y152.05 E16.70589
G1 X105.05 Y141.95 E16.95784
M205 X6 Y6
G0 F2666.7 X127.95 Y152.95
M205 X5 Y5
G1 F1200 X87.05 Y152.95 E17.97809
G1 X87.05 Y52.05 E20.49505
G1 X127.95 Y52.05 E21.51531
G1 X127.95 Y152.95 E24.03227
M205 X6 Y6
G0 F2666.7 X126.75 Y107.783
M205 X5 Y5
G1 F1200 X126.75 Y53.25 E25.3926
G1 X88.25 Y53.25 E26.35299
G1 X88.25 Y107.783 E27.71332
G1 X126.75 Y107.783 E28.6737
M205 X6 Y6
G0 F2666.7 X114.75 Y116.25
M205 X5 Y5
G1 F1200 X105.25 Y116.25 E28.91068
G1 X105.25 Y127.75 E29.19755
G1 X114.75 Y127.75 E29.43453
G1 X114.75 Y116.25 E29.7214
M205 X6 Y6
G0 F2666.7 X104.75 Y110.25
M205 X5 Y5
G1 F1200 X88.25 Y110.25 E30.13299
G1 X88.25 Y119.75 E30.36997
G1 X104.75 Y119.75 E30.78157
G1 X104.75 Y110.25 E31.01854
M205 X6 Y6
G0 F2666.7 X104.75 Y142.25
M205 X5 Y5
G1 F1200 X88.25 Y142.25 E31.43014
G1 X88.25 Y151.75 E31.66712
G1 X104.75 Y151.75 E32.07871
G1 X104.75 Y142.25 E32.31569
M205 X6 Y6
G0 F2666.7 X128.25 Y153.25
M205 X5 Y5
G1 F1200 X86.75 Y153.25 E33.35091
G1 X86.75 Y51.75 E35.88284
G1 X128.25 Y51.75 E36.91806
G1 X128.25 Y153.25 E39.44999
M205 X6 Y6
G0 F2666.7 X126.45 Y103.484
M205 X5 Y5
G1 F1200 X126.45 Y99.584 E39.54727
G1 X88.55 Y99.584 E40.49269
G1 X88.55 Y103.483 E40.58995
G1 X126.45 Y103.484 E41.53537
M205 X6 Y6
G0 F2666.7 X126.45 Y103.584
M205 X5 Y5
G1 F1200 X88.55 Y103.584 E41.85209
G1 X88.55 Y107.483 E41.94935
G1 X126.45 Y107.483 E42.89477
G1 X126.45 Y103.584 E42.99203
M205 X6 Y6
G0 F2666.7 X126.45 Y99.484
M205 X5 Y5
G1 F1200 X126.45 Y95.584 E43.08932
G1 X88.55 Y95.584 E44.03474
G1 X88.55 Y99.483 E44.132
G1 X126.45 Y99.484 E44.44871
M205 X6 Y6
G0 F2666.7 X126.45 Y95.484
M205 X5 Y5
G1 F1200 X126.45 Y91.584 E44.546
G1 X88.55 Y91.584 E45.49142
G1 X88.55 Y95.483 E45.58868
G1 X126.45 Y95.484 E45.90539
M205 X6 Y6
G0 F2666.7 X126.45 Y91.484
M205 X5 Y5
G1 F1200 X126.45 Y87.584 E46.00268
G1 X88.55 Y87.583 E46.9481
G1 X88.55 Y91.483 E47.04538
G1 X126.45 Y91.484 E47.3621
M205 X6 Y6
G0 F2666.7 X126.45 Y87.483
M205 X5 Y5
G1 F1200 X126.45 Y83.584 E47.45936
G1 X88.55 Y83.583 E48.40478
G1 X88.55 Y87.483 E48.50207
G1 X126.45 Y87.483 E48.81878
M205 X6 Y6
G0 F2666.7 X126.45 Y83.483
M205 X5 Y5
G1 F1200 X126.45 Y79.584 E48.91604
G1 X88.55 Y79.583 E49.86146
G1 X88.55 Y83.483 E49.95875
G1 X126.45 Y83.483 E50.27546
M205 X6 Y6
G0 F2666.7 X126.45 Y79.483
M205 X5 Y5
G1 F1200 X126.45 Y75.584 E50.37272
G1 X88.55 Y75.583 E51.31814
G1 X88.55 Y79.483 E51.41543
G1 X126.45 Y79.483 E51.73215
M205 X6 Y6
G0 F2666.7 X126.45 Y75.483
M205 X5 Y5
G1 F1200 X126.45 Y71.584 E51.82941
G1 X88.55 Y71.583 E52.77483
G1 X88.55 Y75.483 E52.87211
G1 X126.45 Y75.483 E53.18883
M205 X6 Y6
G0 F2666.7 X126.45 Y71.483
M205 X5 Y5
G1 F1200 X126.45 Y67.584 E53.28609
G1 X88.55 Y67.584 E54.23151
G1 X88.55 Y71.483 E54.32877
G1 X126.45 Y71.483 E54.64548
M205 X6 Y6
G0 F2666.7 X126.45 Y67.484
M205 X5 Y5
G1 F1200 X126.45 Y63.584 E54.74277
G1 X88.55 Y63.584 E55.68819
G1 X88.55 Y67.483 E55.78545
G1 X126.45 Y67.484 E56.10217
M205 X6 Y6
G0 F2666.7 X126.45 Y63.484
M205 X5 Y5
G1 F1200 X126.45 Y59.584 E56.19945
G1 X88.55 Y59.583 E57.14487
G1 X88.55 Y63.483 E57.24216
G1 X126.45 Y63.484 E57.55887
M205 X6 Y6
G0 F2666.7 X126.45 Y59.483
M205 X5 Y5
G1 F1200 X126.45 Y55.584 E57.65613
G1 X88.55 Y55.584 E58.60155
G1 X88.55 Y59.483 E58.69881
G1 X126.45 Y59.483 E59.01553
M205 X6 Y6
G0 F2666.7 X126.45 Y55.484
M205 X5 Y5
G1 F1200 X126.45 Y55.334 E59.01927
G1 X126.45 Y53.55 E59.06377
G1 X88.55 Y53.55 E60.00919
G1 X88.55 Y55.483 E60.05741
G1 X126.3 Y55.484 E60.99909
G1 X126.45 Y55.484 E61.00151
M205 X6 Y6
G0 F2666.7 X126.328 Y103.262
G0 X88.672 Y103.806
G0 X88.672 Y107.361
G0 X104.45 Y110.55
M205 X5 Y5
G1 F1200 X88.55 Y110.55 E61.39813
G1 X88.55 Y119.45 E61.62015
G1 X104.45 Y119.45 E62.01677
G1 X104.45 Y110.55 E62.23878
M205 X6 Y6
G0 F2666.7 X114.45 Y116.55
M205 X5 Y5
G1 F1200 X105.55 Y116.55 E62.4608
G1 X105.55 Y127.45 E62.7327
G1 X114.45 Y127.45 E62.95471
G1 X114.45 Y116.55 E63.22661
M205 X6 Y6
G0 F2666.7 X114.328 Y127.328
G0 X104.45 Y142.55
M205 X5 Y5
G1 F1200 X88.55 Y142.55 E63.62324
G1 X88.55 Y151.45 E63.84525
G1 X104.45 Y151.45 E64.24188
G1 X104.45 Y142.55 E64.46389
M205 X6 Y6
G0 F2666.7 X128.55 Y153.55
M205 X5 Y5
G1 F1200 X86.45 Y153.55 E65.51408
G1 X86.45 Y51.45 E68.06097
G1 X128.55 Y51.45 E69.11116
G1 X128.55 Y153.55 E71.65806
M205 X6 Y6
G1 F2100 E66.65806
G0 F2666.7 X126.328 Y103.806
G1 F2100 E71.65806
G0 F2666.7 X126.2 Y103.234
M205 X5 Y5
;TYPE:WALL-OUTER
G1 F1200 X126.2 Y103.084 E71.6618
G1 X126.2 Y99.834 E71.74287
G1 X88.8 Y99.834 E72.67582
G1 X88.8 Y103.233 E72.7606
G1 X126.05 Y103.234 E73.68981
G1 X126.2 Y103.234 E73.69223
M205 X6 Y6
G0 F2666.7 X126.2 Y103.084
G0 X126.2 Y103.034
G1 F2100 E68.69223
G0 F2666.7 X126.2 Y103.834
M205 X5 Y5
G1 F2100 E73.69223
G1 F1200 X88.8 Y103.834 E74.62518
G1 X88.8 Y107.233 E74.70996
G1 X126.2 Y107.233 E75.64291
G1 X126.2 Y103.834 E75.7277
M205 X6 Y6
G0 F2666.7 X126 Y103.834
G1 F2100 E70.7277
G0 F2666.7 X126 Y103.734
G0 X126.328 Y99.806
G1 F2100 E75.7277
G0 F2666.7 X126.2 Y99.234
M205 X5 Y5
G1 F1200 X126.2 Y99.084 E75.73144
G1 X126.2 Y95.834 E75.81251
G1 X88.8 Y95.834 E76.74546
G1 X88.8 Y99.233 E76.83025
G1 X126.05 Y99.234 E77.75945
G1 X126.2 Y99.234 E77.76187
M205 X6 Y6
G0 F2666.7 X126.2 Y99.084
G0 X126.2 Y99.034
G1 F2100 E72.76187
G0 F2666.7 X126.4 Y99.034
G0 X126.328 Y95.806
G1 F2100 E77.76187
G0 F2666.7 X126.2 Y95.234
M205 X5 Y5
G1 F1200 X126.2 Y95.084 E77.76561
G1 X126.2 Y91.834 E77.84669
G1 X88.8 Y91.834 E78.77963
G1 X88.8 Y95.233 E78.86442
G1 X126.05 Y95.234 E79.79363
G1 X126.2 Y95.234 E79.79605
M205 X6 Y6
G0 F2666.7 X126.2 Y95.084
G0 X126.2 Y95.034
G1 F2100 E74.79605
G0 F2666.7 X126.4 Y95.034
G0 X126.328 Y91.806
G1 F2100 E79.79605
G0 F2666.7 X126.2 Y91.234
M205 X5 Y5
G1 F1200 X126.2 Y91.084 E79.79979
G1 X126.2 Y87.834 E79.88086
G1 X88.95 Y87.833 E80.81006
G1 X88.8 Y87.833 E80.81381
G1 X88.8 Y87.983 E80.81623
G1 X88.8 Y91.233 E80.8973
G1 X126.05 Y91.234 E81.8265
G1 X126.2 Y91.234 E81.82892
M205 X6 Y6
G0 F2666.7 X126.2 Y91.084
G0 X126.2 Y91.034
G1 F2100 E76.82892
G0 F2666.7 X126.4 Y91.034
G0 X126.328 Y87.806
G1 F2100 E81.82892
G0 F2666.7 X126.2 Y87.233
M205 X5 Y5
G1 F1200 X126.2 Y83.834 E81.91371
G1 X88.95 Y83.833 E82.84291
G1 X88.8 Y83.833 E82.84666
G1 X88.8 Y83.983 E82.84908
G1 X88.8 Y87.233 E82.93015
G1 X126.2 Y87.233 E83.86309
M205 X6 Y6
G0 F2666.7 X126.2 Y87.033
G1 F2100 E78.86309
G0 F2666.7 X126.4 Y87.033
G0 X126.328 Y83.806
G1 F2100 E83.86309
G0 F2666.7 X126.2 Y83.233
M205 X5 Y5
G1 F1200 X126.2 Y79.834 E83.94788
G1 X88.95 Y79.833 E84.87709
G1 X88.8 Y79.833 E84.88083
G1 X88.8 Y79.983 E84.88325
G1 X88.8 Y83.233 E84.96432
G1 X126.2 Y83.233 E85.89727
M205 X6 Y6
G0 F2666.7 X126.2 Y83.033
G1 F2100 E80.89727
G0 F2666.7 X126.4 Y83.033
G0 X126.328 Y79.806
G1 F2100 E85.89727
G0 F2666.7 X126.2 Y79.233
M205 X5 Y5
G1 F1200 X126.2 Y75.834 E85.98206
G1 X88.95 Y75.833 E86.91126
G1 X88.8 Y75.833 E86.915
G1 X88.8 Y75.983 E86.91742
G1 X88.8 Y79.233 E86.99849
G1 X126.2 Y79.233 E87.93144
M205 X6 Y6
G0 F2666.7 X126.2 Y79.033
G1 F2100 E82.93144
G0 F2666.7 X126.4 Y79.033
G0 X126.328 Y75.806
G1 F2100 E87.93144
G0 F2666.7 X126.2 Y75.233
M205 X5 Y5
G1 F1200 X126.2 Y71.834 E88.01623
G1 X88.95 Y71.833 E88.94543
G1 X88.8 Y71.833 E88.94918
G1 X88.8 Y71.983 E88.9516
G1 X88.8 Y75.233 E89.03267
G1 X126.2 Y75.233 E89.96561
M205 X6 Y6
G0 F2666.7 X126.2 Y75.033
G1 F2100 E84.96561
G0 F2666.7 X126.4 Y75.033
G0 X126.328 Y71.806
G1 F2100 E89.96561
G0 F2666.7 X126.2 Y71.233
M205 X5 Y5
G1 F1200 X126.2 Y67.834 E90.0504
G1 X88.8 Y67.834 E90.98335
G1 X88.8 Y71.233 E91.06814
G1 X126.2 Y71.233 E92.00108
M205 X6 Y6
G0 F2666.7 X126.2 Y71.033
G1 F2100 E87.00108
G0 F2666.7 X126.4 Y71.033
G0 X126.328 Y67.806
G1 F2100 E92.00108
G0 F2666.7 X126.2 Y67.234
M205 X5 Y5
G1 F1200 X126.2 Y67.084 E92.00483
G1 X126.2 Y63.834 E92.0859
G1 X88.8 Y63.834 E93.01884
G1 X88.8 Y67.233 E93.10363
G1 X126.05 Y67.234 E94.03284
G1 X126.2 Y67.234 E94.03526
M205 X6 Y6
G0 F2666.7 X126.2 Y67.084
G0 X126.2 Y67.034
G1 F2100 E89.03526
G0 F2666.7 X126.4 Y67.034
G0 X126.328 Y63.806
G1 F2100 E94.03526
G0 F2666.7 X126.2 Y63.234
M205 X5 Y5
G1 F1200 X126.2 Y63.084 E94.039
G1 X126.2 Y59.834 E94.12007
G1 X88.95 Y59.833 E95.04928
G1 X88.8 Y59.833 E95.05302
G1 X88.8 Y59.983 E95.05544
G1 X88.8 Y63.233 E95.13651
G1 X126.05 Y63.234 E96.06571
G1 X126.2 Y63.234 E96.06813
M205 X6 Y6
G0 F2666.7 X126.2 Y63.084
G0 X126.2 Y63.034
G1 F2100 E91.06813
G0 F2666.7 X126.4 Y63.034
G0 X126.328 Y59.806
G1 F2100 E96.06813
G0 F2666.7 X126.2 Y59.233
M205 X5 Y5
G1 F1200 X126.2 Y55.834 E96.15292
G1 X88.8 Y55.834 E97.08587
G1 X88.8 Y59.233 E97.17066
G1 X126.2 Y59.233 E98.1036
M205 X6 Y6
G0 F2666.7 X126.2 Y59.033
G1 F2100 E93.1036
G0 F2666.7 X126.4 Y59.033
G0 X126.328 Y55.806
G1 F2100 E98.1036
G0 F2666.7 X126.2 Y55.234
M205 X5 Y5
G1 F1200 X126.2 Y55.084 E98.10735
G1 X126.2 Y53.8 E98.13938
G1 X88.8 Y53.8 E99.07232
G1 X88.8 Y55.233 E99.10807
G1 X126.05 Y55.234 E100.03727
G1 X126.2 Y55.234 E100.03969
M205 X6 Y6
G0 F2666.7 X126.2 Y55.084
G0 X126.2 Y55.034
G1 F2100 E95.03969
G0 F2666.7 X126.4 Y55.034
G0 X126.328 Y103.262
G0 X88.672 Y103.806
