G93 R50.0;FLAVOR:Marlin
;TIME:15410
;Filament used: 9.29239m, 0m
;Layer height: 0.2
;MINX:63.6
;MINY:36.85
;MINZ:0.2
;MAXX:151.4
;MAXY:168.15
;MAXZ:26
;Generated with Cura_SteamEngine 4.11.0
M140 S40
M105
M190 S40
M104 S200
M105
M109 S200
M82 ;absolute extrusion mode
G21 ;metric values
G90 ;absolute positioning
M82 ;set extruder to absolute mode
M107 ;start with the fan off
G28 X0 Y0 ;move X/Y to min endstops
G28 Z0 ;move Z to min endstops
G1 Z15.0 F9000 ;move the platform down 15mm
G92 E0 ;zero the extruded length
G1 F200 E15 ;extrude 15mm of feed stock
G92 E0 ;zero the extruded length again
G1 F9000
;Put printing message on LCD screen
M117 Printing...
G92 E0
G92 E0
G1 F2100 E-5
;LAYER_COUNT:130G93 R50.0
;LAYER:0G93 R50.0
M107
M204 S1000
M205 X6 Y6
G1 F600 Z1.2
G0 F2666.7 X63.984 Y39.516 Z1.2
M205 X5 Y5
;TYPE:SKIRT
G1 F600 Z0.2
G1 F2100 E0
G1 F1200 X64.256 Y39.094 E0.01252
G1 X64.595 Y38.708 E0.02534
G1 X65.026 Y38.269 E0.04069
G1 X65.565 Y37.746 E0.05942
G1 X65.952 Y37.427 E0.07193
G1 X66.385 Y37.173 E0.08445
G1 X66.853 Y36.992 E0.09697
G1 X67.343 Y36.887 E0.10947
G1 X67.864 Y36.855 E0.12249
G1 X68.273 Y36.85 E0.13269
G1 X146.588 Y36.85 E2.08627
G1 X147.289 Y36.86 E2.10376
G1 X147.788 Y36.907 E2.11626
G1 X148.274 Y37.033 E2.12879
G1 X148.733 Y37.234 E2.14129
G1 X149.155 Y37.506 E2.15381
G1 X149.532 Y37.835 E2.16629
G1 X150.017 Y38.313 E2.18328
G1 X150.503 Y38.815 E2.20071
G1 X150.822 Y39.202 E2.21322
G1 X151.076 Y39.635 E2.22574
G1 X151.258 Y40.102 E2.23824
G1 X151.363 Y40.593 E2.25077
G1 X151.395 Y41.115 E2.26381
G1 X151.4 Y41.524 E2.27402
G1 X151.4 Y163.339 E5.3127
G1 X151.39 Y164.041 E5.33022
G1 X151.343 Y164.54 E5.34272
G1 X151.217 Y165.026 E5.35524
G1 X151.016 Y165.485 E5.36774
G1 X150.744 Y165.907 E5.38027
G1 X150.401 Y166.297 E5.39322
G1 X149.986 Y166.719 E5.40799
G1 X149.438 Y167.251 E5.42704
G1 X149.052 Y167.57 E5.43953
G1 X148.619 Y167.825 E5.45207
G1 X148.152 Y168.007 E5.46457
G1 X147.661 Y168.112 E5.47709
G1 X147.136 Y168.145 E5.49022
G1 X146.727 Y168.15 E5.50042
G1 X106.911 Y168.15 E6.49363
G1 X106.222 Y168.14 E6.51082
G1 X105.51 Y168.047 E6.52873
G1 X104.616 Y167.825 E6.55171
G1 X104.23 Y167.722 E6.56168
G1 X103.555 Y167.533 E6.57916
G1 X102.886 Y167.26 E6.59719
G1 X102.059 Y166.805 E6.62073
G1 X66.637 Y146.563 E7.63844
G1 X66.02 Y146.198 E7.65632
G1 X65.61 Y145.909 E7.66883
G1 X65.251 Y145.559 E7.68134
G1 X64.948 Y145.149 E7.69406
G1 X64.755 Y144.836 E7.70323
G1 X64.338 Y144.117 E7.72396
G1 X64.012 Y143.535 E7.74061
G1 X63.802 Y143.08 E7.75311
G1 X63.668 Y142.596 E7.76563
G1 X63.611 Y142.092 E7.77829
G1 X63.6 Y141.668 E7.78887
G1 X63.6 Y41.662 E10.28353
G1 X63.61 Y40.96 E10.30104
G1 X63.657 Y40.461 E10.31354
G1 X63.783 Y39.975 E10.32607
G1 X63.984 Y39.516 E10.33857
M205 X6 Y6
G1 F2100 E5.33857
G1 F600 Z1.2
;MESH:top_v6.stl
G0 F2666.7 X147.2 Y41.434 Z1.2
M205 X5 Y5
;TYPE:WALL-INNER
G1 F600 Z0.2
G1 F2100 E10.33857
G1 F1200 X147.2 Y163.566 E13.38516
G1 X146.816 Y163.95 E13.39871
G1 X106.387 Y163.95 E14.40721
G1 X104.781 Y163.524 E14.44866
G1 X68.383 Y142.725 E15.4944
G1 X67.8 Y141.721 E15.52336
G1 X67.8 Y41.434 E18.02503
G1 X68.184 Y41.05 E18.03857
G1 X146.816 Y41.05 E20.00006
G1 X147.2 Y41.434 E20.0136
M205 X6 Y6
G0 F2666.7 X102.3 Y98.001
M205 X5 Y5
G1 F1200 X69.85 Y98 E20.82307
G1 X69.7 Y98 E20.82681
G1 X69.7 Y98.15 E20.82923
G1 X69.7 Y139.1 E21.85074
G1 X102.3 Y139.1 E22.66395
G1 X102.3 Y98.001 E23.68916
M205 X6 Y6
G0 F2666.7 X118.722 Y132.339
M205 X5 Y5
G1 F1200 X118.466 Y131.721 E23.70585
G1 X118.06 Y131.19 E23.72252
G1 X117.529 Y130.784 E23.7392
G1 X116.911 Y130.528 E23.75589
G1 X116.25 Y130.44 E23.77252
G1 X115.589 Y130.528 E23.78915
G1 X114.971 Y130.784 E23.80584
G1 X114.44 Y131.19 E23.82251
G1 X114.034 Y131.721 E23.83919
G1 X113.778 Y132.339 E23.85587
G1 X113.69 Y133 E23.87251
G1 X113.778 Y133.661 E23.88914
G1 X114.034 Y134.279 E23.90583
G1 X114.44 Y134.81 E23.9225
G1 X114.971 Y135.216 E23.93918
G1 X115.589 Y135.472 E23.95586
G1 X116.25 Y135.56 E23.9725
G1 X116.911 Y135.472 E23.98913
G1 X117.529 Y135.216 E24.00582
G1 X118.06 Y134.81 E24.02249
G1 X118.466 Y134.279 E24.03917
G1 X118.722 Y133.661 E24.05585
G1 X118.81 Y133 E24.07249
G1 X118.722 Y132.339 E24.08912
M205 X6 Y6
G0 F2666.7 X147.5 Y41.31
M205 X5 Y5
G1 F1200 X147.5 Y163.69 E27.1419
G1 X146.94 Y164.25 E27.16166
G1 X106.348 Y164.25 E28.17423
G1 X104.668 Y163.804 E28.21759
G1 X68.164 Y142.945 E29.26636
G1 X67.5 Y141.801 E29.29936
G1 X67.5 Y41.31 E31.80612
G1 X68.06 Y40.75 E31.82587
G1 X146.94 Y40.75 E33.79354
G1 X147.5 Y41.31 E33.8133
M205 X6 Y6
G0 F2666.7 X102 Y98.301
M205 X5 Y5
G1 F1200 X70.15 Y98.3 E34.6078
G1 X70 Y98.3 E34.61154
G1 X70 Y98.45 E34.61396
G1 X70 Y138.8 E35.6205
G1 X102 Y138.8 E36.41874
G1 X102 Y98.301 E37.42899
M205 X6 Y6
G0 F2666.7 X118.43 Y132.417
M205 X5 Y5
G1 F1200 X118.204 Y131.872 E37.44371
G1 X117.846 Y131.404 E37.45841
G1 X117.378 Y131.046 E37.47311
G1 X116.833 Y130.82 E37.48782
G1 X116.25 Y130.743 E37.50249
G1 X115.667 Y130.82 E37.51716
G1 X115.122 Y131.046 E37.53188
G1 X114.654 Y131.404 E37.54658
G1 X114.296 Y131.872 E37.56128
G1 X114.07 Y132.417 E37.57599
G1 X113.993 Y133 E37.59066
G1 X114.07 Y133.583 E37.60533
G1 X114.296 Y134.128 E37.62005
G1 X114.654 Y134.596 E37.63475
G1 X115.122 Y134.954 E37.64945
G1 X115.667 Y135.18 E37.66416
G1 X116.25 Y135.257 E37.67883
G1 X116.833 Y135.18 E37.6935
G1 X117.378 Y134.954 E37.70822
G1 X117.846 Y134.596 E37.72292
G1 X118.204 Y134.128 E37.73762
G1 X118.43 Y133.583 E37.75233
G1 X118.507 Y133 E37.767
G1 X118.43 Y132.417 E37.78167
M205 X6 Y6
G0 F2666.7 X147.8 Y41.186
M205 X5 Y5
G1 F1200 X147.8 Y163.814 E40.84064
G1 X147.064 Y164.55 E40.86661
G1 X106.309 Y164.55 E41.88324
G1 X104.555 Y164.084 E41.92851
G1 X67.945 Y143.165 E42.98033
G1 X67.2 Y141.881 E43.01736
G1 X67.2 Y41.186 E45.5292
G1 X67.936 Y40.45 E45.55517
G1 X147.064 Y40.45 E47.52903
G1 X147.8 Y41.186 E47.55499
M205 X6 Y6
G0 F2666.7 X101.7 Y103.5
M205 X5 Y5
G1 F1200 X101.7 Y98.601 E47.6772
G1 X70.45 Y98.6 E48.45673
G1 X70.3 Y98.6 E48.46047
G1 X70.3 Y98.75 E48.46289
G1 X70.3 Y103.5 E48.58138
G1 X101.7 Y103.5 E49.36466
M205 X6 Y6
G0 F2666.7 X101.7 Y103.601
M205 X5 Y5
G1 F1200 X70.3 Y103.6 E49.62705
G1 X70.3 Y108.5 E49.74929
G1 X101.7 Y108.501 E50.53256
G1 X101.7 Y103.601 E50.65479
M205 X6 Y6
G0 F2666.7 X101.7 Y108.601
M205 X5 Y5
G1 F1200 X70.3 Y108.6 E50.9159
G1 X70.3 Y113.5 E51.03813
G1 X101.7 Y113.501 E51.82141
G1 X101.7 Y108.601 E51.94364
M205 X6 Y6
G0 F2666.7 X101.7 Y113.601
M205 X5 Y5
G1 F1200 X70.3 Y113.6 E52.20475
G1 X70.3 Y118.5 E52.32698
G1 X101.7 Y118.501 E53.11026
G1 X101.7 Y113.601 E53.23249
M205 X6 Y6
G0 F2666.7 X101.7 Y118.601
M205 X5 Y5
G1 F1200 X70.3 Y118.6 E53.49359
G1 X70.3 Y123.5 E53.61583
G1 X101.7 Y123.501 E54.3991
G1 X101.7 Y118.601 E54.52133
M205 X6 Y6
G0 F2666.7 X101.7 Y123.601
M205 X5 Y5
G1 F1200 X70.3 Y123.6 E54.78244
G1 X70.3 Y128.5 E54.90467
G1 X101.7 Y128.501 E55.68795
G1 X101.7 Y123.601 E55.81018
M205 X6 Y6
G0 F2666.7 X101.7 Y128.601
M205 X5 Y5
G1 F1200 X70.3 Y128.6 E56.07129
G1 X70.3 Y133.5 E56.19352
G1 X101.7 Y133.501 E56.9768
G1 X101.7 Y128.601 E57.09903
M205 X6 Y6
G0 F2666.7 X101.7 Y133.601
M205 X5 Y5
G1 F1200 X70.3 Y133.601 E57.36142
G1 X70.3 Y138.5 E57.48363
G1 X101.7 Y138.5 E58.26691
G1 X101.7 Y133.601 E58.38911
M205 X6 Y6
G0 F2666.7 X116.25 Y131.157
G0 X117.172 Y131.405
G0 X118.138 Y132.495
M205 X5 Y5
G1 F1200 X117.942 Y132.023 E58.40186
G1 X117.632 Y131.618 E58.41458
G1 X117.227 Y131.308 E58.42731
G1 X116.755 Y131.112 E58.44006
G1 X116.25 Y131.046 E58.45276
G1 X115.745 Y131.112 E58.46546
G1 X115.273 Y131.308 E58.47821
G1 X114.868 Y131.618 E58.49094
G1 X114.558 Y132.023 E58.50366
G1 X114.362 Y132.495 E58.51641
G1 X114.296 Y133 E58.52911
G1 X114.362 Y133.505 E58.54182
G1 X114.558 Y133.977 E58.55456
G1 X114.868 Y134.382 E58.56729
G1 X115.273 Y134.692 E58.58001
G1 X115.745 Y134.888 E58.59276
G1 X116.25 Y134.954 E58.60546
G1 X116.755 Y134.888 E58.61817
G1 X117.227 Y134.692 E58.63092
G1 X117.632 Y134.382 E58.64364
G1 X117.942 Y133.977 E58.65636
G1 X118.138 Y133.505 E58.66911
G1 X118.204 Y133 E58.68182
G1 X118.138 Y132.495 E58.69452
M205 X6 Y6
G1 F2100 E53.69452
G0 F2666.7 X147.858 Y41.162
G1 F2100 E58.69452
G0 F2666.7 X148.05 Y41.082
M205 X5 Y5
;TYPE:WALL-OUTER
G1 F1200 X148.05 Y163.918 E61.75868
G1 X147.168 Y164.8 E61.78979
G1 X106.275 Y164.8 E62.80987
G1 X104.461 Y164.318 E62.85669
G1 X67.763 Y143.349 E63.91103
G1 X66.95 Y141.947 E63.95146
G1 X66.95 Y41.082 E66.46754
G1 X67.832 Y40.2 E66.49866
G1 X147.168 Y40.2 E68.4777
G1 X148.05 Y41.082 E68.50882
M205 X6 Y6
G0 F2666.7 X148.05 Y41.282
G1 F2100 E63.50882
G0 F2666.7 X147.85 Y41.282
G0 X101.578 Y103.278
G1 F2100 E68.50882
G0 F2666.7 X101.45 Y103.25
M205 X5 Y5
G1 F1200 X101.45 Y98.851 E68.61855
G1 X70.7 Y98.85 E69.38561
G1 X70.55 Y98.85 E69.38936
G1 X70.55 Y99 E69.39178
G1 X70.55 Y103.25 E69.49779
G1 X101.45 Y103.25 E70.2686
M205 X6 Y6
G0 F2666.7 X101.45 Y103.05
G1 F2100 E65.2686
G0 F2666.7 X101.45 Y103.851
M205 X5 Y5
G1 F2100 E70.2686
G1 F1200 X70.7 Y103.85 E71.03566
G1 X70.55 Y103.85 E71.0394
G1 X70.55 Y104 E71.04182
G1 X70.55 Y108.25 E71.14784
G1 X101.3 Y108.251 E71.9149
G1 X101.45 Y108.251 E71.91864
G1 X101.45 Y108.101 E71.92106
G1 X101.45 Y103.851 E72.02708
M205 X6 Y6
G0 F2666.7 X101.25 Y103.851
G1 F2100 E67.02708
G0 F2666.7 X101.25 Y103.751
G0 X101.578 Y108.279
G1 F2100 E72.02708
G0 F2666.7 X101.45 Y108.851
M205 X5 Y5
G1 F1200 X70.7 Y108.85 E72.79414
G1 X70.55 Y108.85 E72.79788
G1 X70.55 Y109 E72.8003
G1 X70.55 Y113.25 E72.90632
G1 X101.3 Y113.251 E73.67338
G1 X101.45 Y113.251 E73.67712
G1 X101.45 Y113.101 E73.67954
G1 X101.45 Y108.851 E73.78556
M205 X6 Y6
G0 F2666.7 X101.25 Y108.851
G1 F2100 E68.78556
G0 F2666.7 X101.25 Y108.751
G0 X101.578 Y113.279
G1 F2100 E73.78556
G0 F2666.7 X101.45 Y113.851
M205 X5 Y5
G1 F1200 X70.7 Y113.85 E74.55262
G1 X70.55 Y113.85 E74.55636
G1 X70.55 Y114 E74.55878
G1 X70.55 Y118.25 E74.6648
G1 X101.3 Y118.251 E75.43186
G1 X101.45 Y118.251 E75.4356
G1 X101.45 Y118.101 E75.43802
G1 X101.45 Y113.851 E75.54404
M205 X6 Y6
G0 F2666.7 X101.25 Y113.851
G1 F2100 E70.54404
G0 F2666.7 X101.25 Y113.751
G0 X101.578 Y118.279
G1 F2100 E75.54404
G0 F2666.7 X101.45 Y118.851
M205 X5 Y5
G1 F1200 X70.7 Y118.85 E76.3111
G1 X70.55 Y118.85 E76.31484
G1 X70.55 Y119 E76.31726
G1 X70.55 Y123.25 E76.42328
G1 X101.3 Y123.251 E77.19034
G1 X101.45 Y123.251 E77.19408
G1 X101.45 Y123.101 E77.1965
G1 X101.45 Y118.851 E77.30252
M205 X6 Y6
G0 F2666.7 X101.25 Y118.851
G1 F2100 E72.30252
G0 F2666.7 X101.25 Y118.751
G0 X101.578 Y123.279
G1 F2100 E77.30252
G0 F2666.7 X101.45 Y123.851
M205 X5 Y5
G1 F1200 X70.7 Y123.85 E78.06958
G1 X70.55 Y123.85 E78.07332
G1 X70.55 Y124 E78.07574
G1 X70.55 Y128.25 E78.18176
G1 X101.3 Y128.251 E78.94882
G1 X101.45 Y128.251 E78.95256
G1 X101.45 Y128.101 E78.95498
G1 X101.45 Y123.851 E79.061
M205 X6 Y6
G0 F2666.7 X101.25 Y123.851
G1 F2100 E74.061
G0 F2666.7 X101.25 Y123.751
G0 X101.578 Y128.279
G1 F2100 E79.061
G0 F2666.7 X101.45 Y128.851
M205 X5 Y5
G1 F1200 X70.7 Y128.85 E79.82806
G1 X70.55 Y128.85 E79.8318
G1 X70.55 Y129 E79.83422
G1 X70.55 Y133.25 E79.94024
G1 X101.3 Y133.251 E80.7073
G1 X101.45 Y133.251 E80.71104
G1 X101.45 Y133.101 E80.71346
G1 X101.45 Y128.851 E80.81948
M205 X6 Y6
G0 F2666.7 X101.25 Y128.851
G1 F2100 E75.81948
G0 F2666.7 X101.25 Y128.751
G0 X101.578 Y133.279
G1 F2100 E80.81948
G0 F2666.7 X101.45 Y133.851
M205 X5 Y5
G1 F1200 X70.55 Y133.851 E81.59028
G1 X70.55 Y138.25 E81.70001
G1 X101.45 Y138.25 E82.47082
G1 X101.45 Y133.851 E82.58055
M205 X6 Y6
G0 F2666.7 X101.25 Y133.851
G1 F2100 E77.58055
G0 F2666.7 X101.25 Y133.751
G0 X116.25 Y131.157
G0 X117.172 Y131.405
G0 X118.079 Y132.484
G1 F2100 E82.58055
G0 F2666.7 X117.894 Y132.56
M205 X5 Y5
G1 F1200 X117.724 Y132.149 E82.59165
G1 X117.454 Y131.796 E82.60273
G1 X117.101 Y131.526 E82.61382
G1 X116.69 Y131.356 E82.62491
G1 X116.25 Y131.298 E82.63598
G1 X115.81 Y131.356 E82.64705
G1 X115.399 Y131.526 E82.65815
G1 X115.046 Y131.796 E82.66923
G1 X114.776 Y132.149 E82.68032
G1 X114.606 Y132.56 E82.69142
G1 X114.548 Y133 E82.70249
G1 X114.606 Y133.44 E82.71356
G1 X114.776 Y133.851 E82.72465
G1 X115.046 Y134.204 E82.73574
G1 X115.399 Y134.474 E82.74682
G1 X115.81 Y134.644 E82.75792
G1 X116.25 Y134.702 E82.76899
G1 X116.69 Y134.644 E82.78006
G1 X117.101 Y134.474 E82.79116
G1 X117.454 Y134.204 E82.80224
G1 X117.724 Y133.851 E82.81333
G1 X117.894 Y133.44 E82.82442
G1 X117.952 Y133 E82.83549
G1 X117.894 Y132.56 E82.84656
M205 X6 Y6
G0 F2666.7 X117.818 Y132.375
G0 X118.002 Y132.3
G0 X119.004 Y132.263
M205 X5 Y5
;TYPE:SKIN
G1 F1200 X118.719 Y131.575 E82.86514
G1 X118.267 Y130.983 E82.88372
G1 X117.675 Y130.531 E82.9023
G1 X116.987 Y130.246 E82.92088
G1 X116.25 Y130.148 E82.93942
G1 X115.513 Y130.246 E82.95797
G1 X114.825 Y130.531 E82.97655
G1 X114.233 Y130.983 E82.99513
G1 X113.781 Y131.575 E83.01371
G1 X113.496 Y132.263 E83.03228
G1 X113.398 Y133 E83.05083
G1 X113.496 Y133.737 E83.06937
G1 X113.781 Y134.425 E83.08795
G1 X114.233 Y135.017 E83.10653
G1 X114.825 Y135.469 E83.12511
G1 X115.513 Y135.754 E83.14369
G1 X116.25 Y135.852 E83.16223
G1 X116.987 Y135.754 E83.18078
G1 X117.675 Y135.469 E83.19936
G1 X118.267 Y135.017 E83.21794
G1 X118.719 Y134.425 E83.23652
G1 X119.004 Y133.737 E83.25509
G1 X119.102 Y133 E83.27364
G1 X119.004 Y132.263 E83.29219
M205 X6 Y6
G0 F2666.7 X117.553 Y134.303
G0 X102.59 Y139.39
M205 X5 Y5
G1 F1200 X102.59 Y97.711 E84.33187
G1 X69.41 Y97.71 E85.15955
G1 X69.41 Y139.39 E86.19926
G1 X102.59 Y139.39 E87.02694
M205 X6 Y6
G0 F2666.7 X106.423 Y163.66
M205 X5 Y5
G1 F1200 X104.892 Y163.254 E87.06645
G1 X68.595 Y142.513 E88.10928
G1 X68.09 Y141.643 E88.13438
G1 X68.09 Y41.554 E90.63111
G1 X68.304 Y41.34 E90.63866
G1 X146.696 Y41.34 E92.59415
G1 X146.91 Y41.554 E92.6017
G1 X146.91 Y163.446 E95.64231
G1 X146.696 Y163.66 E95.64986
G1 X106.423 Y163.66 E96.65447
M205 X6 Y6
G0 F2666.7 X68.194 Y141.591
M205 X5 Y5
G1 F1200 X69.526 Y142.923 E96.70146
G1 X69.579 Y142.976
M205 X6 Y6
G0 F2666.7 X70.516 Y143.489
M205 X5 Y5
G1 F1200 X68.194 Y141.167 E96.78338
M205 X6 Y6
G0 F2666.7 X68.194 Y140.743
M205 X5 Y5
G1 F1200 X71.506 Y144.055 E96.90022
G1 X71.559 Y144.108
M205 X6 Y6
G0 F2666.7 X72.496 Y144.621
M205 X5 Y5
G1 F1200 X68.194 Y140.318 E97.052
M205 X6 Y6
G0 F2666.7 X68.194 Y139.894
M205 X5 Y5
G1 F1200 X73.486 Y145.186 E97.23869
G1 X73.539 Y145.239
M205 X6 Y6
G0 F2666.7 X74.476 Y145.752
M205 X5 Y5
G1 F1200 X68.194 Y139.47 E97.4603
M205 X6 Y6
G0 F2666.7 X68.194 Y139.046
M205 X5 Y5
G1 F1200 X75.465 Y146.318 E97.71683
G1 X75.518 Y146.371
M205 X6 Y6
G0 F2666.7 X76.455 Y146.883
M205 X5 Y5
G1 F1200 X68.194 Y138.621 E98.00827
M205 X6 Y6
G0 F2666.7 X68.194 Y138.197
M205 X5 Y5
G1 F1200 X69.304 Y139.308 E98.04745
M205 X6 Y6
G0 F2666.7 X69.49 Y139.494
M205 X5 Y5
G1 F1200 X77.445 Y147.449 E98.32808
G1 X77.498 Y147.502
M205 X6 Y6
G0 F2666.7 X78.435 Y148.015
M205 X5 Y5
G1 F1200 X69.915 Y139.494 E98.62867
M205 X6 Y6
G0 F2666.7 X70.339 Y139.494
M205 X5 Y5
G1 F1200 X79.425 Y148.58 E98.9492
G1 X79.478 Y148.633
M205 X6 Y6
G0 F2666.7 X80.415 Y149.146
M205 X5 Y5
G1 F1200 X70.763 Y139.494 E99.2897
M205 X6 Y6
G0 F2666.7 X71.187 Y139.494
M205 X5 Y5
G1 F1200 X81.405 Y149.712 E99.65017
G1 X81.458 Y149.765
M205 X6 Y6
G0 F2666.7 X82.395 Y150.277
M205 X5 Y5
G1 F1200 X71.612 Y139.494 E100.03057
M205 X6 Y6
G0 F2666.7 X72.036 Y139.494
M205 X5 Y5
G1 F1200 X83.385 Y150.843 E100.43093
G1 X83.438 Y150.896
M205 X6 Y6
G0 F2666.7 X84.375 Y151.409
M205 X5 Y5
G1 F1200 X72.46 Y139.494 E100.85127
M205 X6 Y6
G0 F2666.7 X72.885 Y139.494
M205 X5 Y5
